P3
400 225
255
25 51 76

25 51 76

25 51 76

25 51 76

25 51 76

25 51 76

25 51 76

25 51 76

25 51 76

25 51 76

25 51 76

25 51 76

25 51 76

25 51 76

25 51 76

25 51 76

25 51 76

25 51 76

25 51 76

25 51 76

25 51 76

25 51 76

25 51 76

25 51 76

25 51 76

25 51 76

25 51 76

25 51 76

25 51 76

25 51 76

25 51 76

25 51 76

25 51 76

25 51 76

25 51 76

25 51 76

25 51 76

25 51 76

25 51 76

25 51 76

25 51 76

25 51 76

25 51 76

25 51 76

25 51 76

25 51 76

25 51 76

25 51 76

25 51 76

25 51 76

25 51 76

25 51 76

25 51 76

25 51 76

25 51 76

25 51 76

25 51 76

25 51 76

25 51 76

25 51 76

25 51 76

25 51 76

25 51 76

25 51 76

25 51 76

25 51 76

25 51 76

25 51 76

25 51 76

25 51 76

25 51 76

25 51 76

25 51 76

25 51 76

25 51 76

25 51 76

25 51 76

25 51 76

25 51 76

25 51 76

25 51 76

25 51 76

25 51 76

25 51 76

25 51 76

25 51 76

25 51 76

25 51 76

25 51 76

25 51 76

25 51 76

25 51 76

25 51 76

25 51 76

25 51 76

25 51 76

25 51 76

25 51 76

25 51 76

25 51 76

25 51 76

25 51 76

25 51 76

25 51 76

25 51 76

25 51 76

25 51 76

25 51 76

25 51 76

25 51 76

25 51 76

25 51 76

25 51 76

25 51 76

25 51 76

25 51 76

25 51 76

25 51 76

25 51 76

25 51 76

25 51 76

25 51 76

25 51 76

25 51 76

25 51 76

25 51 76

25 51 76

25 51 76

25 51 76

25 51 76

25 51 76

25 51 76

25 51 76

25 51 76

25 51 76

25 51 76

25 51 76

25 51 76

25 51 76

25 51 76

25 51 76

25 51 76

25 51 76

25 51 76

25 51 76

25 51 76

25 51 76

25 51 76

25 51 76

25 51 76

25 51 76

25 51 76

25 51 76

25 51 76

25 51 76

25 51 76

25 51 76

25 51 76

25 51 76

25 51 76

25 51 76

25 51 76

25 51 76

25 51 76

25 51 76

25 51 76

25 51 76

25 51 76

25 51 76

25 51 76

25 51 76

25 51 76

25 51 76

25 51 76

25 51 76

25 51 76

25 51 76

25 51 76

25 51 76

25 51 76

25 51 76

25 51 76

25 51 76

25 51 76

25 51 76

25 51 76

25 51 76

25 51 76

25 51 76

25 51 76

25 51 76

25 51 76

25 51 76

25 51 76

25 51 76

25 51 76

25 51 76

25 51 76

25 51 76

25 51 76

25 51 76

25 51 76

25 51 76

25 51 76

25 51 76

25 51 76

25 51 76

25 51 76

25 51 76

25 51 76

25 51 76

25 51 76

25 51 76

25 51 76

25 51 76

25 51 76

25 51 76

25 51 76

25 51 76

25 51 76

25 51 76

25 51 76

25 51 76

25 51 76

25 51 76

25 51 76

25 51 76

25 51 76

25 51 76

25 51 76

25 51 76

25 51 76

25 51 76

25 51 76

25 51 76

25 51 76

25 51 76

25 51 76

25 51 76

25 51 76

25 51 76

25 51 76

25 51 76

25 51 76

25 51 76

25 51 76

25 51 76

25 51 76

25 51 76

25 51 76

25 51 76

25 51 76

25 51 76

25 51 76

25 51 76

25 51 76

25 51 76

25 51 76

25 51 76

25 51 76

25 51 76

25 51 76

25 51 76

25 51 76

25 51 76

25 51 76

25 51 76

25 51 76

25 51 76

25 51 76

25 51 76

25 51 76

25 51 76

25 51 76

25 51 76

25 51 76

25 51 76

25 51 76

25 51 76

25 51 76

25 51 76

25 51 76

25 51 76

25 51 76

25 51 76

25 51 76

25 51 76

25 51 76

25 51 76

25 51 76

25 51 76

25 51 76

25 51 76

25 51 76

25 51 76

25 51 76

25 51 76

25 51 76

25 51 76

25 51 76

25 51 76

25 51 76

25 51 76

25 51 76

25 51 76

25 51 76

25 51 76

25 51 76

25 51 76

25 51 76

25 51 76

25 51 76

25 51 76

25 51 76

25 51 76

25 51 76

25 51 76

25 51 76

25 51 76

25 51 76

25 51 76

25 51 76

25 51 76

25 51 76

25 51 76

25 51 76

25 51 76

25 51 76

25 51 76

25 51 76

25 51 76

25 51 76

25 51 76

25 51 76

25 51 76

25 51 76

25 51 76

25 51 76

25 51 76

25 51 76

25 51 76

25 51 76

25 51 76

25 51 76

25 51 76

25 51 76

25 51 76

25 51 76

25 51 76

25 51 76

25 51 76

25 51 76

25 51 76

25 51 76

25 51 76

25 51 76

25 51 76

25 51 76

25 51 76

25 51 76

25 51 76

25 51 76

25 51 76

25 51 76

25 51 76

25 51 76

25 51 76

25 51 76

25 51 76

25 51 76

25 51 76

25 51 76

25 51 76

25 51 76

25 51 76

25 51 76

25 51 76

25 51 76

25 51 76

25 51 76

25 51 76

25 51 76

25 51 76

25 51 76

25 51 76

25 51 76

25 51 76

25 51 76

25 51 76

25 51 76

25 51 76

25 51 76

25 51 76

25 51 76

25 51 76

25 51 76

25 51 76

25 51 76

25 51 76

25 51 76

25 51 76

25 51 76

25 51 76

25 51 76

25 51 76

25 51 76

25 51 76

25 51 76

25 51 76

25 51 76

25 51 76

25 51 76

25 51 76

25 51 76

25 51 76

25 51 76

25 51 76

25 51 76

25 51 76

25 51 76

25 51 76

25 51 76

25 51 76

25 51 76

25 51 76

25 51 76

25 51 76

25 51 76

25 51 76

25 51 76

25 51 76

25 51 76

25 51 76

25 51 76

25 51 76

25 51 76

25 51 76

25 51 76

25 51 76

25 51 76

25 51 76

25 51 76

25 51 76

25 51 76

25 51 76

25 51 76

25 51 76

25 51 76

25 51 76

25 51 76

25 51 76

25 51 76

25 51 76

25 51 76

25 51 76

25 51 76

25 51 76

25 51 76

25 51 76

25 51 76

25 51 76

25 51 76

25 51 76

25 51 76

25 51 76

25 51 76

25 51 76

25 51 76

25 51 76

25 51 76

25 51 76

25 51 76

25 51 76

25 51 76

25 51 76

25 51 76

25 51 76

25 51 76

25 51 76

25 51 76

25 51 76

25 51 76

25 51 76

25 51 76

25 51 76

25 51 76

25 51 76

25 51 76

25 51 76

25 51 76

25 51 76

25 51 76

25 51 76

25 51 76

25 51 76

25 51 76

25 51 76

25 51 76

25 51 76

25 51 76

25 51 76

25 51 76

25 51 76

25 51 76

25 51 76

25 51 76

25 51 76

25 51 76

25 51 76

25 51 76

25 51 76

25 51 76

25 51 76

25 51 76

25 51 76

25 51 76

25 51 76

25 51 76

25 51 76

25 51 76

25 51 76

25 51 76

25 51 76

25 51 76

25 51 76

25 51 76

25 51 76

25 51 76

25 51 76

25 51 76

25 51 76

25 51 76

25 51 76

25 51 76

25 51 76

25 51 76

25 51 76

25 51 76

25 51 76

25 51 76

25 51 76

25 51 76

25 51 76

25 51 76

25 51 76

25 51 76

25 51 76

25 51 76

25 51 76

25 51 76

25 51 76

25 51 76

25 51 76

25 51 76

25 51 76

25 51 76

25 51 76

25 51 76

25 51 76

25 51 76

25 51 76

25 51 76

25 51 76

25 51 76

25 51 76

25 51 76

25 51 76

25 51 76

25 51 76

25 51 76

25 51 76

25 51 76

25 51 76

25 51 76

25 51 76

25 51 76

25 51 76

25 51 76

25 51 76

25 51 76

25 51 76

25 51 76

25 51 76

25 51 76

25 51 76

25 51 76

25 51 76

25 51 76

25 51 76

25 51 76

25 51 76

25 51 76

25 51 76

25 51 76

25 51 76

25 51 76

25 51 76

25 51 76

25 51 76

25 51 76

25 51 76

25 51 76

25 51 76

25 51 76

25 51 76

25 51 76

25 51 76

25 51 76

25 51 76

25 51 76

25 51 76

25 51 76

25 51 76

25 51 76

25 51 76

25 51 76

25 51 76

25 51 76

25 51 76

25 51 76

25 51 76

25 51 76

25 51 76

25 51 76

25 51 76

25 51 76

25 51 76

25 51 76

25 51 76

25 51 76

25 51 76

25 51 76

25 51 76

25 51 76

25 51 76

25 51 76

25 51 76

25 51 76

25 51 76

25 51 76

25 51 76

25 51 76

25 51 76

25 51 76

25 51 76

25 51 76

25 51 76

25 51 76

25 51 76

25 51 76

25 51 76

25 51 76

25 51 76

25 51 76

25 51 76

25 51 76

25 51 76

25 51 76

25 51 76

25 51 76

25 51 76

25 51 76

25 51 76

25 51 76

25 51 76

25 51 76

25 51 76

25 51 76

25 51 76

25 51 76

25 51 76

25 51 76

25 51 76

25 51 76

25 51 76

25 51 76

25 51 76

25 51 76

25 51 76

25 51 76

25 51 76

25 51 76

25 51 76

25 51 76

25 51 76

25 51 76

25 51 76

25 51 76

25 51 76

25 51 76

25 51 76

25 51 76

25 51 76

25 51 76

25 51 76

25 51 76

25 51 76

25 51 76

25 51 76

25 51 76

25 51 76

25 51 76

25 51 76

25 51 76

25 51 76

25 51 76

25 51 76

25 51 76

25 51 76

25 51 76

25 51 76

25 51 76

25 51 76

25 51 76

25 51 76

25 51 76

25 51 76

25 51 76

25 51 76

25 51 76

25 51 76

25 51 76

25 51 76

25 51 76

25 51 76

25 51 76

25 51 76

25 51 76

25 51 76

25 51 76

25 51 76

25 51 76

25 51 76

25 51 76

25 51 76

25 51 76

25 51 76

25 51 76

25 51 76

25 51 76

25 51 76

25 51 76

25 51 76

25 51 76

25 51 76

25 51 76

25 51 76

25 51 76

25 51 76

25 51 76

25 51 76

25 51 76

25 51 76

25 51 76

25 51 76

25 51 76

25 51 76

25 51 76

25 51 76

25 51 76

25 51 76

25 51 76

25 51 76

25 51 76

25 51 76

25 51 76

25 51 76

25 51 76

25 51 76

25 51 76

25 51 76

25 51 76

25 51 76

25 51 76

25 51 76

25 51 76

25 51 76

25 51 76

25 51 76

25 51 76

25 51 76

25 51 76

25 51 76

25 51 76

25 51 76

25 51 76

25 51 76

25 51 76

25 51 76

25 51 76

25 51 76

25 51 76

25 51 76

25 51 76

25 51 76

25 51 76

25 51 76

25 51 76

25 51 76

25 51 76

25 51 76

25 51 76

25 51 76

25 51 76

25 51 76

25 51 76

25 51 76

25 51 76

25 51 76

25 51 76

25 51 76

25 51 76

25 51 76

25 51 76

25 51 76

25 51 76

25 51 76

25 51 76

25 51 76

25 51 76

25 51 76

25 51 76

25 51 76

25 51 76

25 51 76

25 51 76

25 51 76

25 51 76

25 51 76

25 51 76

25 51 76

25 51 76

25 51 76

25 51 76

25 51 76

25 51 76

25 51 76

25 51 76

25 51 76

25 51 76

25 51 76

25 51 76

25 51 76

25 51 76

25 51 76

25 51 76

25 51 76

25 51 76

25 51 76

25 51 76

25 51 76

25 51 76

25 51 76

25 51 76

25 51 76

25 51 76

25 51 76

25 51 76

25 51 76

25 51 76

25 51 76

25 51 76

25 51 76

25 51 76

25 51 76

25 51 76

25 51 76

25 51 76

25 51 76

25 51 76

25 51 76

25 51 76

25 51 76

25 51 76

25 51 76

25 51 76

25 51 76

25 51 76

25 51 76

25 51 76

25 51 76

25 51 76

25 51 76

25 51 76

25 51 76

25 51 76

25 51 76

25 51 76

25 51 76

25 51 76

25 51 76

25 51 76

25 51 76

25 51 76

25 51 76

25 51 76

25 51 76

25 51 76

25 51 76

25 51 76

25 51 76

25 51 76

25 51 76

25 51 76

25 51 76

25 51 76

25 51 76

25 51 76

25 51 76

25 51 76

25 51 76

25 51 76

25 51 76

25 51 76

25 51 76

25 51 76

25 51 76

25 51 76

25 51 76

25 51 76

25 51 76

25 51 76

25 51 76

25 51 76

25 51 76

25 51 76

25 51 76

25 51 76

25 51 76

25 51 76

25 51 76

25 51 76

25 51 76

25 51 76

25 51 76

25 51 76

25 51 76

25 51 76

25 51 76

25 51 76

25 51 76

25 51 76

25 51 76

25 51 76

25 51 76

25 51 76

25 51 76

25 51 76

25 51 76

25 51 76

25 51 76

25 51 76

25 51 76

25 51 76

25 51 76

25 51 76

25 51 76

25 51 76

25 51 76

25 51 76

25 51 76

25 51 76

25 51 76

25 51 76

25 51 76

25 51 76

25 51 76

25 51 76

25 51 76

25 51 76

25 51 76

25 51 76

25 51 76

25 51 76

25 51 76

25 51 76

25 51 76

25 51 76

25 51 76

25 51 76

25 51 76

25 51 76

25 51 76

25 51 76

25 51 76

25 51 76

25 51 76

25 51 76

25 51 76

25 51 76

25 51 76

25 51 76

25 51 76

25 51 76

25 51 76

25 51 76

25 51 76

25 51 76

25 51 76

25 51 76

25 51 76

25 51 76

25 51 76

25 51 76

25 51 76

25 51 76

25 51 76

25 51 76

25 51 76

25 51 76

25 51 76

25 51 76

25 51 76

25 51 76

25 51 76

25 51 76

25 51 76

25 51 76

25 51 76

25 51 76

25 51 76

25 51 76

25 51 76

25 51 76

25 51 76

25 51 76

25 51 76

25 51 76

25 51 76

25 51 76

25 51 76

25 51 76

25 51 76

25 51 76

25 51 76

25 51 76

25 51 76

25 51 76

25 51 76

25 51 76

25 51 76

25 51 76

25 51 76

25 51 76

25 51 76

25 51 76

25 51 76

25 51 76

25 51 76

25 51 76

25 51 76

25 51 76

25 51 76

25 51 76

25 51 76

25 51 76

25 51 76

25 51 76

25 51 76

25 51 76

25 51 76

25 51 76

25 51 76

25 51 76

25 51 76

25 51 76

25 51 76

25 51 76

25 51 76

25 51 76

25 51 76

25 51 76

25 51 76

25 51 76

25 51 76

25 51 76

25 51 76

25 51 76

25 51 76

25 51 76

25 51 76

25 51 76

25 51 76

25 51 76

25 51 76

25 51 76

25 51 76

25 51 76

25 51 76

25 51 76

25 51 76

25 51 76

25 51 76

25 51 76

25 51 76

25 51 76

25 51 76

25 51 76

25 51 76

25 51 76

25 51 76

25 51 76

25 51 76

25 51 76

25 51 76

25 51 76

25 51 76

25 51 76

25 51 76

25 51 76

25 51 76

25 51 76

25 51 76

25 51 76

25 51 76

25 51 76

25 51 76

25 51 76

25 51 76

25 51 76

25 51 76

25 51 76

25 51 76

25 51 76

25 51 76

25 51 76

25 51 76

25 51 76

25 51 76

25 51 76

25 51 76

25 51 76

25 51 76

25 51 76

25 51 76

25 51 76

25 51 76

25 51 76

25 51 76

25 51 76

25 51 76

25 51 76

25 51 76

25 51 76

25 51 76

25 51 76

25 51 76

25 51 76

25 51 76

25 51 76

25 51 76

25 51 76

25 51 76

25 51 76

25 51 76

25 51 76

25 51 76

25 51 76

25 51 76

25 51 76

25 51 76

25 51 76

25 51 76

25 51 76

25 51 76

25 51 76

25 51 76

25 51 76

25 51 76

25 51 76

25 51 76

25 51 76

25 51 76

25 51 76

25 51 76

25 51 76

25 51 76

25 51 76

25 51 76

25 51 76

25 51 76

25 51 76

25 51 76

25 51 76

25 51 76

25 51 76

25 51 76

25 51 76

25 51 76

25 51 76

25 51 76

25 51 76

25 51 76

25 51 76

25 51 76

25 51 76

25 51 76

25 51 76

25 51 76

25 51 76

25 51 76

25 51 76

25 51 76

25 51 76

25 51 76

25 51 76

25 51 76

25 51 76

25 51 76

25 51 76

25 51 76

25 51 76

25 51 76

25 51 76

25 51 76

25 51 76

25 51 76

25 51 76

25 51 76

25 51 76

25 51 76

25 51 76

25 51 76

25 51 76

25 51 76

25 51 76

25 51 76

25 51 76

25 51 76

25 51 76

25 51 76

25 51 76

25 51 76

25 51 76

25 51 76

25 51 76

25 51 76

25 51 76

25 51 76

25 51 76

25 51 76

25 51 76

25 51 76

25 51 76

25 51 76

25 51 76

25 51 76

25 51 76

25 51 76

25 51 76

25 51 76

25 51 76

25 51 76

25 51 76

25 51 76

25 51 76

25 51 76

25 51 76

25 51 76

25 51 76

25 51 76

25 51 76

25 51 76

25 51 76

25 51 76

25 51 76

25 51 76

25 51 76

25 51 76

25 51 76

25 51 76

25 51 76

25 51 76

25 51 76

25 51 76

25 51 76

25 51 76

25 51 76

25 51 76

25 51 76

25 51 76

25 51 76

25 51 76

25 51 76

25 51 76

25 51 76

25 51 76

25 51 76

25 51 76

25 51 76

25 51 76

25 51 76

25 51 76

25 51 76

25 51 76

25 51 76

25 51 76

25 51 76

25 51 76

25 51 76

25 51 76

25 51 76

25 51 76

25 51 76

25 51 76

25 51 76

25 51 76

25 51 76

25 51 76

25 51 76

25 51 76

25 51 76

25 51 76

25 51 76

25 51 76

25 51 76

25 51 76

25 51 76

25 51 76

25 51 76

25 51 76

25 51 76

25 51 76

25 51 76

25 51 76

25 51 76

25 51 76

25 51 76

25 51 76

25 51 76

25 51 76

25 51 76

25 51 76

25 51 76

25 51 76

25 51 76

25 51 76

25 51 76

25 51 76

25 51 76

25 51 76

25 51 76

25 51 76

25 51 76

25 51 76

25 51 76

25 51 76

25 51 76

25 51 76

25 51 76

25 51 76

25 51 76

25 51 76

25 51 76

25 51 76

25 51 76

25 51 76

25 51 76

25 51 76

25 51 76

25 51 76

25 51 76

25 51 76

25 51 76

25 51 76

25 51 76

25 51 76

25 51 76

25 51 76

25 51 76

25 51 76

25 51 76

25 51 76

25 51 76

25 51 76

25 51 76

25 51 76

25 51 76

25 51 76

25 51 76

25 51 76

25 51 76

25 51 76

25 51 76

25 51 76

25 51 76

25 51 76

25 51 76

25 51 76

25 51 76

25 51 76

25 51 76

25 51 76

25 51 76

25 51 76

25 51 76

25 51 76

25 51 76

25 51 76

25 51 76

25 51 76

25 51 76

25 51 76

25 51 76

25 51 76

25 51 76

25 51 76

25 51 76

25 51 76

25 51 76

25 51 76

25 51 76

25 51 76

25 51 76

25 51 76

25 51 76

25 51 76

25 51 76

25 51 76

25 51 76

25 51 76

25 51 76

25 51 76

25 51 76

25 51 76

25 51 76

25 51 76

25 51 76

25 51 76

25 51 76

25 51 76

25 51 76

25 51 76

25 51 76

25 51 76

25 51 76

25 51 76

25 51 76

25 51 76

25 51 76

25 51 76

25 51 76

25 51 76

25 51 76

25 51 76

25 51 76

25 51 76

25 51 76

25 51 76

25 51 76

25 51 76

25 51 76

25 51 76

25 51 76

25 51 76

25 51 76

25 51 76

25 51 76

25 51 76

25 51 76

25 51 76

25 51 76

25 51 76

25 51 76

25 51 76

25 51 76

25 51 76

25 51 76

25 51 76

25 51 76

25 51 76

25 51 76

25 51 76

25 51 76

25 51 76

25 51 76

25 51 76

25 51 76

25 51 76

25 51 76

25 51 76

25 51 76

25 51 76

25 51 76

25 51 76

25 51 76

25 51 76

25 51 76

25 51 76

25 51 76

25 51 76

25 51 76

25 51 76

25 51 76

25 51 76

25 51 76

25 51 76

25 51 76

25 51 76

25 51 76

25 51 76

25 51 76

25 51 76

25 51 76

25 51 76

25 51 76

25 51 76

25 51 76

25 51 76

25 51 76

25 51 76

25 51 76

25 51 76

25 51 76

25 51 76

25 51 76

25 51 76

25 51 76

25 51 76

25 51 76

25 51 76

25 51 76

25 51 76

25 51 76

25 51 76

25 51 76

25 51 76

25 51 76

25 51 76

25 51 76

25 51 76

25 51 76

25 51 76

25 51 76

25 51 76

25 51 76

25 51 76

25 51 76

25 51 76

25 51 76

25 51 76

25 51 76

25 51 76

25 51 76

25 51 76

25 51 76

25 51 76

25 51 76

25 51 76

25 51 76

25 51 76

25 51 76

25 51 76

25 51 76

25 51 76

25 51 76

25 51 76

25 51 76

25 51 76

25 51 76

25 51 76

25 51 76

25 51 76

25 51 76

25 51 76

25 51 76

25 51 76

25 51 76

25 51 76

25 51 76

25 51 76

25 51 76

25 51 76

25 51 76

25 51 76

25 51 76

25 51 76

25 51 76

25 51 76

25 51 76

25 51 76

25 51 76

25 51 76

25 51 76

25 51 76

25 51 76

25 51 76

25 51 76

25 51 76

25 51 76

25 51 76

25 51 76

25 51 76

25 51 76

25 51 76

25 51 76

25 51 76

25 51 76

25 51 76

25 51 76

25 51 76

25 51 76

25 51 76

25 51 76

25 51 76

25 51 76

25 51 76

25 51 76

25 51 76

25 51 76

25 51 76

25 51 76

25 51 76

25 51 76

25 51 76

25 51 76

25 51 76

25 51 76

25 51 76

25 51 76

25 51 76

25 51 76

25 51 76

25 51 76

25 51 76

25 51 76

25 51 76

25 51 76

25 51 76

25 51 76

25 51 76

25 51 76

25 51 76

25 51 76

25 51 76

25 51 76

25 51 76

25 51 76

25 51 76

25 51 76

25 51 76

25 51 76

25 51 76

25 51 76

25 51 76

25 51 76

25 51 76

25 51 76

25 51 76

25 51 76

25 51 76

25 51 76

25 51 76

25 51 76

25 51 76

25 51 76

25 51 76

25 51 76

25 51 76

25 51 76

25 51 76

25 51 76

25 51 76

25 51 76

25 51 76

25 51 76

25 51 76

25 51 76

25 51 76

25 51 76

25 51 76

25 51 76

25 51 76

25 51 76

25 51 76

25 51 76

25 51 76

25 51 76

25 51 76

25 51 76

25 51 76

25 51 76

25 51 76

25 51 76

25 51 76

25 51 76

25 51 76

25 51 76

25 51 76

25 51 76

25 51 76

25 51 76

25 51 76

25 51 76

25 51 76

25 51 76

25 51 76

25 51 76

25 51 76

25 51 76

25 51 76

25 51 76

25 51 76

25 51 76

25 51 76

25 51 76

25 51 76

25 51 76

25 51 76

25 51 76

25 51 76

25 51 76

25 51 76

25 51 76

25 51 76

25 51 76

25 51 76

25 51 76

25 51 76

25 51 76

25 51 76

25 51 76

25 51 76

25 51 76

25 51 76

25 51 76

25 51 76

25 51 76

25 51 76

25 51 76

25 51 76

25 51 76

25 51 76

25 51 76

25 51 76

25 51 76

25 51 76

25 51 76

25 51 76

25 51 76

25 51 76

25 51 76

25 51 76

25 51 76

25 51 76

25 51 76

25 51 76

25 51 76

25 51 76

25 51 76

25 51 76

25 51 76

25 51 76

25 51 76

25 51 76

25 51 76

25 51 76

25 51 76

25 51 76

25 51 76

25 51 76

25 51 76

25 51 76

25 51 76

25 51 76

25 51 76

25 51 76

25 51 76

25 51 76

25 51 76

25 51 76

25 51 76

25 51 76

25 51 76

25 51 76

25 51 76

25 51 76

25 51 76

25 51 76

25 51 76

25 51 76

25 51 76

25 51 76

25 51 76

25 51 76

25 51 76

25 51 76

25 51 76

25 51 76

25 51 76

25 51 76

25 51 76

25 51 76

25 51 76

25 51 76

25 51 76

25 51 76

25 51 76

25 51 76

25 51 76

25 51 76

25 51 76

25 51 76

25 51 76

25 51 76

25 51 76

25 51 76

25 51 76

25 51 76

25 51 76

25 51 76

25 51 76

25 51 76

25 51 76

25 51 76

25 51 76

25 51 76

25 51 76

25 51 76

25 51 76

25 51 76

25 51 76

25 51 76

25 51 76

25 51 76

25 51 76

25 51 76

25 51 76

25 51 76

25 51 76

25 51 76

25 51 76

25 51 76

25 51 76

25 51 76

25 51 76

25 51 76

25 51 76

25 51 76

25 51 76

25 51 76

25 51 76

25 51 76

25 51 76

25 51 76

25 51 76

25 51 76

25 51 76

25 51 76

25 51 76

25 51 76

25 51 76

25 51 76

25 51 76

25 51 76

25 51 76

25 51 76

25 51 76

25 51 76

25 51 76

25 51 76

25 51 76

25 51 76

25 51 76

25 51 76

25 51 76

25 51 76

25 51 76

25 51 76

25 51 76

25 51 76

25 51 76

25 51 76

25 51 76

25 51 76

25 51 76

25 51 76

25 51 76

25 51 76

25 51 76

25 51 76

25 51 76

25 51 76

25 51 76

25 51 76

25 51 76

25 51 76

25 51 76

25 51 76

25 51 76

25 51 76

25 51 76

25 51 76

25 51 76

25 51 76

25 51 76

25 51 76

25 51 76

25 51 76

25 51 76

25 51 76

25 51 76

25 51 76

25 51 76

25 51 76

25 51 76

25 51 76

25 51 76

25 51 76

25 51 76

25 51 76

25 51 76

25 51 76

25 51 76

25 51 76

25 51 76

25 51 76

25 51 76

25 51 76

25 51 76

25 51 76

25 51 76

25 51 76

25 51 76

25 51 76

25 51 76

25 51 76

25 51 76

25 51 76

25 51 76

25 51 76

25 51 76

25 51 76

25 51 76

25 51 76

25 51 76

25 51 76

25 51 76

25 51 76

25 51 76

25 51 76

25 51 76

25 51 76

25 51 76

25 51 76

25 51 76

25 51 76

25 51 76

25 51 76

25 51 76

25 51 76

25 51 76

25 51 76

25 51 76

25 51 76

25 51 76

25 51 76

25 51 76

25 51 76

25 51 76

25 51 76

25 51 76

25 51 76

25 51 76

25 51 76

25 51 76

25 51 76

25 51 76

25 51 76

25 51 76

25 51 76

25 51 76

25 51 76

25 51 76

25 51 76

25 51 76

25 51 76

25 51 76

25 51 76

25 51 76

25 51 76

25 51 76

25 51 76

25 51 76

25 51 76

25 51 76

25 51 76

25 51 76

25 51 76

25 51 76

25 51 76

25 51 76

25 51 76

25 51 76

25 51 76

25 51 76

25 51 76

25 51 76

25 51 76

25 51 76

25 51 76

25 51 76

25 51 76

25 51 76

25 51 76

25 51 76

25 51 76

25 51 76

25 51 76

25 51 76

25 51 76

25 51 76

25 51 76

25 51 76

25 51 76

25 51 76

25 51 76

25 51 76

25 51 76

25 51 76

25 51 76

25 51 76

25 51 76

25 51 76

25 51 76

25 51 76

25 51 76

25 51 76

25 51 76

25 51 76

25 51 76

25 51 76

25 51 76

25 51 76

25 51 76

25 51 76

25 51 76

25 51 76

25 51 76

25 51 76

25 51 76

25 51 76

25 51 76

25 51 76

25 51 76

25 51 76

25 51 76

25 51 76

25 51 76

25 51 76

25 51 76

25 51 76

25 51 76

25 51 76

25 51 76

25 51 76

25 51 76

25 51 76

25 51 76

25 51 76

25 51 76

25 51 76

25 51 76

25 51 76

25 51 76

25 51 76

25 51 76

25 51 76

25 51 76

25 51 76

25 51 76

25 51 76

25 51 76

25 51 76

25 51 76

25 51 76

25 51 76

25 51 76

25 51 76

25 51 76

25 51 76

25 51 76

25 51 76

25 51 76

25 51 76

25 51 76

25 51 76

25 51 76

25 51 76

25 51 76

25 51 76

25 51 76

25 51 76

25 51 76

25 51 76

25 51 76

25 51 76

25 51 76

25 51 76

25 51 76

25 51 76

25 51 76

25 51 76

25 51 76

25 51 76

25 51 76

25 51 76

25 51 76

25 51 76

25 51 76

25 51 76

25 51 76

25 51 76

25 51 76

25 51 76

25 51 76

25 51 76

25 51 76

25 51 76

25 51 76

25 51 76

25 51 76

25 51 76

25 51 76

25 51 76

25 51 76

25 51 76

25 51 76

25 51 76

25 51 76

25 51 76

25 51 76

25 51 76

25 51 76

25 51 76

25 51 76

25 51 76

25 51 76

25 51 76

25 51 76

25 51 76

25 51 76

25 51 76

25 51 76

25 51 76

25 51 76

25 51 76

25 51 76

25 51 76

25 51 76

25 51 76

25 51 76

25 51 76

25 51 76

25 51 76

25 51 76

25 51 76

25 51 76

25 51 76

25 51 76

25 51 76

25 51 76

25 51 76

25 51 76

25 51 76

25 51 76

25 51 76

25 51 76

25 51 76

25 51 76

25 51 76

25 51 76

25 51 76

25 51 76

25 51 76

25 51 76

25 51 76

25 51 76

25 51 76

25 51 76

25 51 76

25 51 76

25 51 76

25 51 76

25 51 76

25 51 76

25 51 76

25 51 76

25 51 76

25 51 76

25 51 76

25 51 76

25 51 76

25 51 76

25 51 76

25 51 76

25 51 76

25 51 76

25 51 76

25 51 76

25 51 76

25 51 76

25 51 76

25 51 76

25 51 76

25 51 76

25 51 76

25 51 76

25 51 76

25 51 76

25 51 76

25 51 76

25 51 76

25 51 76

25 51 76

25 51 76

25 51 76

25 51 76

25 51 76

25 51 76

25 51 76

25 51 76

25 51 76

25 51 76

25 51 76

25 51 76

25 51 76

25 51 76

25 51 76

25 51 76

25 51 76

25 51 76

25 51 76

25 51 76

25 51 76

25 51 76

25 51 76

25 51 76

25 51 76

25 51 76

25 51 76

25 51 76

25 51 76

25 51 76

25 51 76

25 51 76

25 51 76

25 51 76

25 51 76

25 51 76

25 51 76

25 51 76

25 51 76

25 51 76

25 51 76

25 51 76

25 51 76

25 51 76

25 51 76

25 51 76

25 51 76

25 51 76

25 51 76

25 51 76

25 51 76

25 51 76

25 51 76

25 51 76

25 51 76

25 51 76

25 51 76

25 51 76

25 51 76

25 51 76

25 51 76

25 51 76

25 51 76

25 51 76

25 51 76

25 51 76

25 51 76

25 51 76

25 51 76

25 51 76

25 51 76

25 51 76

25 51 76

25 51 76

25 51 76

25 51 76

25 51 76

25 51 76

25 51 76

25 51 76

25 51 76

25 51 76

25 51 76

25 51 76

25 51 76

25 51 76

25 51 76

25 51 76

25 51 76

25 51 76

25 51 76

25 51 76

25 51 76

25 51 76

25 51 76

25 51 76

25 51 76

25 51 76

25 51 76

25 51 76

25 51 76

25 51 76

25 51 76

25 51 76

25 51 76

25 51 76

25 51 76

25 51 76

25 51 76

25 51 76

25 51 76

25 51 76

25 51 76

25 51 76

25 51 76

25 51 76

25 51 76

25 51 76

25 51 76

25 51 76

25 51 76

25 51 76

25 51 76

25 51 76

25 51 76

25 51 76

25 51 76

25 51 76

25 51 76

25 51 76

25 51 76

25 51 76

25 51 76

25 51 76

25 51 76

25 51 76

25 51 76

25 51 76

25 51 76

25 51 76

25 51 76

25 51 76

25 51 76

25 51 76

25 51 76

25 51 76

25 51 76

25 51 76

25 51 76

25 51 76

25 51 76

25 51 76

25 51 76

25 51 76

25 51 76

25 51 76

25 51 76

25 51 76

25 51 76

25 51 76

25 51 76

25 51 76

25 51 76

25 51 76

25 51 76

25 51 76

25 51 76

25 51 76

25 51 76

25 51 76

25 51 76

25 51 76

25 51 76

25 51 76

25 51 76

25 51 76

25 51 76

25 51 76

25 51 76

25 51 76

25 51 76

25 51 76

25 51 76

25 51 76

25 51 76

25 51 76

25 51 76

25 51 76

25 51 76

25 51 76

25 51 76

25 51 76

25 51 76

25 51 76

25 51 76

25 51 76

25 51 76

25 51 76

25 51 76

25 51 76

25 51 76

25 51 76

25 51 76

25 51 76

25 51 76

25 51 76

25 51 76

25 51 76

25 51 76

25 51 76

25 51 76

25 51 76

25 51 76

25 51 76

25 51 76

25 51 76

25 51 76

25 51 76

25 51 76

25 51 76

25 51 76

25 51 76

25 51 76

25 51 76

25 51 76

25 51 76

25 51 76

25 51 76

25 51 76

25 51 76

25 51 76

25 51 76

25 51 76

25 51 76

25 51 76

25 51 76

25 51 76

25 51 76

25 51 76

25 51 76

25 51 76

25 51 76

25 51 76

25 51 76

25 51 76

25 51 76

25 51 76

25 51 76

25 51 76

25 51 76

25 51 76

25 51 76

25 51 76

25 51 76

25 51 76

25 51 76

25 51 76

25 51 76

25 51 76

25 51 76

25 51 76

25 51 76

25 51 76

25 51 76

25 51 76

25 51 76

25 51 76

25 51 76

25 51 76

25 51 76

25 51 76

25 51 76

25 51 76

25 51 76

25 51 76

25 51 76

25 51 76

25 51 76

25 51 76

25 51 76

25 51 76

25 51 76

25 51 76

25 51 76

25 51 76

25 51 76

25 51 76

25 51 76

25 51 76

25 51 76

25 51 76

25 51 76

25 51 76

25 51 76

25 51 76

25 51 76

25 51 76

25 51 76

25 51 76

25 51 76

25 51 76

25 51 76

25 51 76

25 51 76

25 51 76

25 51 76

25 51 76

25 51 76

25 51 76

25 51 76

25 51 76

25 51 76

25 51 76

25 51 76

25 51 76

25 51 76

25 51 76

25 51 76

25 51 76

25 51 76

25 51 76

25 51 76

25 51 76

25 51 76

25 51 76

25 51 76

25 51 76

25 51 76

25 51 76

25 51 76

25 51 76

25 51 76

25 51 76

25 51 76

25 51 76

25 51 76

25 51 76

25 51 76

25 51 76

25 51 76

25 51 76

25 51 76

25 51 76

25 51 76

25 51 76

25 51 76

25 51 76

25 51 76

25 51 76

25 51 76

25 51 76

25 51 76

25 51 76

25 51 76

25 51 76

25 51 76

25 51 76

25 51 76

25 51 76

25 51 76

25 51 76

25 51 76

25 51 76

25 51 76

25 51 76

25 51 76

25 51 76

25 51 76

25 51 76

25 51 76

25 51 76

25 51 76

25 51 76

25 51 76

25 51 76

25 51 76

25 51 76

25 51 76

25 51 76

25 51 76

25 51 76

25 51 76

25 51 76

25 51 76

25 51 76

25 51 76

25 51 76

25 51 76

25 51 76

25 51 76

25 51 76

25 51 76

25 51 76

25 51 76

25 51 76

25 51 76

25 51 76

25 51 76

25 51 76

25 51 76

25 51 76

25 51 76

25 51 76

25 51 76

25 51 76

25 51 76

25 51 76

25 51 76

25 51 76

25 51 76

25 51 76

25 51 76

25 51 76

25 51 76

25 51 76

25 51 76

25 51 76

25 51 76

25 51 76

25 51 76

25 51 76

25 51 76

25 51 76

25 51 76

25 51 76

25 51 76

25 51 76

25 51 76

25 51 76

25 51 76

25 51 76

25 51 76

25 51 76

25 51 76

25 51 76

25 51 76

25 51 76

25 51 76

25 51 76

25 51 76

25 51 76

25 51 76

25 51 76

25 51 76

25 51 76

25 51 76

25 51 76

25 51 76

25 51 76

25 51 76

25 51 76

25 51 76

25 51 76

25 51 76

25 51 76

25 51 76

25 51 76

25 51 76

25 51 76

25 51 76

25 51 76

25 51 76

25 51 76

25 51 76

25 51 76

25 51 76

25 51 76

25 51 76

25 51 76

25 51 76

25 51 76

25 51 76

25 51 76

25 51 76

25 51 76

25 51 76

25 51 76

25 51 76

25 51 76

25 51 76

25 51 76

25 51 76

25 51 76

25 51 76

25 51 76

25 51 76

25 51 76

25 51 76

25 51 76

25 51 76

25 51 76

25 51 76

25 51 76

25 51 76

25 51 76

25 51 76

25 51 76

25 51 76

25 51 76

25 51 76

25 51 76

25 51 76

25 51 76

25 51 76

25 51 76

25 51 76

25 51 76

25 51 76

25 51 76

25 51 76

25 51 76

25 51 76

25 51 76

25 51 76

25 51 76

25 51 76

25 51 76

25 51 76

25 51 76

25 51 76

25 51 76

25 51 76

25 51 76

25 51 76

25 51 76

25 51 76

25 51 76

25 51 76

25 51 76

25 51 76

25 51 76

25 51 76

25 51 76

25 51 76

25 51 76

25 51 76

25 51 76

25 51 76

25 51 76

25 51 76

25 51 76

25 51 76

25 51 76

25 51 76

25 51 76

25 51 76

25 51 76

25 51 76

25 51 76

25 51 76

25 51 76

25 51 76

25 51 76

25 51 76

25 51 76

25 51 76

25 51 76

25 51 76

25 51 76

25 51 76

25 51 76

25 51 76

25 51 76

25 51 76

25 51 76

25 51 76

25 51 76

25 51 76

25 51 76

25 51 76

25 51 76

25 51 76

25 51 76

25 51 76

25 51 76

25 51 76

25 51 76

25 51 76

25 51 76

25 51 76

25 51 76

25 51 76

25 51 76

25 51 76

25 51 76

25 51 76

25 51 76

25 51 76

25 51 76

25 51 76

25 51 76

25 51 76

25 51 76

25 51 76

25 51 76

25 51 76

25 51 76

25 51 76

25 51 76

25 51 76

25 51 76

25 51 76

25 51 76

25 51 76

25 51 76

25 51 76

25 51 76

25 51 76

25 51 76

25 51 76

25 51 76

25 51 76

25 51 76

25 51 76

25 51 76

25 51 76

25 51 76

25 51 76

25 51 76

25 51 76

25 51 76

25 51 76

25 51 76

25 51 76

25 51 76

25 51 76

25 51 76

25 51 76

25 51 76

25 51 76

25 51 76

25 51 76

25 51 76

25 51 76

25 51 76

25 51 76

25 51 76

25 51 76

25 51 76

25 51 76

25 51 76

25 51 76

25 51 76

25 51 76

25 51 76

25 51 76

25 51 76

25 51 76

25 51 76

25 51 76

25 51 76

25 51 76

25 51 76

25 51 76

25 51 76

25 51 76

25 51 76

25 51 76

25 51 76

25 51 76

25 51 76

25 51 76

25 51 76

25 51 76

25 51 76

25 51 76

25 51 76

25 51 76

25 51 76

25 51 76

25 51 76

25 51 76

25 51 76

25 51 76

25 51 76

25 51 76

25 51 76

25 51 76

25 51 76

25 51 76

25 51 76

25 51 76

25 51 76

25 51 76

25 51 76

25 51 76

25 51 76

25 51 76

25 51 76

25 51 76

25 51 76

25 51 76

25 51 76

25 51 76

25 51 76

25 51 76

25 51 76

25 51 76

25 51 76

25 51 76

25 51 76

25 51 76

25 51 76

25 51 76

25 51 76

25 51 76

25 51 76

25 51 76

25 51 76

25 51 76

25 51 76

25 51 76

25 51 76

25 51 76

25 51 76

25 51 76

25 51 76

25 51 76

25 51 76

25 51 76

25 51 76

25 51 76

25 51 76

25 51 76

25 51 76

25 51 76

25 51 76

25 51 76

25 51 76

25 51 76

25 51 76

25 51 76

25 51 76

25 51 76

25 51 76

25 51 76

25 51 76

25 51 76

25 51 76

25 51 76

25 51 76

25 51 76

25 51 76

25 51 76

25 51 76

25 51 76

25 51 76

25 51 76

25 51 76

25 51 76

25 51 76

25 51 76

25 51 76

25 51 76

25 51 76

25 51 76

25 51 76

25 51 76

25 51 76

25 51 76

25 51 76

25 51 76

25 51 76

25 51 76

25 51 76

25 51 76

25 51 76

25 51 76

25 51 76

25 51 76

25 51 76

25 51 76

25 51 76

25 51 76

25 51 76

25 51 76

25 51 76

25 51 76

25 51 76

25 51 76

25 51 76

25 51 76

25 51 76

25 51 76

25 51 76

25 51 76

25 51 76

25 51 76

25 51 76

25 51 76

25 51 76

25 51 76

25 51 76

25 51 76

25 51 76

25 51 76

25 51 76

25 51 76

25 51 76

25 51 76

25 51 76

25 51 76

25 51 76

25 51 76

25 51 76

25 51 76

25 51 76

25 51 76

25 51 76

25 51 76

25 51 76

25 51 76

25 51 76

25 51 76

25 51 76

25 51 76

25 51 76

25 51 76

25 51 76

25 51 76

25 51 76

25 51 76

25 51 76

25 51 76

25 51 76

25 51 76

25 51 76

25 51 76

25 51 76

25 51 76

25 51 76

25 51 76

25 51 76

25 51 76

25 51 76

25 51 76

25 51 76

25 51 76

25 51 76

25 51 76

25 51 76

25 51 76

25 51 76

25 51 76

25 51 76

25 51 76

25 51 76

25 51 76

25 51 76

25 51 76

25 51 76

25 51 76

25 51 76

25 51 76

25 51 76

25 51 76

25 51 76

25 51 76

25 51 76

25 51 76

25 51 76

25 51 76

25 51 76

25 51 76

25 51 76

25 51 76

25 51 76

25 51 76

25 51 76

25 51 76

25 51 76

25 51 76

25 51 76

25 51 76

25 51 76

25 51 76

25 51 76

25 51 76

25 51 76

25 51 76

25 51 76

25 51 76

25 51 76

25 51 76

25 51 76

25 51 76

25 51 76

25 51 76

25 51 76

25 51 76

25 51 76

25 51 76

25 51 76

25 51 76

25 51 76

25 51 76

25 51 76

25 51 76

25 51 76

25 51 76

25 51 76

25 51 76

25 51 76

25 51 76

25 51 76

25 51 76

25 51 76

25 51 76

25 51 76

25 51 76

25 51 76

25 51 76

25 51 76

25 51 76

25 51 76

25 51 76

25 51 76

25 51 76

25 51 76

25 51 76

25 51 76

25 51 76

25 51 76

25 51 76

25 51 76

25 51 76

25 51 76

25 51 76

25 51 76

25 51 76

25 51 76

25 51 76

25 51 76

25 51 76

25 51 76

25 51 76

25 51 76

25 51 76

25 51 76

25 51 76

25 51 76

25 51 76

25 51 76

25 51 76

25 51 76

25 51 76

25 51 76

25 51 76

25 51 76

25 51 76

25 51 76

25 51 76

25 51 76

25 51 76

25 51 76

25 51 76

25 51 76

25 51 76

25 51 76

25 51 76

25 51 76

25 51 76

25 51 76

25 51 76

25 51 76

25 51 76

25 51 76

25 51 76

25 51 76

25 51 76

25 51 76

25 51 76

25 51 76

25 51 76

25 51 76

25 51 76

25 51 76

25 51 76

25 51 76

25 51 76

25 51 76

25 51 76

25 51 76

25 51 76

25 51 76

25 51 76

25 51 76

25 51 76

25 51 76

25 51 76

25 51 76

25 51 76

25 51 76

25 51 76

25 51 76

25 51 76

25 51 76

25 51 76

25 51 76

25 51 76

25 51 76

25 51 76

25 51 76

25 51 76

25 51 76

25 51 76

25 51 76

25 51 76

25 51 76

25 51 76

25 51 76

25 51 76

25 51 76

25 51 76

25 51 76

25 51 76

25 51 76

25 51 76

25 51 76

25 51 76

25 51 76

25 51 76

25 51 76

25 51 76

25 51 76

25 51 76

25 51 76

25 51 76

25 51 76

25 51 76

25 51 76

25 51 76

25 51 76

25 51 76

25 51 76

25 51 76

25 51 76

25 51 76

25 51 76

25 51 76

25 51 76

25 51 76

25 51 76

25 51 76

25 51 76

25 51 76

25 51 76

25 51 76

25 51 76

25 51 76

25 51 76

25 51 76

25 51 76

25 51 76

25 51 76

25 51 76

25 51 76

25 51 76

25 51 76

25 51 76

25 51 76

25 51 76

25 51 76

25 51 76

25 51 76

25 51 76

25 51 76

25 51 76

25 51 76

25 51 76

25 51 76

25 51 76

25 51 76

25 51 76

25 51 76

25 51 76

25 51 76

25 51 76

25 51 76

25 51 76

25 51 76

25 51 76

25 51 76

25 51 76

25 51 76

25 51 76

25 51 76

25 51 76

25 51 76

25 51 76

25 51 76

25 51 76

25 51 76

25 51 76

25 51 76

25 51 76

25 51 76

25 51 76

25 51 76

25 51 76

25 51 76

25 51 76

25 51 76

25 51 76

25 51 76

25 51 76

25 51 76

25 51 76

25 51 76

25 51 76

25 51 76

25 51 76

25 51 76

25 51 76

25 51 76

25 51 76

25 51 76

25 51 76

25 51 76

25 51 76

25 51 76

25 51 76

25 51 76

25 51 76

25 51 76

25 51 76

25 51 76

25 51 76

25 51 76

25 51 76

25 51 76

25 51 76

25 51 76

25 51 76

25 51 76

25 51 76

25 51 76

25 51 76

25 51 76

25 51 76

25 51 76

25 51 76

25 51 76

25 51 76

25 51 76

25 51 76

25 51 76

25 51 76

25 51 76

25 51 76

25 51 76

25 51 76

25 51 76

25 51 76

25 51 76

25 51 76

25 51 76

25 51 76

25 51 76

25 51 76

25 51 76

25 51 76

25 51 76

25 51 76

25 51 76

25 51 76

25 51 76

25 51 76

25 51 76

25 51 76

25 51 76

25 51 76

25 51 76

25 51 76

25 51 76

25 51 76

25 51 76

25 51 76

25 51 76

25 51 76

25 51 76

25 51 76

25 51 76

25 51 76

25 51 76

25 51 76

25 51 76

25 51 76

25 51 76

25 51 76

25 51 76

25 51 76

25 51 76

25 51 76

25 51 76

25 51 76

25 51 76

25 51 76

25 51 76

25 51 76

25 51 76

25 51 76

25 51 76

25 51 76

25 51 76

25 51 76

25 51 76

25 51 76

25 51 76

25 51 76

25 51 76

25 51 76

25 51 76

25 51 76

25 51 76

25 51 76

25 51 76

25 51 76

25 51 76

25 51 76

25 51 76

25 51 76

25 51 76

25 51 76

25 51 76

25 51 76

25 51 76

25 51 76

25 51 76

25 51 76

25 51 76

25 51 76

25 51 76

25 51 76

25 51 76

25 51 76

25 51 76

25 51 76

25 51 76

25 51 76

25 51 76

25 51 76

25 51 76

25 51 76

25 51 76

25 51 76

25 51 76

25 51 76

25 51 76

25 51 76

25 51 76

25 51 76

25 51 76

25 51 76

25 51 76

25 51 76

25 51 76

25 51 76

25 51 76

25 51 76

25 51 76

25 51 76

25 51 76

25 51 76

25 51 76

25 51 76

25 51 76

25 51 76

25 51 76

25 51 76

25 51 76

25 51 76

25 51 76

25 51 76

25 51 76

25 51 76

25 51 76

25 51 76

25 51 76

25 51 76

25 51 76

25 51 76

25 51 76

25 51 76

25 51 76

25 51 76

25 51 76

25 51 76

25 51 76

25 51 76

25 51 76

25 51 76

25 51 76

25 51 76

25 51 76

25 51 76

25 51 76

25 51 76

25 51 76

25 51 76

25 51 76

25 51 76

25 51 76

25 51 76

25 51 76

25 51 76

25 51 76

25 51 76

25 51 76

25 51 76

25 51 76

25 51 76

25 51 76

25 51 76

25 51 76

25 51 76

25 51 76

25 51 76

25 51 76

25 51 76

25 51 76

25 51 76

25 51 76

25 51 76

25 51 76

25 51 76

25 51 76

25 51 76

25 51 76

25 51 76

25 51 76

25 51 76

25 51 76

25 51 76

25 51 76

25 51 76

25 51 76

25 51 76

25 51 76

25 51 76

25 51 76

25 51 76

25 51 76

25 51 76

25 51 76

25 51 76

25 51 76

25 51 76

25 51 76

25 51 76

25 51 76

25 51 76

25 51 76

25 51 76

25 51 76

25 51 76

25 51 76

25 51 76

25 51 76

25 51 76

25 51 76

25 51 76

25 51 76

25 51 76

25 51 76

25 51 76

25 51 76

25 51 76

25 51 76

25 51 76

25 51 76

25 51 76

25 51 76

25 51 76

25 51 76

25 51 76

25 51 76

25 51 76

25 51 76

25 51 76

25 51 76

25 51 76

25 51 76

25 51 76

25 51 76

25 51 76

25 51 76

25 51 76

25 51 76

25 51 76

25 51 76

25 51 76

25 51 76

25 51 76

25 51 76

25 51 76

25 51 76

25 51 76

25 51 76

25 51 76

25 51 76

25 51 76

25 51 76

25 51 76

25 51 76

25 51 76

25 51 76

25 51 76

25 51 76

25 51 76

25 51 76

25 51 76

25 51 76

25 51 76

25 51 76

25 51 76

25 51 76

25 51 76

25 51 76

25 51 76

25 51 76

25 51 76

25 51 76

25 51 76

25 51 76

25 51 76

25 51 76

25 51 76

25 51 76

25 51 76

25 51 76

25 51 76

25 51 76

25 51 76

25 51 76

25 51 76

25 51 76

25 51 76

25 51 76

25 51 76

25 51 76

25 51 76

25 51 76

25 51 76

25 51 76

25 51 76

25 51 76

25 51 76

25 51 76

25 51 76

25 51 76

25 51 76

25 51 76

25 51 76

25 51 76

25 51 76

25 51 76

25 51 76

25 51 76

25 51 76

25 51 76

25 51 76

25 51 76

25 51 76

25 51 76

25 51 76

25 51 76

25 51 76

25 51 76

25 51 76

25 51 76

25 51 76

25 51 76

25 51 76

25 51 76

25 51 76

25 51 76

25 51 76

25 51 76

25 51 76

25 51 76

25 51 76

25 51 76

25 51 76

25 51 76

25 51 76

25 51 76

25 51 76

25 51 76

25 51 76

25 51 76

25 51 76

25 51 76

25 51 76

25 51 76

25 51 76

25 51 76

25 51 76

25 51 76

25 51 76

25 51 76

25 51 76

25 51 76

25 51 76

25 51 76

25 51 76

25 51 76

25 51 76

25 51 76

25 51 76

25 51 76

25 51 76

25 51 76

25 51 76

25 51 76

25 51 76

25 51 76

25 51 76

25 51 76

25 51 76

25 51 76

25 51 76

25 51 76

25 51 76

25 51 76

25 51 76

25 51 76

25 51 76

25 51 76

25 51 76

25 51 76

25 51 76

25 51 76

25 51 76

25 51 76

25 51 76

25 51 76

25 51 76

25 51 76

25 51 76

25 51 76

25 51 76

25 51 76

25 51 76

25 51 76

25 51 76

25 51 76

25 51 76

25 51 76

25 51 76

25 51 76

25 51 76

25 51 76

25 51 76

25 51 76

25 51 76

25 51 76

25 51 76

25 51 76

25 51 76

25 51 76

25 51 76

25 51 76

25 51 76

25 51 76

25 51 76

25 51 76

25 51 76

25 51 76

25 51 76

25 51 76

25 51 76

25 51 76

25 51 76

25 51 76

25 51 76

25 51 76

25 51 76

25 51 76

25 51 76

25 51 76

25 51 76

25 51 76

25 51 76

25 51 76

25 51 76

25 51 76

25 51 76

25 51 76

25 51 76

25 51 76

25 51 76

25 51 76

25 51 76

25 51 76

25 51 76

25 51 76

25 51 76

25 51 76

25 51 76

25 51 76

25 51 76

25 51 76

25 51 76

25 51 76

25 51 76

25 51 76

25 51 76

25 51 76

25 51 76

25 51 76

25 51 76

25 51 76

25 51 76

25 51 76

25 51 76

25 51 76

25 51 76

25 51 76

25 51 76

25 51 76

25 51 76

25 51 76

25 51 76

25 51 76

25 51 76

25 51 76

25 51 76

25 51 76

25 51 76

25 51 76

25 51 76

25 51 76

25 51 76

25 51 76

25 51 76

25 51 76

25 51 76

25 51 76

25 51 76

25 51 76

25 51 76

25 51 76

25 51 76

25 51 76

25 51 76

25 51 76

25 51 76

25 51 76

25 51 76

25 51 76

25 51 76

25 51 76

25 51 76

25 51 76

25 51 76

25 51 76

25 51 76

25 51 76

25 51 76

25 51 76

25 51 76

25 51 76

25 51 76

25 51 76

25 51 76

25 51 76

25 51 76

25 51 76

25 51 76

25 51 76

25 51 76

25 51 76

25 51 76

25 51 76

25 51 76

25 51 76

25 51 76

25 51 76

25 51 76

25 51 76

25 51 76

25 51 76

25 51 76

25 51 76

25 51 76

25 51 76

25 51 76

25 51 76

25 51 76

25 51 76

25 51 76

25 51 76

25 51 76

25 51 76

25 51 76

25 51 76

25 51 76

25 51 76

25 51 76

25 51 76

25 51 76

25 51 76

25 51 76

25 51 76

25 51 76

25 51 76

25 51 76

25 51 76

25 51 76

25 51 76

25 51 76

25 51 76

25 51 76

25 51 76

25 51 76

25 51 76

25 51 76

25 51 76

25 51 76

25 51 76

25 51 76

25 51 76

25 51 76

25 51 76

25 51 76

25 51 76

25 51 76

25 51 76

25 51 76

25 51 76

25 51 76

25 51 76

25 51 76

25 51 76

25 51 76

25 51 76

25 51 76

25 51 76

25 51 76

25 51 76

25 51 76

25 51 76

25 51 76

25 51 76

25 51 76

25 51 76

25 51 76

25 51 76

25 51 76

25 51 76

25 51 76

25 51 76

25 51 76

25 51 76

25 51 76

25 51 76

25 51 76

25 51 76

25 51 76

25 51 76

25 51 76

25 51 76

25 51 76

25 51 76

25 51 76

25 51 76

25 51 76

25 51 76

25 51 76

25 51 76

25 51 76

25 51 76

25 51 76

25 51 76

25 51 76

25 51 76

25 51 76

25 51 76

25 51 76

25 51 76

25 51 76

25 51 76

25 51 76

25 51 76

25 51 76

25 51 76

25 51 76

25 51 76

25 51 76

25 51 76

25 51 76

25 51 76

25 51 76

25 51 76

25 51 76

25 51 76

25 51 76

25 51 76

25 51 76

25 51 76

25 51 76

25 51 76

25 51 76

25 51 76

25 51 76

25 51 76

25 51 76

25 51 76

25 51 76

25 51 76

25 51 76

25 51 76

25 51 76

25 51 76

25 51 76

25 51 76

25 51 76

25 51 76

25 51 76

25 51 76

25 51 76

25 51 76

25 51 76

25 51 76

25 51 76

25 51 76

25 51 76

25 51 76

25 51 76

25 51 76

25 51 76

25 51 76

25 51 76

25 51 76

25 51 76

25 51 76

25 51 76

25 51 76

25 51 76

25 51 76

25 51 76

25 51 76

25 51 76

25 51 76

25 51 76

25 51 76

25 51 76

25 51 76

25 51 76

25 51 76

25 51 76

25 51 76

25 51 76

25 51 76

25 51 76

25 51 76

25 51 76

25 51 76

25 51 76

25 51 76

25 51 76

25 51 76

25 51 76

25 51 76

25 51 76

25 51 76

25 51 76

25 51 76

25 51 76

25 51 76

25 51 76

25 51 76

25 51 76

25 51 76

25 51 76

25 51 76

25 51 76

25 51 76

25 51 76

25 51 76

25 51 76

25 51 76

25 51 76

25 51 76

25 51 76

25 51 76

25 51 76

25 51 76

25 51 76

25 51 76

25 51 76

25 51 76

25 51 76

25 51 76

25 51 76

25 51 76

25 51 76

25 51 76

25 51 76

25 51 76

25 51 76

25 51 76

25 51 76

25 51 76

25 51 76

25 51 76

25 51 76

25 51 76

25 51 76

25 51 76

25 51 76

25 51 76

25 51 76

25 51 76

25 51 76

25 51 76

25 51 76

25 51 76

25 51 76

25 51 76

25 51 76

25 51 76

25 51 76

25 51 76

25 51 76

25 51 76

25 51 76

25 51 76

25 51 76

25 51 76

25 51 76

25 51 76

25 51 76

25 51 76

25 51 76

25 51 76

25 51 76

25 51 76

25 51 76

25 51 76

25 51 76

25 51 76

25 51 76

25 51 76

25 51 76

25 51 76

25 51 76

25 51 76

25 51 76

25 51 76

25 51 76

25 51 76

25 51 76

25 51 76

25 51 76

25 51 76

25 51 76

25 51 76

25 51 76

25 51 76

25 51 76

25 51 76

25 51 76

25 51 76

25 51 76

25 51 76

25 51 76

25 51 76

25 51 76

25 51 76

25 51 76

25 51 76

25 51 76

25 51 76

25 51 76

25 51 76

25 51 76

25 51 76

25 51 76

25 51 76

25 51 76

25 51 76

25 51 76

25 51 76

25 51 76

25 51 76

25 51 76

25 51 76

25 51 76

25 51 76

25 51 76

25 51 76

25 51 76

25 51 76

25 51 76

25 51 76

25 51 76

25 51 76

25 51 76

25 51 76

25 51 76

25 51 76

25 51 76

25 51 76

25 51 76

25 51 76

25 51 76

25 51 76

25 51 76

25 51 76

25 51 76

25 51 76

25 51 76

25 51 76

25 51 76

25 51 76

25 51 76

25 51 76

25 51 76

25 51 76

25 51 76

25 51 76

25 51 76

25 51 76

25 51 76

25 51 76

25 51 76

25 51 76

25 51 76

25 51 76

25 51 76

25 51 76

25 51 76

25 51 76

25 51 76

25 51 76

25 51 76

25 51 76

25 51 76

25 51 76

25 51 76

25 51 76

25 51 76

25 51 76

25 51 76

25 51 76

25 51 76

25 51 76

25 51 76

25 51 76

25 51 76

25 51 76

25 51 76

25 51 76

25 51 76

25 51 76

25 51 76

25 51 76

25 51 76

25 51 76

25 51 76

25 51 76

25 51 76

25 51 76

25 51 76

25 51 76

25 51 76

25 51 76

25 51 76

25 51 76

25 51 76

25 51 76

25 51 76

25 51 76

25 51 76

25 51 76

25 51 76

25 51 76

25 51 76

25 51 76

25 51 76

25 51 76

25 51 76

25 51 76

25 51 76

25 51 76

25 51 76

25 51 76

25 51 76

25 51 76

25 51 76

25 51 76

25 51 76

25 51 76

25 51 76

25 51 76

25 51 76

25 51 76

25 51 76

25 51 76

25 51 76

25 51 76

25 51 76

25 51 76

25 51 76

25 51 76

25 51 76

25 51 76

25 51 76

25 51 76

25 51 76

25 51 76

25 51 76

25 51 76

25 51 76

25 51 76

25 51 76

25 51 76

25 51 76

25 51 76

25 51 76

25 51 76

25 51 76

25 51 76

25 51 76

25 51 76

25 51 76

25 51 76

25 51 76

25 51 76

25 51 76

25 51 76

25 51 76

25 51 76

25 51 76

25 51 76

25 51 76

25 51 76

25 51 76

25 51 76

25 51 76

25 51 76

25 51 76

25 51 76

25 51 76

25 51 76

25 51 76

25 51 76

25 51 76

25 51 76

25 51 76

25 51 76

25 51 76

25 51 76

25 51 76

25 51 76

25 51 76

25 51 76

25 51 76

25 51 76

25 51 76

25 51 76

25 51 76

25 51 76

25 51 76

25 51 76

25 51 76

25 51 76

25 51 76

25 51 76

25 51 76

25 51 76

25 51 76

25 51 76

25 51 76

25 51 76

25 51 76

25 51 76

25 51 76

25 51 76

25 51 76

25 51 76

25 51 76

25 51 76

25 51 76

25 51 76

25 51 76

25 51 76

25 51 76

25 51 76

25 51 76

25 51 76

25 51 76

25 51 76

25 51 76

25 51 76

25 51 76

25 51 76

25 51 76

25 51 76

25 51 76

25 51 76

25 51 76

25 51 76

25 51 76

25 51 76

25 51 76

25 51 76

25 51 76

25 51 76

25 51 76

25 51 76

25 51 76

25 51 76

25 51 76

25 51 76

25 51 76

25 51 76

25 51 76

25 51 76

25 51 76

25 51 76

25 51 76

25 51 76

25 51 76

25 51 76

25 51 76

25 51 76

25 51 76

25 51 76

25 51 76

25 51 76

25 51 76

25 51 76

25 51 76

25 51 76

25 51 76

25 51 76

25 51 76

25 51 76

25 51 76

25 51 76

25 51 76

25 51 76

25 51 76

25 51 76

25 51 76

25 51 76

25 51 76

25 51 76

25 51 76

25 51 76

25 51 76

25 51 76

25 51 76

25 51 76

25 51 76

25 51 76

25 51 76

25 51 76

25 51 76

25 51 76

25 51 76

25 51 76

25 51 76

25 51 76

25 51 76

25 51 76

25 51 76

25 51 76

25 51 76

25 51 76

25 51 76

25 51 76

25 51 76

25 51 76

25 51 76

25 51 76

25 51 76

25 51 76

25 51 76

25 51 76

25 51 76

25 51 76

25 51 76

25 51 76

25 51 76

25 51 76

25 51 76

25 51 76

25 51 76

25 51 76

25 51 76

25 51 76

25 51 76

25 51 76

25 51 76

25 51 76

25 51 76

25 51 76

25 51 76

25 51 76

25 51 76

25 51 76

25 51 76

25 51 76

25 51 76

25 51 76

25 51 76

25 51 76

25 51 76

25 51 76

25 51 76

25 51 76

25 51 76

25 51 76

25 51 76

25 51 76

25 51 76

25 51 76

25 51 76

25 51 76

25 51 76

25 51 76

25 51 76

25 51 76

25 51 76

25 51 76

25 51 76

25 51 76

25 51 76

25 51 76

25 51 76

25 51 76

25 51 76

25 51 76

25 51 76

25 51 76

25 51 76

25 51 76

25 51 76

25 51 76

25 51 76

25 51 76

25 51 76

25 51 76

25 51 76

25 51 76

25 51 76

25 51 76

25 51 76

25 51 76

25 51 76

25 51 76

25 51 76

25 51 76

25 51 76

25 51 76

25 51 76

25 51 76

25 51 76

25 51 76

25 51 76

25 51 76

25 51 76

25 51 76

25 51 76

25 51 76

25 51 76

25 51 76

25 51 76

25 51 76

25 51 76

25 51 76

25 51 76

25 51 76

25 51 76

25 51 76

25 51 76

25 51 76

25 51 76

25 51 76

25 51 76

25 51 76

25 51 76

25 51 76

25 51 76

25 51 76

25 51 76

25 51 76

25 51 76

25 51 76

25 51 76

25 51 76

25 51 76

25 51 76

25 51 76

25 51 76

25 51 76

25 51 76

25 51 76

25 51 76

25 51 76

25 51 76

25 51 76

25 51 76

25 51 76

25 51 76

25 51 76

25 51 76

25 51 76

25 51 76

25 51 76

25 51 76

25 51 76

25 51 76

25 51 76

25 51 76

25 51 76

25 51 76

25 51 76

25 51 76

25 51 76

25 51 76

25 51 76

25 51 76

25 51 76

25 51 76

25 51 76

25 51 76

25 51 76

25 51 76

25 51 76

25 51 76

25 51 76

25 51 76

25 51 76

25 51 76

25 51 76

25 51 76

25 51 76

25 51 76

25 51 76

25 51 76

25 51 76

25 51 76

25 51 76

25 51 76

25 51 76

25 51 76

25 51 76

25 51 76

25 51 76

25 51 76

25 51 76

25 51 76

25 51 76

25 51 76

25 51 76

25 51 76

25 51 76

25 51 76

25 51 76

25 51 76

25 51 76

25 51 76

25 51 76

25 51 76

25 51 76

25 51 76

25 51 76

25 51 76

25 51 76

25 51 76

25 51 76

25 51 76

25 51 76

25 51 76

25 51 76

25 51 76

25 51 76

25 51 76

25 51 76

25 51 76

25 51 76

25 51 76

25 51 76

25 51 76

25 51 76

25 51 76

25 51 76

25 51 76

25 51 76

25 51 76

25 51 76

25 51 76

25 51 76

25 51 76

25 51 76

25 51 76

25 51 76

25 51 76

25 51 76

25 51 76

25 51 76

25 51 76

25 51 76

25 51 76

25 51 76

25 51 76

25 51 76

25 51 76

25 51 76

25 51 76

25 51 76

25 51 76

25 51 76

25 51 76

25 51 76

25 51 76

25 51 76

25 51 76

25 51 76

25 51 76

25 51 76

25 51 76

25 51 76

25 51 76

25 51 76

25 51 76

25 51 76

25 51 76

25 51 76

25 51 76

25 51 76

25 51 76

25 51 76

25 51 76

25 51 76

25 51 76

25 51 76

25 51 76

25 51 76

25 51 76

25 51 76

25 51 76

25 51 76

25 51 76

25 51 76

25 51 76

25 51 76

25 51 76

25 51 76

25 51 76

25 51 76

25 51 76

25 51 76

25 51 76

25 51 76

25 51 76

25 51 76

25 51 76

25 51 76

25 51 76

25 51 76

25 51 76

25 51 76

25 51 76

25 51 76

25 51 76

25 51 76

25 51 76

25 51 76

25 51 76

25 51 76

25 51 76

25 51 76

25 51 76

25 51 76

25 51 76

25 51 76

25 51 76

25 51 76

25 51 76

25 51 76

25 51 76

25 51 76

25 51 76

25 51 76

25 51 76

25 51 76

25 51 76

25 51 76

25 51 76

25 51 76

25 51 76

25 51 76

25 51 76

25 51 76

25 51 76

25 51 76

25 51 76

25 51 76

25 51 76

25 51 76

25 51 76

25 51 76

25 51 76

25 51 76

25 51 76

25 51 76

25 51 76

25 51 76

25 51 76

25 51 76

25 51 76

25 51 76

25 51 76

25 51 76

25 51 76

25 51 76

25 51 76

25 51 76

25 51 76

25 51 76

25 51 76

25 51 76

25 51 76

25 51 76

25 51 76

25 51 76

25 51 76

25 51 76

25 51 76

25 51 76

25 51 76

25 51 76

25 51 76

25 51 76

25 51 76

25 51 76

25 51 76

25 51 76

25 51 76

25 51 76

25 51 76

25 51 76

25 51 76

25 51 76

25 51 76

25 51 76

25 51 76

25 51 76

25 51 76

25 51 76

25 51 76

25 51 76

25 51 76

25 51 76

25 51 76

25 51 76

25 51 76

25 51 76

25 51 76

25 51 76

25 51 76

25 51 76

25 51 76

25 51 76

25 51 76

25 51 76

25 51 76

25 51 76

25 51 76

25 51 76

25 51 76

25 51 76

25 51 76

25 51 76

25 51 76

25 51 76

25 51 76

25 51 76

25 51 76

25 51 76

25 51 76

25 51 76

25 51 76

25 51 76

25 51 76

25 51 76

25 51 76

25 51 76

25 51 76

25 51 76

25 51 76

25 51 76

25 51 76

25 51 76

25 51 76

25 51 76

25 51 76

25 51 76

25 51 76

25 51 76

25 51 76

25 51 76

25 51 76

25 51 76

25 51 76

25 51 76

25 51 76

25 51 76

25 51 76

25 51 76

25 51 76

25 51 76

25 51 76

25 51 76

25 51 76

25 51 76

25 51 76

25 51 76

25 51 76

25 51 76

25 51 76

25 51 76

25 51 76

25 51 76

25 51 76

25 51 76

25 51 76

25 51 76

25 51 76

25 51 76

25 51 76

25 51 76

25 51 76

25 51 76

25 51 76

25 51 76

25 51 76

25 51 76

25 51 76

25 51 76

25 51 76

25 51 76

25 51 76

25 51 76

25 51 76

25 51 76

25 51 76

25 51 76

25 51 76

25 51 76

25 51 76

25 51 76

25 51 76

25 51 76

25 51 76

25 51 76

25 51 76

25 51 76

25 51 76

25 51 76

25 51 76

25 51 76

25 51 76

25 51 76

25 51 76

25 51 76

25 51 76

25 51 76

25 51 76

25 51 76

25 51 76

25 51 76

25 51 76

25 51 76

25 51 76

25 51 76

25 51 76

25 51 76

25 51 76

25 51 76

25 51 76

25 51 76

25 51 76

25 51 76

25 51 76

25 51 76

25 51 76

25 51 76

25 51 76

25 51 76

25 51 76

25 51 76

25 51 76

25 51 76

25 51 76

25 51 76

25 51 76

25 51 76

25 51 76

25 51 76

25 51 76

25 51 76

25 51 76

25 51 76

25 51 76

25 51 76

25 51 76

25 51 76

25 51 76

25 51 76

25 51 76

25 51 76

25 51 76

25 51 76

25 51 76

25 51 76

25 51 76

25 51 76

25 51 76

25 51 76

25 51 76

25 51 76

25 51 76

25 51 76

25 51 76

25 51 76

25 51 76

25 51 76

25 51 76

25 51 76

25 51 76

25 51 76

25 51 76

25 51 76

25 51 76

25 51 76

25 51 76

25 51 76

25 51 76

25 51 76

25 51 76

25 51 76

25 51 76

25 51 76

25 51 76

25 51 76

25 51 76

25 51 76

25 51 76

25 51 76

25 51 76

25 51 76

25 51 76

25 51 76

25 51 76

25 51 76

25 51 76

25 51 76

25 51 76

25 51 76

25 51 76

25 51 76

25 51 76

25 51 76

25 51 76

25 51 76

25 51 76

25 51 76

25 51 76

25 51 76

25 51 76

25 51 76

25 51 76

25 51 76

25 51 76

25 51 76

25 51 76

25 51 76

25 51 76

25 51 76

25 51 76

25 51 76

25 51 76

25 51 76

25 51 76

25 51 76

25 51 76

25 51 76

25 51 76

25 51 76

25 51 76

25 51 76

25 51 76

25 51 76

25 51 76

25 51 76

25 51 76

25 51 76

25 51 76

25 51 76

25 51 76

25 51 76

25 51 76

25 51 76

25 51 76

25 51 76

25 51 76

25 51 76

25 51 76

25 51 76

25 51 76

25 51 76

25 51 76

25 51 76

25 51 76

25 51 76

25 51 76

25 51 76

25 51 76

25 51 76

25 51 76

25 51 76

25 51 76

25 51 76

25 51 76

25 51 76

25 51 76

25 51 76

25 51 76

25 51 76

25 51 76

25 51 76

25 51 76

25 51 76

25 51 76

25 51 76

25 51 76

25 51 76

25 51 76

25 51 76

25 51 76

25 51 76

25 51 76

25 51 76

25 51 76

25 51 76

25 51 76

25 51 76

25 51 76

25 51 76

25 51 76

25 51 76

25 51 76

25 51 76

25 51 76

25 51 76

25 51 76

25 51 76

25 51 76

25 51 76

25 51 76

25 51 76

25 51 76

25 51 76

25 51 76

25 51 76

25 51 76

25 51 76

25 51 76

25 51 76

25 51 76

25 51 76

25 51 76

25 51 76

25 51 76

25 51 76

25 51 76

25 51 76

25 51 76

25 51 76

25 51 76

25 51 76

25 51 76

25 51 76

25 51 76

25 51 76

25 51 76

25 51 76

25 51 76

25 51 76

25 51 76

25 51 76

25 51 76

25 51 76

25 51 76

25 51 76

25 51 76

25 51 76

25 51 76

25 51 76

25 51 76

25 51 76

25 51 76

25 51 76

25 51 76

25 51 76

25 51 76

25 51 76

25 51 76

25 51 76

25 51 76

25 51 76

25 51 76

25 51 76

25 51 76

25 51 76

25 51 76

25 51 76

25 51 76

25 51 76

25 51 76

25 51 76

25 51 76

25 51 76

25 51 76

25 51 76

25 51 76

25 51 76

25 51 76

25 51 76

25 51 76

25 51 76

25 51 76

25 51 76

25 51 76

25 51 76

25 51 76

25 51 76

25 51 76

25 51 76

25 51 76

25 51 76

25 51 76

25 51 76

25 51 76

25 51 76

25 51 76

25 51 76

25 51 76

25 51 76

25 51 76

25 51 76

25 51 76

25 51 76

25 51 76

25 51 76

25 51 76

25 51 76

25 51 76

25 51 76

25 51 76

25 51 76

25 51 76

25 51 76

25 51 76

25 51 76

25 51 76

25 51 76

25 51 76

25 51 76

25 51 76

25 51 76

25 51 76

25 51 76

25 51 76

25 51 76

25 51 76

25 51 76

25 51 76

25 51 76

25 51 76

25 51 76

25 51 76

25 51 76

25 51 76

25 51 76

25 51 76

25 51 76

25 51 76

25 51 76

25 51 76

25 51 76

25 51 76

25 51 76

25 51 76

25 51 76

25 51 76

25 51 76

25 51 76

25 51 76

25 51 76

25 51 76

25 51 76

25 51 76

25 51 76

25 51 76

25 51 76

25 51 76

25 51 76

25 51 76

25 51 76

25 51 76

25 51 76

25 51 76

25 51 76

25 51 76

25 51 76

25 51 76

25 51 76

25 51 76

25 51 76

25 51 76

25 51 76

25 51 76

25 51 76

25 51 76

25 51 76

25 51 76

25 51 76

25 51 76

25 51 76

25 51 76

25 51 76

25 51 76

25 51 76

25 51 76

25 51 76

25 51 76

25 51 76

25 51 76

25 51 76

25 51 76

25 51 76

25 51 76

25 51 76

25 51 76

25 51 76

25 51 76

25 51 76

25 51 76

25 51 76

25 51 76

25 51 76

25 51 76

25 51 76

25 51 76

25 51 76

25 51 76

25 51 76

25 51 76

25 51 76

25 51 76

25 51 76

25 51 76

25 51 76

25 51 76

25 51 76

25 51 76

25 51 76

25 51 76

25 51 76

25 51 76

25 51 76

25 51 76

25 51 76

25 51 76

25 51 76

25 51 76

25 51 76

25 51 76

25 51 76

25 51 76

25 51 76

25 51 76

25 51 76

25 51 76

25 51 76

25 51 76

25 51 76

25 51 76

25 51 76

25 51 76

25 51 76

25 51 76

25 51 76

25 51 76

25 51 76

25 51 76

25 51 76

25 51 76

25 51 76

25 51 76

25 51 76

25 51 76

25 51 76

25 51 76

25 51 76

25 51 76

25 51 76

25 51 76

25 51 76

25 51 76

25 51 76

25 51 76

25 51 76

25 51 76

25 51 76

25 51 76

25 51 76

25 51 76

25 51 76

25 51 76

25 51 76

25 51 76

25 51 76

25 51 76

25 51 76

25 51 76

25 51 76

25 51 76

25 51 76

25 51 76

25 51 76

25 51 76

25 51 76

25 51 76

25 51 76

25 51 76

25 51 76

25 51 76

25 51 76

25 51 76

25 51 76

25 51 76

25 51 76

25 51 76

25 51 76

25 51 76

25 51 76

25 51 76

25 51 76

25 51 76

25 51 76

25 51 76

25 51 76

25 51 76

25 51 76

25 51 76

25 51 76

25 51 76

25 51 76

25 51 76

25 51 76

25 51 76

25 51 76

25 51 76

25 51 76

25 51 76

25 51 76

25 51 76

25 51 76

25 51 76

25 51 76

25 51 76

25 51 76

25 51 76

25 51 76

25 51 76

25 51 76

25 51 76

25 51 76

25 51 76

25 51 76

25 51 76

25 51 76

25 51 76

25 51 76

25 51 76

25 51 76

25 51 76

25 51 76

25 51 76

25 51 76

25 51 76

25 51 76

25 51 76

25 51 76

25 51 76

25 51 76

25 51 76

25 51 76

25 51 76

25 51 76

25 51 76

25 51 76

25 51 76

25 51 76

25 51 76

25 51 76

25 51 76

25 51 76

25 51 76

25 51 76

25 51 76

25 51 76

25 51 76

25 51 76

25 51 76

25 51 76

25 51 76

25 51 76

25 51 76

25 51 76

25 51 76

25 51 76

25 51 76

25 51 76

25 51 76

25 51 76

25 51 76

25 51 76

25 51 76

25 51 76

25 51 76

25 51 76

25 51 76

25 51 76

25 51 76

25 51 76

25 51 76

25 51 76

25 51 76

25 51 76

25 51 76

25 51 76

25 51 76

25 51 76

25 51 76

25 51 76

25 51 76

25 51 76

25 51 76

25 51 76

25 51 76

25 51 76

25 51 76

25 51 76

25 51 76

25 51 76

25 51 76

25 51 76

25 51 76

25 51 76

25 51 76

25 51 76

25 51 76

25 51 76

25 51 76

25 51 76

25 51 76

25 51 76

25 51 76

25 51 76

25 51 76

25 51 76

25 51 76

25 51 76

25 51 76

25 51 76

25 51 76

25 51 76

25 51 76

25 51 76

25 51 76

25 51 76

25 51 76

25 51 76

25 51 76

25 51 76

25 51 76

25 51 76

25 51 76

25 51 76

25 51 76

25 51 76

25 51 76

25 51 76

25 51 76

25 51 76

25 51 76

25 51 76

25 51 76

25 51 76

25 51 76

25 51 76

25 51 76

25 51 76

25 51 76

25 51 76

25 51 76

25 51 76

25 51 76

25 51 76

25 51 76

25 51 76

25 51 76

25 51 76

25 51 76

25 51 76

25 51 76

25 51 76

25 51 76

25 51 76

25 51 76

25 51 76

25 51 76

25 51 76

25 51 76

25 51 76

25 51 76

25 51 76

25 51 76

25 51 76

25 51 76

25 51 76

25 51 76

25 51 76

25 51 76

25 51 76

25 51 76

25 51 76

25 51 76

25 51 76

25 51 76

25 51 76

25 51 76

25 51 76

25 51 76

25 51 76

25 51 76

25 51 76

25 51 76

25 51 76

25 51 76

25 51 76

25 51 76

25 51 76

25 51 76

25 51 76

25 51 76

25 51 76

25 51 76

25 51 76

25 51 76

25 51 76

25 51 76

25 51 76

25 51 76

25 51 76

25 51 76

25 51 76

25 51 76

25 51 76

25 51 76

25 51 76

25 51 76

25 51 76

25 51 76

25 51 76

25 51 76

25 51 76

25 51 76

25 51 76

25 51 76

25 51 76

25 51 76

25 51 76

25 51 76

25 51 76

25 51 76

25 51 76

25 51 76

25 51 76

25 51 76

25 51 76

25 51 76

25 51 76

25 51 76

25 51 76

25 51 76

25 51 76

25 51 76

25 51 76

25 51 76

25 51 76

25 51 76

25 51 76

25 51 76

25 51 76

25 51 76

25 51 76

25 51 76

25 51 76

25 51 76

25 51 76

25 51 76

25 51 76

25 51 76

25 51 76

25 51 76

25 51 76

25 51 76

25 51 76

25 51 76

25 51 76

25 51 76

25 51 76

25 51 76

25 51 76

25 51 76

25 51 76

25 51 76

25 51 76

25 51 76

25 51 76

25 51 76

25 51 76

25 51 76

25 51 76

25 51 76

25 51 76

25 51 76

25 51 76

25 51 76

25 51 76

25 51 76

25 51 76

25 51 76

25 51 76

25 51 76

25 51 76

25 51 76

25 51 76

25 51 76

25 51 76

25 51 76

25 51 76

25 51 76

25 51 76

25 51 76

25 51 76

25 51 76

25 51 76

25 51 76

25 51 76

25 51 76

25 51 76

25 51 76

25 51 76

25 51 76

25 51 76

25 51 76

25 51 76

25 51 76

25 51 76

25 51 76

25 51 76

25 51 76

25 51 76

25 51 76

25 51 76

25 51 76

25 51 76

25 51 76

25 51 76

25 51 76

25 51 76

25 51 76

25 51 76

25 51 76

25 51 76

25 51 76

25 51 76

25 51 76

25 51 76

25 51 76

25 51 76

25 51 76

25 51 76

25 51 76

25 51 76

25 51 76

25 51 76

25 51 76

25 51 76

25 51 76

25 51 76

25 51 76

25 51 76

25 51 76

25 51 76

25 51 76

25 51 76

25 51 76

25 51 76

25 51 76

25 51 76

25 51 76

25 51 76

25 51 76

25 51 76

25 51 76

25 51 76

25 51 76

25 51 76

25 51 76

25 51 76

25 51 76

25 51 76

25 51 76

25 51 76

25 51 76

25 51 76

25 51 76

25 51 76

25 51 76

25 51 76

25 51 76

25 51 76

25 51 76

25 51 76

25 51 76

25 51 76

25 51 76

25 51 76

25 51 76

25 51 76

25 51 76

25 51 76

25 51 76

25 51 76

25 51 76

25 51 76

25 51 76

25 51 76

25 51 76

25 51 76

25 51 76

25 51 76

25 51 76

25 51 76

25 51 76

25 51 76

25 51 76

25 51 76

25 51 76

25 51 76

25 51 76

25 51 76

25 51 76

25 51 76

25 51 76

25 51 76

25 51 76

25 51 76

25 51 76

25 51 76

25 51 76

25 51 76

25 51 76

25 51 76

25 51 76

25 51 76

25 51 76

25 51 76

25 51 76

25 51 76

25 51 76

25 51 76

25 51 76

25 51 76

25 51 76

25 51 76

25 51 76

25 51 76

25 51 76

25 51 76

25 51 76

25 51 76

25 51 76

25 51 76

25 51 76

25 51 76

25 51 76

25 51 76

25 51 76

25 51 76

25 51 76

25 51 76

25 51 76

25 51 76

25 51 76

25 51 76

25 51 76

25 51 76

25 51 76

25 51 76

25 51 76

25 51 76

25 51 76

25 51 76

25 51 76

25 51 76

25 51 76

25 51 76

25 51 76

25 51 76

25 51 76

25 51 76

25 51 76

25 51 76

25 51 76

25 51 76

25 51 76

25 51 76

25 51 76

25 51 76

25 51 76

25 51 76

25 51 76

25 51 76

25 51 76

25 51 76

25 51 76

25 51 76

25 51 76

25 51 76

25 51 76

25 51 76

25 51 76

25 51 76

25 51 76

25 51 76

25 51 76

25 51 76

25 51 76

25 51 76

25 51 76

25 51 76

25 51 76

25 51 76

25 51 76

25 51 76

25 51 76

25 51 76

25 51 76

25 51 76

25 51 76

25 51 76

25 51 76

25 51 76

25 51 76

25 51 76

25 51 76

25 51 76

25 51 76

25 51 76

25 51 76

25 51 76

25 51 76

25 51 76

25 51 76

25 51 76

25 51 76

25 51 76

25 51 76

25 51 76

25 51 76

25 51 76

25 51 76

25 51 76

25 51 76

25 51 76

25 51 76

25 51 76

25 51 76

25 51 76

25 51 76

25 51 76

25 51 76

25 51 76

25 51 76

25 51 76

25 51 76

25 51 76

25 51 76

25 51 76

25 51 76

25 51 76

25 51 76

25 51 76

25 51 76

25 51 76

25 51 76

25 51 76

25 51 76

25 51 76

25 51 76

25 51 76

25 51 76

25 51 76

25 51 76

25 51 76

25 51 76

25 51 76

25 51 76

25 51 76

25 51 76

25 51 76

25 51 76

25 51 76

25 51 76

25 51 76

25 51 76

25 51 76

25 51 76

25 51 76

25 51 76

25 51 76

25 51 76

25 51 76

25 51 76

25 51 76

25 51 76

25 51 76

25 51 76

25 51 76

25 51 76

25 51 76

25 51 76

25 51 76

25 51 76

25 51 76

25 51 76

25 51 76

25 51 76

25 51 76

25 51 76

25 51 76

25 51 76

25 51 76

25 51 76

25 51 76

25 51 76

25 51 76

25 51 76

25 51 76

25 51 76

25 51 76

25 51 76

25 51 76

25 51 76

25 51 76

25 51 76

25 51 76

25 51 76

25 51 76

25 51 76

25 51 76

25 51 76

25 51 76

25 51 76

25 51 76

25 51 76

25 51 76

25 51 76

25 51 76

25 51 76

25 51 76

25 51 76

25 51 76

25 51 76

25 51 76

25 51 76

25 51 76

25 51 76

25 51 76

25 51 76

25 51 76

25 51 76

25 51 76

25 51 76

25 51 76

25 51 76

25 51 76

25 51 76

25 51 76

25 51 76

25 51 76

25 51 76

25 51 76

25 51 76

25 51 76

25 51 76

25 51 76

25 51 76

25 51 76

25 51 76

25 51 76

25 51 76

25 51 76

25 51 76

25 51 76

25 51 76

25 51 76

25 51 76

25 51 76

25 51 76

25 51 76

25 51 76

25 51 76

25 51 76

25 51 76

25 51 76

25 51 76

25 51 76

25 51 76

25 51 76

25 51 76

25 51 76

25 51 76

25 51 76

25 51 76

25 51 76

25 51 76

25 51 76

25 51 76

25 51 76

25 51 76

25 51 76

25 51 76

25 51 76

25 51 76

25 51 76

25 51 76

25 51 76

25 51 76

25 51 76

25 51 76

25 51 76

25 51 76

25 51 76

25 51 76

25 51 76

25 51 76

25 51 76

25 51 76

25 51 76

25 51 76

25 51 76

25 51 76

25 51 76

25 51 76

25 51 76

25 51 76

25 51 76

25 51 76

25 51 76

25 51 76

25 51 76

25 51 76

25 51 76

25 51 76

25 51 76

25 51 76

25 51 76

25 51 76

25 51 76

25 51 76

25 51 76

25 51 76

25 51 76

25 51 76

25 51 76

25 51 76

25 51 76

25 51 76

25 51 76

25 51 76

25 51 76

25 51 76

25 51 76

25 51 76

25 51 76

25 51 76

25 51 76

25 51 76

25 51 76

25 51 76

25 51 76

25 51 76

25 51 76

25 51 76

25 51 76

25 51 76

25 51 76

25 51 76

25 51 76

25 51 76

25 51 76

25 51 76

25 51 76

25 51 76

25 51 76

25 51 76

25 51 76

25 51 76

25 51 76

25 51 76

25 51 76

25 51 76

25 51 76

25 51 76

25 51 76

25 51 76

25 51 76

25 51 76

25 51 76

25 51 76

25 51 76

25 51 76

25 51 76

25 51 76

25 51 76

25 51 76

25 51 76

25 51 76

25 51 76

25 51 76

25 51 76

25 51 76

25 51 76

25 51 76

25 51 76

25 51 76

25 51 76

25 51 76

25 51 76

25 51 76

25 51 76

25 51 76

25 51 76

25 51 76

25 51 76

25 51 76

25 51 76

25 51 76

25 51 76

25 51 76

25 51 76

25 51 76

25 51 76

25 51 76

25 51 76

25 51 76

25 51 76

25 51 76

25 51 76

25 51 76

25 51 76

25 51 76

25 51 76

25 51 76

25 51 76

25 51 76

25 51 76

25 51 76

25 51 76

25 51 76

25 51 76

25 51 76

25 51 76

25 51 76

25 51 76

25 51 76

25 51 76

25 51 76

25 51 76

25 51 76

25 51 76

25 51 76

25 51 76

25 51 76

25 51 76

25 51 76

25 51 76

25 51 76

25 51 76

25 51 76

25 51 76

25 51 76

25 51 76

25 51 76

25 51 76

25 51 76

25 51 76

25 51 76

25 51 76

25 51 76

25 51 76

25 51 76

25 51 76

25 51 76

25 51 76

25 51 76

25 51 76

25 51 76

25 51 76

25 51 76

25 51 76

25 51 76

25 51 76

25 51 76

25 51 76

25 51 76

25 51 76

25 51 76

25 51 76

25 51 76

25 51 76

25 51 76

25 51 76

25 51 76

25 51 76

25 51 76

25 51 76

25 51 76

25 51 76

25 51 76

25 51 76

25 51 76

25 51 76

25 51 76

25 51 76

25 51 76

25 51 76

25 51 76

25 51 76

25 51 76

25 51 76

25 51 76

25 51 76

25 51 76

25 51 76

25 51 76

25 51 76

25 51 76

25 51 76

25 51 76

25 51 76

25 51 76

25 51 76

25 51 76

25 51 76

25 51 76

25 51 76

25 51 76

25 51 76

25 51 76

25 51 76

25 51 76

25 51 76

25 51 76

25 51 76

25 51 76

25 51 76

25 51 76

25 51 76

25 51 76

25 51 76

25 51 76

25 51 76

25 51 76

25 51 76

25 51 76

25 51 76

25 51 76

25 51 76

25 51 76

25 51 76

25 51 76

25 51 76

25 51 76

25 51 76

25 51 76

25 51 76

25 51 76

25 51 76

25 51 76

25 51 76

25 51 76

25 51 76

25 51 76

25 51 76

25 51 76

25 51 76

25 51 76

25 51 76

25 51 76

25 51 76

25 51 76

25 51 76

25 51 76

25 51 76

25 51 76

25 51 76

25 51 76

25 51 76

25 51 76

25 51 76

25 51 76

25 51 76

25 51 76

25 51 76

25 51 76

25 51 76

25 51 76

25 51 76

25 51 76

25 51 76

25 51 76

25 51 76

25 51 76

25 51 76

25 51 76

25 51 76

25 51 76

25 51 76

25 51 76

25 51 76

25 51 76

25 51 76

25 51 76

25 51 76

25 51 76

25 51 76

25 51 76

25 51 76

25 51 76

25 51 76

25 51 76

25 51 76

25 51 76

25 51 76

25 51 76

25 51 76

25 51 76

25 51 76

25 51 76

25 51 76

25 51 76

25 51 76

25 51 76

25 51 76

25 51 76

25 51 76

25 51 76

25 51 76

25 51 76

25 51 76

25 51 76

25 51 76

25 51 76

25 51 76

25 51 76

25 51 76

25 51 76

25 51 76

25 51 76

25 51 76

25 51 76

25 51 76

25 51 76

25 51 76

25 51 76

25 51 76

25 51 76

25 51 76

25 51 76

25 51 76

25 51 76

25 51 76

25 51 76

25 51 76

25 51 76

25 51 76

25 51 76

25 51 76

25 51 76

25 51 76

25 51 76

25 51 76

25 51 76

25 51 76

25 51 76

25 51 76

25 51 76

25 51 76

25 51 76

25 51 76

25 51 76

25 51 76

25 51 76

25 51 76

25 51 76

25 51 76

25 51 76

25 51 76

25 51 76

25 51 76

25 51 76

25 51 76

25 51 76

25 51 76

25 51 76

25 51 76

25 51 76

25 51 76

25 51 76

25 51 76

25 51 76

25 51 76

25 51 76

25 51 76

25 51 76

25 51 76

25 51 76

25 51 76

25 51 76

25 51 76

25 51 76

25 51 76

25 51 76

25 51 76

25 51 76

25 51 76

25 51 76

25 51 76

25 51 76

25 51 76

25 51 76

25 51 76

25 51 76

25 51 76

25 51 76

25 51 76

25 51 76

25 51 76

25 51 76

25 51 76

25 51 76

25 51 76

25 51 76

25 51 76

25 51 76

25 51 76

25 51 76

25 51 76

25 51 76

25 51 76

25 51 76

25 51 76

25 51 76

25 51 76

25 51 76

25 51 76

25 51 76

25 51 76

25 51 76

25 51 76

25 51 76

25 51 76

25 51 76

25 51 76

25 51 76

25 51 76

25 51 76

25 51 76

25 51 76

25 51 76

25 51 76

25 51 76

25 51 76

25 51 76

25 51 76

25 51 76

25 51 76

25 51 76

25 51 76

25 51 76

25 51 76

25 51 76

25 51 76

25 51 76

25 51 76

25 51 76

25 51 76

25 51 76

25 51 76

25 51 76

25 51 76

25 51 76

25 51 76

25 51 76

25 51 76

25 51 76

25 51 76

25 51 76

25 51 76

25 51 76

25 51 76

25 51 76

25 51 76

25 51 76

25 51 76

25 51 76

25 51 76

25 51 76

25 51 76

25 51 76

25 51 76

25 51 76

25 51 76

25 51 76

25 51 76

25 51 76

25 51 76

25 51 76

25 51 76

25 51 76

25 51 76

25 51 76

25 51 76

25 51 76

25 51 76

25 51 76

25 51 76

25 51 76

25 51 76

25 51 76

25 51 76

25 51 76

25 51 76

25 51 76

25 51 76

25 51 76

25 51 76

25 51 76

25 51 76

25 51 76

25 51 76

25 51 76

25 51 76

25 51 76

25 51 76

25 51 76

25 51 76

25 51 76

25 51 76

25 51 76

25 51 76

25 51 76

25 51 76

25 51 76

25 51 76

25 51 76

25 51 76

25 51 76

25 51 76

25 51 76

25 51 76

25 51 76

25 51 76

25 51 76

25 51 76

25 51 76

25 51 76

25 51 76

25 51 76

25 51 76

25 51 76

25 51 76

25 51 76

25 51 76

25 51 76

25 51 76

25 51 76

25 51 76

25 51 76

25 51 76

25 51 76

25 51 76

25 51 76

25 51 76

25 51 76

25 51 76

25 51 76

25 51 76

25 51 76

25 51 76

25 51 76

25 51 76

25 51 76

25 51 76

25 51 76

25 51 76

25 51 76

25 51 76

25 51 76

25 51 76

25 51 76

25 51 76

25 51 76

25 51 76

25 51 76

25 51 76

25 51 76

25 51 76

25 51 76

25 51 76

25 51 76

25 51 76

25 51 76

25 51 76

25 51 76

25 51 76

25 51 76

25 51 76

25 51 76

25 51 76

25 51 76

25 51 76

25 51 76

25 51 76

25 51 76

25 51 76

25 51 76

25 51 76

25 51 76

25 51 76

25 51 76

25 51 76

25 51 76

25 51 76

25 51 76

25 51 76

25 51 76

25 51 76

25 51 76

25 51 76

25 51 76

25 51 76

25 51 76

25 51 76

25 51 76

25 51 76

25 51 76

25 51 76

25 51 76

25 51 76

25 51 76

25 51 76

25 51 76

25 51 76

25 51 76

25 51 76

25 51 76

25 51 76

25 51 76

25 51 76

25 51 76

25 51 76

25 51 76

25 51 76

25 51 76

25 51 76

25 51 76

25 51 76

25 51 76

25 51 76

25 51 76

25 51 76

25 51 76

25 51 76

25 51 76

25 51 76

25 51 76

25 51 76

25 51 76

25 51 76

25 51 76

25 51 76

25 51 76

25 51 76

25 51 76

25 51 76

25 51 76

25 51 76

25 51 76

25 51 76

25 51 76

25 51 76

25 51 76

25 51 76

25 51 76

25 51 76

25 51 76

25 51 76

25 51 76

25 51 76

25 51 76

25 51 76

25 51 76

25 51 76

25 51 76

25 51 76

25 51 76

25 51 76

25 51 76

25 51 76

25 51 76

25 51 76

25 51 76

25 51 76

25 51 76

25 51 76

25 51 76

25 51 76

25 51 76

25 51 76

25 51 76

25 51 76

25 51 76

25 51 76

25 51 76

25 51 76

25 51 76

25 51 76

25 51 76

25 51 76

25 51 76

25 51 76

25 51 76

25 51 76

25 51 76

25 51 76

25 51 76

25 51 76

25 51 76

25 51 76

25 51 76

25 51 76

25 51 76

25 51 76

25 51 76

25 51 76

25 51 76

25 51 76

25 51 76

25 51 76

25 51 76

25 51 76

25 51 76

25 51 76

25 51 76

25 51 76

25 51 76

25 51 76

25 51 76

25 51 76

25 51 76

25 51 76

25 51 76

25 51 76

25 51 76

25 51 76

25 51 76

25 51 76

25 51 76

25 51 76

25 51 76

25 51 76

25 51 76

25 51 76

25 51 76

25 51 76

25 51 76

25 51 76

25 51 76

25 51 76

25 51 76

25 51 76

25 51 76

25 51 76

25 51 76

25 51 76

25 51 76

25 51 76

25 51 76

25 51 76

25 51 76

25 51 76

25 51 76

25 51 76

25 51 76

25 51 76

25 51 76

25 51 76

25 51 76

25 51 76

25 51 76

25 51 76

25 51 76

25 51 76

25 51 76

25 51 76

25 51 76

25 51 76

25 51 76

25 51 76

25 51 76

25 51 76

25 51 76

25 51 76

25 51 76

25 51 76

25 51 76

25 51 76

25 51 76

25 51 76

25 51 76

25 51 76

25 51 76

25 51 76

25 51 76

25 51 76

25 51 76

25 51 76

25 51 76

25 51 76

25 51 76

25 51 76

25 51 76

25 51 76

25 51 76

25 51 76

25 51 76

25 51 76

25 51 76

25 51 76

25 51 76

25 51 76

25 51 76

25 51 76

25 51 76

25 51 76

25 51 76

25 51 76

25 51 76

25 51 76

25 51 76

25 51 76

25 51 76

25 51 76

25 51 76

25 51 76

25 51 76

25 51 76

25 51 76

25 51 76

25 51 76

25 51 76

25 51 76

25 51 76

25 51 76

25 51 76

25 51 76

25 51 76

25 51 76

25 51 76

25 51 76

25 51 76

25 51 76

25 51 76

25 51 76

25 51 76

25 51 76

25 51 76

25 51 76

25 51 76

25 51 76

25 51 76

25 51 76

25 51 76

25 51 76

25 51 76

25 51 76

25 51 76

25 51 76

25 51 76

25 51 76

25 51 76

25 51 76

25 51 76

25 51 76

25 51 76

25 51 76

25 51 76

25 51 76

25 51 76

25 51 76

25 51 76

25 51 76

25 51 76

25 51 76

25 51 76

25 51 76

25 51 76

25 51 76

25 51 76

25 51 76

25 51 76

25 51 76

25 51 76

25 51 76

25 51 76

25 51 76

25 51 76

25 51 76

25 51 76

25 51 76

25 51 76

25 51 76

25 51 76

25 51 76

25 51 76

25 51 76

25 51 76

25 51 76

25 51 76

25 51 76

25 51 76

25 51 76

25 51 76

25 51 76

25 51 76

25 51 76

25 51 76

25 51 76

25 51 76

25 51 76

25 51 76

25 51 76

25 51 76

25 51 76

25 51 76

25 51 76

25 51 76

25 51 76

25 51 76

25 51 76

25 51 76

25 51 76

25 51 76

25 51 76

25 51 76

25 51 76

25 51 76

25 51 76

25 51 76

25 51 76

25 51 76

25 51 76

25 51 76

25 51 76

25 51 76

25 51 76

25 51 76

25 51 76

25 51 76

25 51 76

25 51 76

25 51 76

25 51 76

25 51 76

25 51 76

25 51 76

25 51 76

25 51 76

25 51 76

25 51 76

25 51 76

25 51 76

25 51 76

25 51 76

25 51 76

25 51 76

25 51 76

25 51 76

25 51 76

25 51 76

25 51 76

25 51 76

25 51 76

25 51 76

25 51 76

25 51 76

25 51 76

25 51 76

25 51 76

25 51 76

25 51 76

25 51 76

25 51 76

25 51 76

25 51 76

25 51 76

25 51 76

25 51 76

25 51 76

25 51 76

25 51 76

25 51 76

25 51 76

25 51 76

25 51 76

25 51 76

25 51 76

25 51 76

25 51 76

25 51 76

25 51 76

25 51 76

25 51 76

25 51 76

25 51 76

25 51 76

25 51 76

25 51 76

25 51 76

25 51 76

25 51 76

25 51 76

25 51 76

25 51 76

25 51 76

25 51 76

25 51 76

25 51 76

25 51 76

25 51 76

25 51 76

25 51 76

25 51 76

25 51 76

25 51 76

25 51 76

25 51 76

25 51 76

25 51 76

25 51 76

25 51 76

25 51 76

25 51 76

25 51 76

25 51 76

25 51 76

25 51 76

25 51 76

25 51 76

25 51 76

25 51 76

25 51 76

25 51 76

25 51 76

25 51 76

25 51 76

25 51 76

25 51 76

25 51 76

25 51 76

25 51 76

25 51 76

25 51 76

25 51 76

25 51 76

25 51 76

25 51 76

25 51 76

25 51 76

25 51 76

25 51 76

25 51 76

25 51 76

25 51 76

25 51 76

25 51 76

25 51 76

25 51 76

25 51 76

25 51 76

25 51 76

25 51 76

25 51 76

25 51 76

25 51 76

25 51 76

25 51 76

25 51 76

25 51 76

25 51 76

25 51 76

25 51 76

25 51 76

25 51 76

25 51 76

25 51 76

25 51 76

25 51 76

25 51 76

25 51 76

25 51 76

25 51 76

25 51 76

25 51 76

25 51 76

25 51 76

25 51 76

25 51 76

25 51 76

25 51 76

25 51 76

25 51 76

25 51 76

25 51 76

25 51 76

25 51 76

25 51 76

25 51 76

25 51 76

25 51 76

25 51 76

25 51 76

25 51 76

25 51 76

25 51 76

25 51 76

25 51 76

25 51 76

25 51 76

25 51 76

25 51 76

25 51 76

25 51 76

25 51 76

25 51 76

25 51 76

25 51 76

25 51 76

25 51 76

25 51 76

25 51 76

25 51 76

25 51 76

25 51 76

25 51 76

25 51 76

25 51 76

25 51 76

25 51 76

25 51 76

25 51 76

25 51 76

25 51 76

25 51 76

25 51 76

25 51 76

25 51 76

25 51 76

25 51 76

25 51 76

25 51 76

25 51 76

25 51 76

25 51 76

25 51 76

25 51 76

25 51 76

25 51 76

25 51 76

25 51 76

25 51 76

25 51 76

25 51 76

25 51 76

25 51 76

25 51 76

25 51 76

25 51 76

25 51 76

25 51 76

25 51 76

25 51 76

25 51 76

25 51 76

25 51 76

25 51 76

25 51 76

25 51 76

25 51 76

25 51 76

25 51 76

25 51 76

25 51 76

25 51 76

25 51 76

25 51 76

25 51 76

25 51 76

25 51 76

25 51 76

25 51 76

25 51 76

25 51 76

25 51 76

25 51 76

25 51 76

25 51 76

25 51 76

25 51 76

25 51 76

25 51 76

25 51 76

25 51 76

25 51 76

25 51 76

25 51 76

25 51 76

25 51 76

25 51 76

25 51 76

25 51 76

25 51 76

25 51 76

25 51 76

25 51 76

25 51 76

25 51 76

25 51 76

25 51 76

25 51 76

25 51 76

25 51 76

25 51 76

25 51 76

25 51 76

25 51 76

25 51 76

25 51 76

25 51 76

25 51 76

25 51 76

25 51 76

25 51 76

25 51 76

25 51 76

25 51 76

25 51 76

25 51 76

25 51 76

25 51 76

25 51 76

25 51 76

25 51 76

25 51 76

25 51 76

25 51 76

25 51 76

25 51 76

25 51 76

25 51 76

25 51 76

25 51 76

25 51 76

25 51 76

25 51 76

25 51 76

25 51 76

25 51 76

25 51 76

25 51 76

25 51 76

25 51 76

25 51 76

25 51 76

25 51 76

25 51 76

25 51 76

25 51 76

25 51 76

25 51 76

25 51 76

25 51 76

25 51 76

25 51 76

25 51 76

25 51 76

25 51 76

25 51 76

25 51 76

25 51 76

25 51 76

25 51 76

25 51 76

25 51 76

25 51 76

25 51 76

25 51 76

25 51 76

25 51 76

25 51 76

25 51 76

25 51 76

25 51 76

25 51 76

25 51 76

25 51 76

25 51 76

25 51 76

25 51 76

25 51 76

25 51 76

25 51 76

25 51 76

25 51 76

25 51 76

25 51 76

25 51 76

25 51 76

25 51 76

25 51 76

25 51 76

25 51 76

25 51 76

25 51 76

25 51 76

25 51 76

25 51 76

25 51 76

25 51 76

25 51 76

25 51 76

25 51 76

25 51 76

25 51 76

25 51 76

25 51 76

25 51 76

25 51 76

25 51 76

25 51 76

25 51 76

25 51 76

25 51 76

25 51 76

25 51 76

25 51 76

25 51 76

25 51 76

25 51 76

25 51 76

25 51 76

25 51 76

25 51 76

25 51 76

25 51 76

25 51 76

25 51 76

25 51 76

25 51 76

25 51 76

25 51 76

25 51 76

25 51 76

25 51 76

25 51 76

25 51 76

25 51 76

25 51 76

25 51 76

25 51 76

25 51 76

25 51 76

25 51 76

25 51 76

25 51 76

25 51 76

25 51 76

25 51 76

25 51 76

25 51 76

25 51 76

25 51 76

25 51 76

25 51 76

25 51 76

25 51 76

25 51 76

25 51 76

25 51 76

25 51 76

25 51 76

25 51 76

25 51 76

25 51 76

25 51 76

25 51 76

25 51 76

25 51 76

25 51 76

25 51 76

25 51 76

25 51 76

25 51 76

25 51 76

25 51 76

25 51 76

25 51 76

25 51 76

25 51 76

25 51 76

25 51 76

25 51 76

25 51 76

25 51 76

25 51 76

25 51 76

25 51 76

25 51 76

25 51 76

25 51 76

25 51 76

25 51 76

25 51 76

25 51 76

25 51 76

25 51 76

25 51 76

25 51 76

25 51 76

25 51 76

25 51 76

25 51 76

25 51 76

25 51 76

25 51 76

25 51 76

25 51 76

25 51 76

25 51 76

25 51 76

25 51 76

25 51 76

25 51 76

25 51 76

25 51 76

25 51 76

25 51 76

25 51 76

25 51 76

25 51 76

25 51 76

25 51 76

25 51 76

25 51 76

25 51 76

25 51 76

25 51 76

25 51 76

25 51 76

25 51 76

25 51 76

25 51 76

25 51 76

25 51 76

25 51 76

25 51 76

25 51 76

25 51 76

25 51 76

25 51 76

25 51 76

25 51 76

25 51 76

25 51 76

25 51 76

25 51 76

25 51 76

25 51 76

25 51 76

25 51 76

25 51 76

25 51 76

25 51 76

25 51 76

25 51 76

25 51 76

25 51 76

25 51 76

25 51 76

25 51 76

25 51 76

25 51 76

25 51 76

25 51 76

25 51 76

25 51 76

25 51 76

25 51 76

25 51 76

25 51 76

25 51 76

25 51 76

25 51 76

25 51 76

25 51 76

25 51 76

25 51 76

25 51 76

25 51 76

25 51 76

25 51 76

25 51 76

25 51 76

25 51 76

25 51 76

25 51 76

25 51 76

25 51 76

25 51 76

25 51 76

25 51 76

25 51 76

25 51 76

25 51 76

25 51 76

25 51 76

25 51 76

25 51 76

25 51 76

25 51 76

25 51 76

25 51 76

25 51 76

25 51 76

25 51 76

25 51 76

25 51 76

25 51 76

25 51 76

25 51 76

25 51 76

25 51 76

25 51 76

25 51 76

25 51 76

25 51 76

25 51 76

25 51 76

25 51 76

25 51 76

25 51 76

25 51 76

25 51 76

25 51 76

25 51 76

25 51 76

25 51 76

25 51 76

25 51 76

25 51 76

25 51 76

25 51 76

25 51 76

25 51 76

25 51 76

25 51 76

25 51 76

25 51 76

25 51 76

25 51 76

25 51 76

25 51 76

25 51 76

25 51 76

25 51 76

25 51 76

25 51 76

25 51 76

25 51 76

25 51 76

25 51 76

25 51 76

25 51 76

25 51 76

25 51 76

25 51 76

25 51 76

25 51 76

25 51 76

25 51 76

25 51 76

25 51 76

25 51 76

25 51 76

25 51 76

25 51 76

25 51 76

25 51 76

25 51 76

25 51 76

25 51 76

25 51 76

25 51 76

25 51 76

25 51 76

25 51 76

25 51 76

25 51 76

25 51 76

25 51 76

25 51 76

25 51 76

25 51 76

25 51 76

25 51 76

25 51 76

25 51 76

25 51 76

25 51 76

25 51 76

25 51 76

25 51 76

25 51 76

25 51 76

25 51 76

25 51 76

25 51 76

25 51 76

25 51 76

25 51 76

25 51 76

25 51 76

25 51 76

25 51 76

25 51 76

25 51 76

25 51 76

25 51 76

25 51 76

25 51 76

25 51 76

25 51 76

25 51 76

25 51 76

25 51 76

25 51 76

25 51 76

25 51 76

25 51 76

25 51 76

25 51 76

25 51 76

25 51 76

25 51 76

25 51 76

25 51 76

25 51 76

25 51 76

25 51 76

25 51 76

25 51 76

25 51 76

25 51 76

25 51 76

25 51 76

25 51 76

25 51 76

25 51 76

25 51 76

25 51 76

25 51 76

25 51 76

25 51 76

25 51 76

25 51 76

25 51 76

25 51 76

25 51 76

25 51 76

25 51 76

25 51 76

25 51 76

25 51 76

25 51 76

25 51 76

25 51 76

25 51 76

25 51 76

25 51 76

25 51 76

25 51 76

25 51 76

25 51 76

25 51 76

25 51 76

25 51 76

25 51 76

25 51 76

25 51 76

25 51 76

25 51 76

25 51 76

25 51 76

25 51 76

25 51 76

25 51 76

25 51 76

25 51 76

25 51 76

25 51 76

25 51 76

25 51 76

25 51 76

25 51 76

25 51 76

25 51 76

25 51 76

25 51 76

25 51 76

25 51 76

25 51 76

25 51 76

25 51 76

25 51 76

25 51 76

25 51 76

25 51 76

25 51 76

25 51 76

25 51 76

25 51 76

25 51 76

25 51 76

25 51 76

25 51 76

25 51 76

25 51 76

25 51 76

25 51 76

25 51 76

25 51 76

25 51 76

25 51 76

25 51 76

25 51 76

25 51 76

25 51 76

25 51 76

25 51 76

25 51 76

25 51 76

25 51 76

25 51 76

25 51 76

25 51 76

25 51 76

25 51 76

25 51 76

25 51 76

25 51 76

25 51 76

25 51 76

25 51 76

25 51 76

25 51 76

25 51 76

25 51 76

25 51 76

25 51 76

25 51 76

25 51 76

25 51 76

25 51 76

25 51 76

25 51 76

25 51 76

25 51 76

25 51 76

25 51 76

25 51 76

25 51 76

25 51 76

25 51 76

25 51 76

25 51 76

25 51 76

25 51 76

25 51 76

25 51 76

25 51 76

25 51 76

25 51 76

25 51 76

25 51 76

25 51 76

25 51 76

25 51 76

25 51 76

25 51 76

25 51 76

25 51 76

25 51 76

25 51 76

25 51 76

25 51 76

25 51 76

25 51 76

25 51 76

25 51 76

25 51 76

25 51 76

25 51 76

25 51 76

25 51 76

25 51 76

25 51 76

25 51 76

25 51 76

25 51 76

25 51 76

25 51 76

25 51 76

25 51 76

25 51 76

25 51 76

25 51 76

25 51 76

25 51 76

25 51 76

25 51 76

25 51 76

25 51 76

25 51 76

25 51 76

25 51 76

25 51 76

25 51 76

25 51 76

25 51 76

25 51 76

25 51 76

25 51 76

25 51 76

25 51 76

25 51 76

25 51 76

25 51 76

25 51 76

25 51 76

25 51 76

25 51 76

25 51 76

25 51 76

25 51 76

25 51 76

25 51 76

25 51 76

25 51 76

25 51 76

25 51 76

25 51 76

25 51 76

25 51 76

25 51 76

25 51 76

25 51 76

25 51 76

25 51 76

25 51 76

25 51 76

25 51 76

25 51 76

25 51 76

25 51 76

25 51 76

25 51 76

25 51 76

25 51 76

25 51 76

25 51 76

25 51 76

25 51 76

25 51 76

25 51 76

25 51 76

25 51 76

25 51 76

25 51 76

25 51 76

25 51 76

25 51 76

25 51 76

25 51 76

25 51 76

25 51 76

25 51 76

25 51 76

25 51 76

25 51 76

25 51 76

25 51 76

25 51 76

25 51 76

25 51 76

25 51 76

25 51 76

25 51 76

25 51 76

25 51 76

25 51 76

25 51 76

25 51 76

25 51 76

25 51 76

25 51 76

25 51 76

25 51 76

25 51 76

25 51 76

25 51 76

25 51 76

25 51 76

25 51 76

25 51 76

25 51 76

25 51 76

25 51 76

25 51 76

25 51 76

25 51 76

25 51 76

25 51 76

25 51 76

25 51 76

25 51 76

25 51 76

25 51 76

25 51 76

25 51 76

25 51 76

25 51 76

25 51 76

25 51 76

25 51 76

25 51 76

25 51 76

25 51 76

25 51 76

25 51 76

25 51 76

25 51 76

25 51 76

25 51 76

25 51 76

25 51 76

25 51 76

25 51 76

25 51 76

25 51 76

25 51 76

25 51 76

25 51 76

25 51 76

25 51 76

25 51 76

25 51 76

25 51 76

25 51 76

25 51 76

25 51 76

25 51 76

25 51 76

25 51 76

25 51 76

25 51 76

25 51 76

25 51 76

25 51 76

25 51 76

25 51 76

25 51 76

25 51 76

25 51 76

25 51 76

25 51 76

25 51 76

25 51 76

25 51 76

25 51 76

25 51 76

25 51 76

25 51 76

25 51 76

25 51 76

25 51 76

25 51 76

25 51 76

25 51 76

25 51 76

25 51 76

25 51 76

25 51 76

25 51 76

25 51 76

25 51 76

25 51 76

25 51 76

25 51 76

25 51 76

25 51 76

25 51 76

25 51 76

25 51 76

25 51 76

25 51 76

25 51 76

25 51 76

25 51 76

25 51 76

25 51 76

25 51 76

25 51 76

25 51 76

25 51 76

25 51 76

25 51 76

25 51 76

25 51 76

25 51 76

25 51 76

25 51 76

25 51 76

25 51 76

25 51 76

25 51 76

25 51 76

25 51 76

25 51 76

25 51 76

25 51 76

25 51 76

25 51 76

25 51 76

25 51 76

25 51 76

25 51 76

25 51 76

25 51 76

25 51 76

25 51 76

25 51 76

25 51 76

25 51 76

25 51 76

25 51 76

25 51 76

25 51 76

25 51 76

25 51 76

25 51 76

25 51 76

25 51 76

25 51 76

25 51 76

25 51 76

25 51 76

25 51 76

25 51 76

25 51 76

25 51 76

25 51 76

25 51 76

25 51 76

25 51 76

25 51 76

25 51 76

25 51 76

25 51 76

25 51 76

25 51 76

25 51 76

25 51 76

25 51 76

25 51 76

25 51 76

25 51 76

25 51 76

25 51 76

25 51 76

25 51 76

25 51 76

25 51 76

25 51 76

25 51 76

25 51 76

25 51 76

25 51 76

25 51 76

25 51 76

25 51 76

25 51 76

25 51 76

25 51 76

25 51 76

25 51 76

25 51 76

25 51 76

25 51 76

25 51 76

25 51 76

25 51 76

25 51 76

25 51 76

25 51 76

25 51 76

25 51 76

25 51 76

25 51 76

25 51 76

25 51 76

25 51 76

25 51 76

25 51 76

25 51 76

25 51 76

25 51 76

25 51 76

25 51 76

25 51 76

25 51 76

25 51 76

25 51 76

25 51 76

25 51 76

25 51 76

25 51 76

25 51 76

25 51 76

25 51 76

25 51 76

25 51 76

25 51 76

25 51 76

25 51 76

25 51 76

25 51 76

25 51 76

25 51 76

25 51 76

25 51 76

25 51 76

25 51 76

25 51 76

25 51 76

25 51 76

25 51 76

25 51 76

25 51 76

25 51 76

25 51 76

25 51 76

25 51 76

25 51 76

25 51 76

25 51 76

25 51 76

25 51 76

25 51 76

25 51 76

25 51 76

25 51 76

25 51 76

25 51 76

25 51 76

25 51 76

25 51 76

25 51 76

25 51 76

25 51 76

25 51 76

25 51 76

25 51 76

25 51 76

25 51 76

25 51 76

25 51 76

25 51 76

25 51 76

25 51 76

25 51 76

25 51 76

25 51 76

25 51 76

25 51 76

25 51 76

25 51 76

25 51 76

25 51 76

25 51 76

25 51 76

25 51 76

25 51 76

25 51 76

25 51 76

25 51 76

25 51 76

25 51 76

25 51 76

25 51 76

25 51 76

25 51 76

25 51 76

25 51 76

25 51 76

25 51 76

25 51 76

25 51 76

25 51 76

25 51 76

25 51 76

25 51 76

25 51 76

25 51 76

25 51 76

25 51 76

25 51 76

25 51 76

25 51 76

25 51 76

25 51 76

25 51 76

25 51 76

25 51 76

25 51 76

25 51 76

25 51 76

25 51 76

25 51 76

25 51 76

25 51 76

25 51 76

25 51 76

25 51 76

25 51 76

25 51 76

25 51 76

25 51 76

25 51 76

25 51 76

25 51 76

25 51 76

25 51 76

25 51 76

25 51 76

25 51 76

25 51 76

25 51 76

25 51 76

25 51 76

25 51 76

25 51 76

25 51 76

25 51 76

25 51 76

25 51 76

25 51 76

25 51 76

25 51 76

25 51 76

25 51 76

25 51 76

25 51 76

25 51 76

25 51 76

25 51 76

25 51 76

25 51 76

25 51 76

25 51 76

25 51 76

25 51 76

25 51 76

25 51 76

25 51 76

25 51 76

25 51 76

25 51 76

25 51 76

25 51 76

25 51 76

25 51 76

25 51 76

25 51 76

25 51 76

25 51 76

25 51 76

25 51 76

25 51 76

25 51 76

25 51 76

25 51 76

25 51 76

25 51 76

25 51 76

25 51 76

25 51 76

25 51 76

25 51 76

25 51 76

25 51 76

25 51 76

25 51 76

25 51 76

25 51 76

25 51 76

25 51 76

25 51 76

25 51 76

25 51 76

25 51 76

25 51 76

25 51 76

25 51 76

25 51 76

25 51 76

25 51 76

25 51 76

25 51 76

25 51 76

25 51 76

25 51 76

25 51 76

25 51 76

25 51 76

25 51 76

25 51 76

25 51 76

25 51 76

25 51 76

25 51 76

25 51 76

25 51 76

25 51 76

25 51 76

25 51 76

25 51 76

25 51 76

25 51 76

25 51 76

25 51 76

25 51 76

25 51 76

25 51 76

25 51 76

25 51 76

25 51 76

25 51 76

25 51 76

25 51 76

25 51 76

25 51 76

25 51 76

25 51 76

25 51 76

25 51 76

25 51 76

25 51 76

25 51 76

25 51 76

25 51 76

25 51 76

25 51 76

25 51 76

25 51 76

25 51 76

25 51 76

25 51 76

25 51 76

25 51 76

25 51 76

25 51 76

25 51 76

25 51 76

25 51 76

25 51 76

25 51 76

25 51 76

25 51 76

25 51 76

25 51 76

25 51 76

25 51 76

25 51 76

25 51 76

25 51 76

25 51 76

25 51 76

25 51 76

25 51 76

25 51 76

25 51 76

25 51 76

25 51 76

25 51 76

25 51 76

25 51 76

25 51 76

25 51 76

25 51 76

25 51 76

25 51 76

25 51 76

25 51 76

25 51 76

25 51 76

25 51 76

25 51 76

25 51 76

25 51 76

25 51 76

25 51 76

25 51 76

25 51 76

25 51 76

25 51 76

25 51 76

25 51 76

25 51 76

25 51 76

25 51 76

25 51 76

25 51 76

25 51 76

25 51 76

25 51 76

25 51 76

25 51 76

25 51 76

25 51 76

25 51 76

25 51 76

25 51 76

25 51 76

25 51 76

25 51 76

25 51 76

25 51 76

25 51 76

25 51 76

25 51 76

25 51 76

25 51 76

25 51 76

25 51 76

25 51 76

25 51 76

25 51 76

25 51 76

25 51 76

25 51 76

25 51 76

25 51 76

25 51 76

25 51 76

25 51 76

25 51 76

25 51 76

25 51 76

25 51 76

25 51 76

25 51 76

25 51 76

25 51 76

25 51 76

25 51 76

25 51 76

25 51 76

25 51 76

25 51 76

25 51 76

25 51 76

25 51 76

25 51 76

25 51 76

25 51 76

25 51 76

25 51 76

25 51 76

25 51 76

25 51 76

25 51 76

25 51 76

25 51 76

25 51 76

25 51 76

25 51 76

25 51 76

25 51 76

25 51 76

25 51 76

25 51 76

25 51 76

25 51 76

25 51 76

25 51 76

25 51 76

25 51 76

25 51 76

25 51 76

25 51 76

25 51 76

25 51 76

25 51 76

25 51 76

25 51 76

25 51 76

25 51 76

25 51 76

25 51 76

25 51 76

25 51 76

25 51 76

25 51 76

25 51 76

25 51 76

25 51 76

25 51 76

25 51 76

25 51 76

25 51 76

25 51 76

25 51 76

25 51 76

25 51 76

25 51 76

25 51 76

25 51 76

25 51 76

25 51 76

25 51 76

25 51 76

25 51 76

25 51 76

25 51 76

25 51 76

25 51 76

25 51 76

25 51 76

25 51 76

25 51 76

25 51 76

25 51 76

25 51 76

25 51 76

25 51 76

25 51 76

25 51 76

25 51 76

25 51 76

25 51 76

25 51 76

25 51 76

25 51 76

25 51 76

25 51 76

25 51 76

25 51 76

25 51 76

25 51 76

25 51 76

25 51 76

25 51 76

25 51 76

25 51 76

25 51 76

25 51 76

25 51 76

25 51 76

25 51 76

25 51 76

25 51 76

25 51 76

25 51 76

25 51 76

25 51 76

25 51 76

25 51 76

25 51 76

25 51 76

25 51 76

25 51 76

25 51 76

25 51 76

25 51 76

25 51 76

25 51 76

25 51 76

25 51 76

25 51 76

25 51 76

25 51 76

25 51 76

25 51 76

25 51 76

25 51 76

25 51 76

25 51 76

25 51 76

25 51 76

25 51 76

25 51 76

25 51 76

25 51 76

25 51 76

25 51 76

25 51 76

25 51 76

25 51 76

25 51 76

25 51 76

25 51 76

25 51 76

25 51 76

25 51 76

25 51 76

25 51 76

25 51 76

25 51 76

25 51 76

25 51 76

25 51 76

25 51 76

25 51 76

25 51 76

25 51 76

25 51 76

25 51 76

25 51 76

25 51 76

25 51 76

25 51 76

25 51 76

25 51 76

25 51 76

25 51 76

25 51 76

25 51 76

25 51 76

25 51 76

25 51 76

25 51 76

25 51 76

25 51 76

25 51 76

25 51 76

25 51 76

25 51 76

25 51 76

25 51 76

25 51 76

25 51 76

25 51 76

25 51 76

25 51 76

25 51 76

25 51 76

25 51 76

25 51 76

25 51 76

25 51 76

25 51 76

25 51 76

25 51 76

25 51 76

25 51 76

25 51 76

25 51 76

25 51 76

25 51 76

25 51 76

25 51 76

25 51 76

25 51 76

25 51 76

25 51 76

25 51 76

25 51 76

25 51 76

25 51 76

25 51 76

25 51 76

25 51 76

25 51 76

25 51 76

25 51 76

25 51 76

25 51 76

25 51 76

25 51 76

25 51 76

25 51 76

25 51 76

25 51 76

25 51 76

25 51 76

25 51 76

25 51 76

25 51 76

25 51 76

25 51 76

25 51 76

25 51 76

25 51 76

25 51 76

25 51 76

25 51 76

25 51 76

25 51 76

25 51 76

25 51 76

25 51 76

25 51 76

25 51 76

25 51 76

25 51 76

25 51 76

25 51 76

25 51 76

25 51 76

25 51 76

25 51 76

25 51 76

25 51 76

25 51 76

25 51 76

25 51 76

25 51 76

25 51 76

25 51 76

25 51 76

25 51 76

25 51 76

25 51 76

25 51 76

25 51 76

25 51 76

25 51 76

25 51 76

25 51 76

25 51 76

25 51 76

25 51 76

25 51 76

25 51 76

25 51 76

25 51 76

25 51 76

25 51 76

25 51 76

25 51 76

25 51 76

25 51 76

25 51 76

25 51 76

25 51 76

25 51 76

25 51 76

25 51 76

25 51 76

25 51 76

25 51 76

25 51 76

25 51 76

25 51 76

25 51 76

25 51 76

25 51 76

25 51 76

25 51 76

25 51 76

25 51 76

25 51 76

25 51 76

25 51 76

25 51 76

25 51 76

25 51 76

25 51 76

25 51 76

25 51 76

25 51 76

25 51 76

25 51 76

25 51 76

25 51 76

25 51 76

25 51 76

25 51 76

25 51 76

25 51 76

25 51 76

25 51 76

25 51 76

25 51 76

25 51 76

25 51 76

25 51 76

25 51 76

25 51 76

25 51 76

25 51 76

25 51 76

25 51 76

25 51 76

25 51 76

25 51 76

25 51 76

25 51 76

25 51 76

25 51 76

25 51 76

25 51 76

25 51 76

25 51 76

25 51 76

25 51 76

25 51 76

25 51 76

25 51 76

25 51 76

25 51 76

25 51 76

25 51 76

25 51 76

25 51 76

25 51 76

25 51 76

25 51 76

25 51 76

25 51 76

25 51 76

25 51 76

25 51 76

25 51 76

25 51 76

25 51 76

25 51 76

25 51 76

25 51 76

25 51 76

25 51 76

25 51 76

25 51 76

25 51 76

25 51 76

25 51 76

25 51 76

25 51 76

25 51 76

25 51 76

25 51 76

25 51 76

25 51 76

25 51 76

25 51 76

25 51 76

25 51 76

25 51 76

25 51 76

25 51 76

25 51 76

25 51 76

25 51 76

25 51 76

25 51 76

25 51 76

25 51 76

25 51 76

25 51 76

25 51 76

25 51 76

25 51 76

25 51 76

25 51 76

25 51 76

25 51 76

25 51 76

25 51 76

25 51 76

25 51 76

25 51 76

25 51 76

25 51 76

25 51 76

25 51 76

25 51 76

25 51 76

25 51 76

25 51 76

25 51 76

25 51 76

25 51 76

25 51 76

25 51 76

25 51 76

25 51 76

25 51 76

25 51 76

25 51 76

25 51 76

25 51 76

25 51 76

25 51 76

25 51 76

25 51 76

25 51 76

25 51 76

25 51 76

25 51 76

25 51 76

25 51 76

25 51 76

25 51 76

25 51 76

25 51 76

25 51 76

25 51 76

25 51 76

25 51 76

25 51 76

25 51 76

25 51 76

25 51 76

25 51 76

25 51 76

25 51 76

25 51 76

25 51 76

25 51 76

25 51 76

25 51 76

25 51 76

25 51 76

25 51 76

25 51 76

25 51 76

25 51 76

25 51 76

25 51 76

25 51 76

25 51 76

25 51 76

25 51 76

25 51 76

25 51 76

25 51 76

25 51 76

25 51 76

25 51 76

25 51 76

25 51 76

25 51 76

25 51 76

25 51 76

25 51 76

25 51 76

25 51 76

25 51 76

25 51 76

25 51 76

25 51 76

25 51 76

25 51 76

25 51 76

25 51 76

25 51 76

25 51 76

25 51 76

25 51 76

25 51 76

25 51 76

25 51 76

25 51 76

25 51 76

25 51 76

25 51 76

25 51 76

25 51 76

25 51 76

25 51 76

25 51 76

25 51 76

25 51 76

25 51 76

25 51 76

25 51 76

25 51 76

25 51 76

25 51 76

25 51 76

25 51 76

25 51 76

25 51 76

25 51 76

25 51 76

25 51 76

25 51 76

25 51 76

25 51 76

25 51 76

25 51 76

25 51 76

25 51 76

25 51 76

25 51 76

25 51 76

25 51 76

25 51 76

25 51 76

25 51 76

25 51 76

25 51 76

25 51 76

25 51 76

25 51 76

25 51 76

25 51 76

25 51 76

25 51 76

25 51 76

25 51 76

25 51 76

25 51 76

25 51 76

25 51 76

25 51 76

25 51 76

25 51 76

25 51 76

25 51 76

25 51 76

25 51 76

25 51 76

25 51 76

25 51 76

25 51 76

25 51 76

25 51 76

25 51 76

25 51 76

25 51 76

25 51 76

25 51 76

25 51 76

25 51 76

25 51 76

25 51 76

25 51 76

25 51 76

25 51 76

25 51 76

25 51 76

25 51 76

25 51 76

25 51 76

25 51 76

25 51 76

25 51 76

25 51 76

25 51 76

25 51 76

25 51 76

25 51 76

25 51 76

25 51 76

25 51 76

25 51 76

25 51 76

25 51 76

25 51 76

25 51 76

25 51 76

25 51 76

25 51 76

25 51 76

25 51 76

25 51 76

25 51 76

25 51 76

25 51 76

25 51 76

25 51 76

25 51 76

25 51 76

25 51 76

25 51 76

25 51 76

25 51 76

25 51 76

25 51 76

25 51 76

25 51 76

25 51 76

25 51 76

25 51 76

25 51 76

25 51 76

25 51 76

25 51 76

25 51 76

25 51 76

25 51 76

25 51 76

25 51 76

25 51 76

25 51 76

25 51 76

25 51 76

25 51 76

25 51 76

25 51 76

25 51 76

25 51 76

25 51 76

25 51 76

25 51 76

25 51 76

25 51 76

25 51 76

25 51 76

25 51 76

25 51 76

25 51 76

25 51 76

25 51 76

25 51 76

25 51 76

25 51 76

25 51 76

25 51 76

25 51 76

25 51 76

25 51 76

25 51 76

25 51 76

25 51 76

25 51 76

25 51 76

25 51 76

25 51 76

25 51 76

25 51 76

25 51 76

25 51 76

25 51 76

25 51 76

25 51 76

25 51 76

25 51 76

25 51 76

25 51 76

25 51 76

25 51 76

25 51 76

25 51 76

25 51 76

25 51 76

25 51 76

25 51 76

25 51 76

25 51 76

25 51 76

25 51 76

25 51 76

25 51 76

25 51 76

25 51 76

25 51 76

25 51 76

25 51 76

25 51 76

25 51 76

25 51 76

25 51 76

25 51 76

25 51 76

25 51 76

25 51 76

25 51 76

25 51 76

25 51 76

25 51 76

25 51 76

25 51 76

25 51 76

25 51 76

25 51 76

25 51 76

25 51 76

25 51 76

25 51 76

25 51 76

25 51 76

25 51 76

25 51 76

25 51 76

25 51 76

25 51 76

25 51 76

25 51 76

25 51 76

25 51 76

25 51 76

25 51 76

25 51 76

25 51 76

25 51 76

25 51 76

25 51 76

25 51 76

25 51 76

25 51 76

25 51 76

25 51 76

25 51 76

25 51 76

25 51 76

25 51 76

25 51 76

25 51 76

25 51 76

25 51 76

25 51 76

25 51 76

25 51 76

25 51 76

25 51 76

25 51 76

25 51 76

25 51 76

25 51 76

25 51 76

25 51 76

25 51 76

25 51 76

25 51 76

25 51 76

25 51 76

25 51 76

25 51 76

25 51 76

25 51 76

25 51 76

25 51 76

25 51 76

25 51 76

25 51 76

25 51 76

25 51 76

25 51 76

25 51 76

25 51 76

25 51 76

25 51 76

25 51 76

25 51 76

25 51 76

25 51 76

25 51 76

25 51 76

25 51 76

25 51 76

25 51 76

25 51 76

25 51 76

25 51 76

25 51 76

25 51 76

25 51 76

25 51 76

25 51 76

25 51 76

25 51 76

25 51 76

25 51 76

25 51 76

25 51 76

25 51 76

25 51 76

25 51 76

25 51 76

25 51 76

25 51 76

25 51 76

25 51 76

25 51 76

25 51 76

25 51 76

25 51 76

25 51 76

25 51 76

25 51 76

25 51 76

25 51 76

25 51 76

25 51 76

25 51 76

25 51 76

25 51 76

25 51 76

25 51 76

25 51 76

25 51 76

25 51 76

25 51 76

25 51 76

25 51 76

25 51 76

25 51 76

25 51 76

25 51 76

25 51 76

25 51 76

25 51 76

25 51 76

25 51 76

25 51 76

25 51 76

25 51 76

25 51 76

25 51 76

25 51 76

25 51 76

25 51 76

25 51 76

25 51 76

25 51 76

25 51 76

25 51 76

25 51 76

25 51 76

25 51 76

25 51 76

25 51 76

25 51 76

25 51 76

25 51 76

25 51 76

25 51 76

25 51 76

25 51 76

25 51 76

25 51 76

25 51 76

25 51 76

25 51 76

25 51 76

25 51 76

25 51 76

25 51 76

25 51 76

25 51 76

25 51 76

25 51 76

25 51 76

25 51 76

25 51 76

25 51 76

25 51 76

25 51 76

25 51 76

25 51 76

25 51 76

25 51 76

25 51 76

25 51 76

25 51 76

25 51 76

25 51 76

25 51 76

25 51 76

25 51 76

25 51 76

25 51 76

25 51 76

25 51 76

25 51 76

25 51 76

25 51 76

25 51 76

25 51 76

25 51 76

25 51 76

25 51 76

25 51 76

25 51 76

25 51 76

25 51 76

25 51 76

25 51 76

25 51 76

25 51 76

25 51 76

25 51 76

25 51 76

25 51 76

25 51 76

25 51 76

25 51 76

25 51 76

25 51 76

25 51 76

25 51 76

25 51 76

25 51 76

25 51 76

25 51 76

25 51 76

25 51 76

25 51 76

25 51 76

25 51 76

25 51 76

25 51 76

25 51 76

25 51 76

25 51 76

25 51 76

25 51 76

25 51 76

25 51 76

25 51 76

25 51 76

25 51 76

25 51 76

25 51 76

25 51 76

25 51 76

25 51 76

25 51 76

25 51 76

25 51 76

25 51 76

25 51 76

25 51 76

25 51 76

25 51 76

25 51 76

25 51 76

25 51 76

25 51 76

25 51 76

25 51 76

25 51 76

25 51 76

25 51 76

25 51 76

25 51 76

25 51 76

25 51 76

25 51 76

25 51 76

25 51 76

25 51 76

25 51 76

25 51 76

25 51 76

25 51 76

25 51 76

25 51 76

25 51 76

25 51 76

25 51 76

25 51 76

25 51 76

25 51 76

25 51 76

25 51 76

25 51 76

25 51 76

25 51 76

25 51 76

25 51 76

25 51 76

25 51 76

25 51 76

25 51 76

25 51 76

25 51 76

25 51 76

25 51 76

25 51 76

25 51 76

25 51 76

25 51 76

25 51 76

25 51 76

25 51 76

25 51 76

25 51 76

25 51 76

25 51 76

25 51 76

25 51 76

25 51 76

25 51 76

25 51 76

25 51 76

25 51 76

25 51 76

25 51 76

25 51 76

25 51 76

25 51 76

25 51 76

25 51 76

25 51 76

25 51 76

25 51 76

25 51 76

25 51 76

25 51 76

25 51 76

25 51 76

25 51 76

25 51 76

25 51 76

25 51 76

25 51 76

25 51 76

25 51 76

25 51 76

25 51 76

25 51 76

25 51 76

25 51 76

25 51 76

25 51 76

25 51 76

25 51 76

25 51 76

25 51 76

25 51 76

25 51 76

25 51 76

25 51 76

25 51 76

25 51 76

25 51 76

25 51 76

25 51 76

25 51 76

25 51 76

25 51 76

25 51 76

25 51 76

25 51 76

25 51 76

25 51 76

25 51 76

25 51 76

25 51 76

25 51 76

25 51 76

25 51 76

25 51 76

25 51 76

25 51 76

25 51 76

25 51 76

25 51 76

25 51 76

25 51 76

25 51 76

25 51 76

25 51 76

25 51 76

25 51 76

25 51 76

25 51 76

25 51 76

25 51 76

25 51 76

25 51 76

25 51 76

25 51 76

25 51 76

25 51 76

25 51 76

25 51 76

25 51 76

25 51 76

25 51 76

25 51 76

25 51 76

25 51 76

25 51 76

25 51 76

25 51 76

25 51 76

25 51 76

25 51 76

25 51 76

25 51 76

25 51 76

25 51 76

25 51 76

25 51 76

25 51 76

25 51 76

25 51 76

25 51 76

25 51 76

25 51 76

25 51 76

25 51 76

25 51 76

25 51 76

25 51 76

25 51 76

25 51 76

25 51 76

25 51 76

25 51 76

25 51 76

25 51 76

25 51 76

25 51 76

25 51 76

25 51 76

25 51 76

25 51 76

25 51 76

25 51 76

25 51 76

25 51 76

25 51 76

25 51 76

25 51 76

25 51 76

25 51 76

25 51 76

25 51 76

25 51 76

25 51 76

25 51 76

25 51 76

25 51 76

25 51 76

25 51 76

25 51 76

25 51 76

25 51 76

25 51 76

25 51 76

25 51 76

25 51 76

25 51 76

25 51 76

25 51 76

25 51 76

25 51 76

25 51 76

25 51 76

25 51 76

25 51 76

25 51 76

25 51 76

25 51 76

25 51 76

25 51 76

25 51 76

25 51 76

25 51 76

25 51 76

25 51 76

25 51 76

25 51 76

25 51 76

25 51 76

25 51 76

25 51 76

25 51 76

25 51 76

25 51 76

25 51 76

25 51 76

25 51 76

25 51 76

25 51 76

25 51 76

25 51 76

25 51 76

25 51 76

25 51 76

25 51 76

25 51 76

25 51 76

25 51 76

25 51 76

25 51 76

25 51 76

25 51 76

25 51 76

25 51 76

25 51 76

25 51 76

25 51 76

25 51 76

25 51 76

25 51 76

25 51 76

25 51 76

25 51 76

25 51 76

25 51 76

25 51 76

25 51 76

25 51 76

25 51 76

25 51 76

25 51 76

25 51 76

25 51 76

25 51 76

25 51 76

25 51 76

25 51 76

25 51 76

25 51 76

25 51 76

25 51 76

25 51 76

25 51 76

25 51 76

25 51 76

25 51 76

25 51 76

25 51 76

25 51 76

25 51 76

25 51 76

25 51 76

25 51 76

25 51 76

25 51 76

25 51 76

25 51 76

25 51 76

25 51 76

25 51 76

25 51 76

25 51 76

25 51 76

25 51 76

25 51 76

25 51 76

25 51 76

25 51 76

25 51 76

25 51 76

25 51 76

25 51 76

25 51 76

25 51 76

25 51 76

25 51 76

25 51 76

25 51 76

25 51 76

25 51 76

25 51 76

25 51 76

25 51 76

25 51 76

25 51 76

25 51 76

25 51 76

25 51 76

25 51 76

25 51 76

25 51 76

25 51 76

25 51 76

25 51 76

25 51 76

25 51 76

25 51 76

25 51 76

25 51 76

25 51 76

25 51 76

25 51 76

25 51 76

25 51 76

25 51 76

25 51 76

25 51 76

25 51 76

25 51 76

25 51 76

25 51 76

25 51 76

25 51 76

25 51 76

25 51 76

25 51 76

25 51 76

25 51 76

25 51 76

25 51 76

25 51 76

25 51 76

25 51 76

25 51 76

25 51 76

25 51 76

25 51 76

25 51 76

25 51 76

25 51 76

25 51 76

25 51 76

25 51 76

25 51 76

25 51 76

25 51 76

25 51 76

25 51 76

25 51 76

25 51 76

25 51 76

25 51 76

25 51 76

25 51 76

25 51 76

25 51 76

25 51 76

25 51 76

25 51 76

25 51 76

25 51 76

25 51 76

25 51 76

25 51 76

25 51 76

25 51 76

25 51 76

25 51 76

25 51 76

25 51 76

25 51 76

25 51 76

25 51 76

25 51 76

25 51 76

25 51 76

25 51 76

25 51 76

25 51 76

25 51 76

25 51 76

25 51 76

25 51 76

25 51 76

25 51 76

25 51 76

25 51 76

25 51 76

25 51 76

25 51 76

25 51 76

25 51 76

25 51 76

25 51 76

25 51 76

25 51 76

25 51 76

25 51 76

25 51 76

25 51 76

25 51 76

25 51 76

25 51 76

25 51 76

25 51 76

25 51 76

25 51 76

25 51 76

25 51 76

25 51 76

25 51 76

25 51 76

25 51 76

25 51 76

25 51 76

25 51 76

25 51 76

25 51 76

25 51 76

25 51 76

25 51 76

25 51 76

25 51 76

25 51 76

25 51 76

25 51 76

25 51 76

25 51 76

25 51 76

25 51 76

25 51 76

25 51 76

25 51 76

25 51 76

25 51 76

25 51 76

25 51 76

25 51 76

25 51 76

25 51 76

25 51 76

25 51 76

25 51 76

25 51 76

25 51 76

25 51 76

25 51 76

25 51 76

25 51 76

25 51 76

25 51 76

25 51 76

25 51 76

25 51 76

25 51 76

25 51 76

25 51 76

25 51 76

25 51 76

25 51 76

25 51 76

25 51 76

25 51 76

25 51 76

25 51 76

25 51 76

25 51 76

25 51 76

25 51 76

25 51 76

25 51 76

25 51 76

25 51 76

25 51 76

25 51 76

25 51 76

25 51 76

25 51 76

25 51 76

25 51 76

25 51 76

25 51 76

25 51 76

25 51 76

25 51 76

25 51 76

25 51 76

25 51 76

25 51 76

25 51 76

25 51 76

25 51 76

25 51 76

25 51 76

25 51 76

25 51 76

25 51 76

25 51 76

25 51 76

25 51 76

25 51 76

25 51 76

25 51 76

25 51 76

25 51 76

25 51 76

25 51 76

25 51 76

25 51 76

25 51 76

25 51 76

25 51 76

25 51 76

25 51 76

25 51 76

25 51 76

25 51 76

25 51 76

25 51 76

25 51 76

25 51 76

25 51 76

25 51 76

25 51 76

25 51 76

25 51 76

25 51 76

25 51 76

25 51 76

25 51 76

25 51 76

25 51 76

25 51 76

25 51 76

25 51 76

25 51 76

25 51 76

25 51 76

25 51 76

25 51 76

25 51 76

25 51 76

25 51 76

25 51 76

25 51 76

25 51 76

25 51 76

25 51 76

25 51 76

25 51 76

25 51 76

25 51 76

25 51 76

25 51 76

25 51 76

25 51 76

25 51 76

25 51 76

25 51 76

25 51 76

25 51 76

25 51 76

25 51 76

25 51 76

25 51 76

25 51 76

25 51 76

25 51 76

25 51 76

25 51 76

25 51 76

25 51 76

25 51 76

25 51 76

25 51 76

25 51 76

25 51 76

25 51 76

25 51 76

25 51 76

25 51 76

25 51 76

25 51 76

25 51 76

25 51 76

25 51 76

25 51 76

25 51 76

25 51 76

25 51 76

25 51 76

25 51 76

25 51 76

25 51 76

25 51 76

25 51 76

25 51 76

25 51 76

25 51 76

25 51 76

25 51 76

25 51 76

25 51 76

25 51 76

25 51 76

25 51 76

25 51 76

25 51 76

25 51 76

25 51 76

25 51 76

25 51 76

25 51 76

25 51 76

25 51 76

25 51 76

25 51 76

25 51 76

25 51 76

25 51 76

25 51 76

25 51 76

25 51 76

25 51 76

25 51 76

25 51 76

25 51 76

25 51 76

25 51 76

25 51 76

25 51 76

25 51 76

25 51 76

25 51 76

25 51 76

25 51 76

25 51 76

25 51 76

25 51 76

25 51 76

25 51 76

25 51 76

25 51 76

25 51 76

25 51 76

25 51 76

25 51 76

25 51 76

25 51 76

25 51 76

25 51 76

25 51 76

25 51 76

25 51 76

25 51 76

25 51 76

25 51 76

25 51 76

25 51 76

25 51 76

25 51 76

25 51 76

25 51 76

25 51 76

25 51 76

25 51 76

25 51 76

25 51 76

25 51 76

25 51 76

25 51 76

25 51 76

25 51 76

25 51 76

25 51 76

25 51 76

25 51 76

25 51 76

25 51 76

25 51 76

25 51 76

25 51 76

25 51 76

25 51 76

25 51 76

25 51 76

25 51 76

25 51 76

25 51 76

25 51 76

25 51 76

25 51 76

25 51 76

25 51 76

25 51 76

25 51 76

25 51 76

25 51 76

25 51 76

25 51 76

25 51 76

25 51 76

25 51 76

25 51 76

25 51 76

25 51 76

25 51 76

25 51 76

25 51 76

25 51 76

25 51 76

25 51 76

25 51 76

25 51 76

25 51 76

25 51 76

25 51 76

25 51 76

25 51 76

25 51 76

25 51 76

25 51 76

25 51 76

25 51 76

25 51 76

25 51 76

25 51 76

25 51 76

25 51 76

25 51 76

25 51 76

25 51 76

25 51 76

25 51 76

25 51 76

25 51 76

25 51 76

25 51 76

25 51 76

25 51 76

25 51 76

25 51 76

25 51 76

25 51 76

25 51 76

25 51 76

25 51 76

25 51 76

25 51 76

25 51 76

25 51 76

25 51 76

25 51 76

25 51 76

25 51 76

25 51 76

25 51 76

25 51 76

25 51 76

25 51 76

25 51 76

25 51 76

25 51 76

25 51 76

25 51 76

25 51 76

25 51 76

25 51 76

25 51 76

25 51 76

25 51 76

25 51 76

25 51 76

25 51 76

25 51 76

25 51 76

25 51 76

25 51 76

25 51 76

25 51 76

25 51 76

25 51 76

25 51 76

25 51 76

25 51 76

25 51 76

25 51 76

25 51 76

25 51 76

25 51 76

25 51 76

25 51 76

25 51 76

25 51 76

25 51 76

25 51 76

25 51 76

25 51 76

25 51 76

25 51 76

25 51 76

25 51 76

25 51 76

25 51 76

25 51 76

25 51 76

25 51 76

25 51 76

25 51 76

25 51 76

25 51 76

25 51 76

25 51 76

25 51 76

25 51 76

25 51 76

25 51 76

25 51 76

25 51 76

25 51 76

25 51 76

25 51 76

25 51 76

25 51 76

25 51 76

25 51 76

25 51 76

25 51 76

25 51 76

25 51 76

25 51 76

25 51 76

25 51 76

25 51 76

25 51 76

25 51 76

25 51 76

25 51 76

25 51 76

25 51 76

25 51 76

25 51 76

25 51 76

25 51 76

25 51 76

25 51 76

25 51 76

25 51 76

25 51 76

25 51 76

25 51 76

25 51 76

25 51 76

25 51 76

25 51 76

25 51 76

25 51 76

25 51 76

25 51 76

25 51 76

25 51 76

25 51 76

25 51 76

25 51 76

25 51 76

25 51 76

25 51 76

25 51 76

25 51 76

25 51 76

25 51 76

25 51 76

25 51 76

25 51 76

25 51 76

25 51 76

25 51 76

25 51 76

25 51 76

25 51 76

25 51 76

25 51 76

25 51 76

25 51 76

25 51 76

25 51 76

25 51 76

25 51 76

25 51 76

25 51 76

25 51 76

25 51 76

25 51 76

25 51 76

25 51 76

25 51 76

25 51 76

25 51 76

25 51 76

25 51 76

25 51 76

25 51 76

25 51 76

25 51 76

25 51 76

25 51 76

25 51 76

25 51 76

25 51 76

25 51 76

25 51 76

25 51 76

25 51 76

25 51 76

25 51 76

25 51 76

25 51 76

25 51 76

25 51 76

25 51 76

25 51 76

25 51 76

25 51 76

25 51 76

25 51 76

25 51 76

25 51 76

25 51 76

25 51 76

25 51 76

25 51 76

25 51 76

25 51 76

25 51 76

25 51 76

25 51 76

25 51 76

25 51 76

25 51 76

25 51 76

25 51 76

25 51 76

25 51 76

25 51 76

25 51 76

25 51 76

25 51 76

25 51 76

25 51 76

25 51 76

25 51 76

25 51 76

25 51 76

25 51 76

25 51 76

25 51 76

25 51 76

25 51 76

25 51 76

25 51 76

25 51 76

25 51 76

25 51 76

25 51 76

25 51 76

25 51 76

25 51 76

25 51 76

25 51 76

25 51 76

25 51 76

25 51 76

25 51 76

25 51 76

25 51 76

25 51 76

25 51 76

25 51 76

25 51 76

25 51 76

25 51 76

25 51 76

25 51 76

25 51 76

25 51 76

25 51 76

25 51 76

25 51 76

25 51 76

25 51 76

25 51 76

25 51 76

25 51 76

25 51 76

25 51 76

25 51 76

25 51 76

25 51 76

25 51 76

25 51 76

25 51 76

25 51 76

25 51 76

25 51 76

25 51 76

25 51 76

25 51 76

25 51 76

25 51 76

25 51 76

25 51 76

25 51 76

25 51 76

25 51 76

25 51 76

25 51 76

25 51 76

25 51 76

25 51 76

25 51 76

25 51 76

25 51 76

25 51 76

25 51 76

25 51 76

25 51 76

25 51 76

25 51 76

25 51 76

25 51 76

25 51 76

25 51 76

25 51 76

25 51 76

25 51 76

25 51 76

25 51 76

25 51 76

25 51 76

25 51 76

25 51 76

25 51 76

25 51 76

25 51 76

25 51 76

25 51 76

25 51 76

25 51 76

25 51 76

25 51 76

25 51 76

25 51 76

25 51 76

25 51 76

25 51 76

25 51 76

25 51 76

25 51 76

25 51 76

25 51 76

25 51 76

25 51 76

25 51 76

25 51 76

25 51 76

25 51 76

25 51 76

25 51 76

25 51 76

25 51 76

25 51 76

25 51 76

25 51 76

25 51 76

25 51 76

25 51 76

25 51 76

25 51 76

25 51 76

25 51 76

25 51 76

25 51 76

25 51 76

25 51 76

25 51 76

25 51 76

25 51 76

25 51 76

25 51 76

25 51 76

25 51 76

25 51 76

25 51 76

25 51 76

25 51 76

25 51 76

25 51 76

25 51 76

25 51 76

25 51 76

25 51 76

25 51 76

25 51 76

25 51 76

25 51 76

25 51 76

25 51 76

25 51 76

25 51 76

25 51 76

25 51 76

25 51 76

25 51 76

25 51 76

25 51 76

25 51 76

25 51 76

25 51 76

25 51 76

25 51 76

25 51 76

25 51 76

25 51 76

25 51 76

25 51 76

25 51 76

25 51 76

25 51 76

25 51 76

25 51 76

25 51 76

25 51 76

25 51 76

25 51 76

25 51 76

25 51 76

25 51 76

25 51 76

25 51 76

25 51 76

25 51 76

25 51 76

25 51 76

25 51 76

25 51 76

25 51 76

25 51 76

25 51 76

25 51 76

25 51 76

25 51 76

25 51 76

25 51 76

25 51 76

25 51 76

25 51 76

25 51 76

25 51 76

25 51 76

25 51 76

25 51 76

25 51 76

25 51 76

25 51 76

25 51 76

25 51 76

25 51 76

25 51 76

25 51 76

25 51 76

25 51 76

25 51 76

25 51 76

25 51 76

25 51 76

25 51 76

25 51 76

25 51 76

25 51 76

25 51 76

25 51 76

25 51 76

25 51 76

25 51 76

25 51 76

25 51 76

25 51 76

25 51 76

25 51 76

25 51 76

25 51 76

25 51 76

25 51 76

25 51 76

25 51 76

25 51 76

25 51 76

25 51 76

25 51 76

25 51 76

25 51 76

25 51 76

25 51 76

25 51 76

25 51 76

25 51 76

25 51 76

25 51 76

25 51 76

25 51 76

25 51 76

25 51 76

25 51 76

25 51 76

25 51 76

25 51 76

25 51 76

25 51 76

25 51 76

25 51 76

25 51 76

25 51 76

25 51 76

25 51 76

25 51 76

25 51 76

25 51 76

25 51 76

25 51 76

25 51 76

25 51 76

25 51 76

25 51 76

25 51 76

25 51 76

25 51 76

25 51 76

25 51 76

25 51 76

25 51 76

25 51 76

25 51 76

25 51 76

25 51 76

25 51 76

25 51 76

25 51 76

25 51 76

25 51 76

25 51 76

25 51 76

25 51 76

25 51 76

25 51 76

25 51 76

25 51 76

25 51 76

25 51 76

25 51 76

25 51 76

25 51 76

25 51 76

25 51 76

25 51 76

25 51 76

25 51 76

25 51 76

25 51 76

25 51 76

25 51 76

25 51 76

25 51 76

25 51 76

25 51 76

25 51 76

25 51 76

25 51 76

25 51 76

25 51 76

25 51 76

25 51 76

25 51 76

25 51 76

25 51 76

25 51 76

25 51 76

25 51 76

25 51 76

25 51 76

25 51 76

25 51 76

25 51 76

25 51 76

25 51 76

25 51 76

25 51 76

25 51 76

25 51 76

25 51 76

25 51 76

25 51 76

25 51 76

25 51 76

25 51 76

25 51 76

25 51 76

25 51 76

25 51 76

25 51 76

25 51 76

25 51 76

25 51 76

25 51 76

25 51 76

25 51 76

25 51 76

25 51 76

25 51 76

25 51 76

25 51 76

25 51 76

25 51 76

25 51 76

25 51 76

25 51 76

25 51 76

25 51 76

25 51 76

25 51 76

25 51 76

25 51 76

25 51 76

25 51 76

25 51 76

25 51 76

25 51 76

25 51 76

25 51 76

25 51 76

25 51 76

25 51 76

25 51 76

25 51 76

25 51 76

25 51 76

25 51 76

25 51 76

25 51 76

25 51 76

25 51 76

25 51 76

25 51 76

25 51 76

25 51 76

25 51 76

25 51 76

25 51 76

25 51 76

25 51 76

25 51 76

25 51 76

25 51 76

25 51 76

25 51 76

25 51 76

25 51 76

25 51 76

25 51 76

25 51 76

25 51 76

25 51 76

25 51 76

25 51 76

25 51 76

25 51 76

25 51 76

25 51 76

25 51 76

25 51 76

25 51 76

25 51 76

25 51 76

25 51 76

25 51 76

25 51 76

25 51 76

25 51 76

25 51 76

25 51 76

25 51 76

25 51 76

25 51 76

25 51 76

25 51 76

25 51 76

25 51 76

25 51 76

25 51 76

25 51 76

25 51 76

25 51 76

25 51 76

25 51 76

25 51 76

25 51 76

25 51 76

25 51 76

25 51 76

25 51 76

25 51 76

25 51 76

25 51 76

25 51 76

25 51 76

25 51 76

25 51 76

25 51 76

25 51 76

25 51 76

25 51 76

25 51 76

25 51 76

25 51 76

25 51 76

25 51 76

25 51 76

25 51 76

25 51 76

25 51 76

25 51 76

25 51 76

25 51 76

25 51 76

25 51 76

25 51 76

25 51 76

25 51 76

25 51 76

25 51 76

25 51 76

25 51 76

25 51 76

25 51 76

25 51 76

25 51 76

25 51 76

25 51 76

25 51 76

25 51 76

25 51 76

25 51 76

25 51 76

25 51 76

25 51 76

25 51 76

25 51 76

25 51 76

25 51 76

25 51 76

25 51 76

25 51 76

25 51 76

25 51 76

25 51 76

25 51 76

25 51 76

25 51 76

25 51 76

25 51 76

25 51 76

25 51 76

25 51 76

25 51 76

25 51 76

25 51 76

25 51 76

25 51 76

25 51 76

25 51 76

25 51 76

25 51 76

25 51 76

25 51 76

25 51 76

25 51 76

25 51 76

25 51 76

25 51 76

25 51 76

25 51 76

25 51 76

25 51 76

25 51 76

25 51 76

25 51 76

25 51 76

25 51 76

25 51 76

25 51 76

25 51 76

25 51 76

25 51 76

25 51 76

25 51 76

25 51 76

25 51 76

25 51 76

25 51 76

25 51 76

25 51 76

25 51 76

25 51 76

25 51 76

25 51 76

25 51 76

25 51 76

25 51 76

25 51 76

25 51 76

25 51 76

25 51 76

25 51 76

25 51 76

25 51 76

25 51 76

25 51 76

25 51 76

25 51 76

25 51 76

25 51 76

25 51 76

25 51 76

25 51 76

25 51 76

25 51 76

25 51 76

25 51 76

25 51 76

25 51 76

25 51 76

25 51 76

25 51 76

25 51 76

25 51 76

25 51 76

25 51 76

25 51 76

25 51 76

25 51 76

25 51 76

25 51 76

25 51 76

25 51 76

25 51 76

25 51 76

25 51 76

25 51 76

25 51 76

25 51 76

25 51 76

25 51 76

25 51 76

25 51 76

25 51 76

25 51 76

25 51 76

25 51 76

25 51 76

25 51 76

25 51 76

25 51 76

25 51 76

25 51 76

25 51 76

25 51 76

25 51 76

25 51 76

25 51 76

25 51 76

25 51 76

25 51 76

25 51 76

25 51 76

25 51 76

25 51 76

25 51 76

25 51 76

25 51 76

25 51 76

25 51 76

25 51 76

25 51 76

25 51 76

25 51 76

25 51 76

25 51 76

25 51 76

25 51 76

25 51 76

25 51 76

25 51 76

25 51 76

25 51 76

25 51 76

25 51 76

25 51 76

25 51 76

25 51 76

25 51 76

25 51 76

25 51 76

25 51 76

25 51 76

25 51 76

25 51 76

25 51 76

25 51 76

25 51 76

25 51 76

25 51 76

25 51 76

25 51 76

25 51 76

25 51 76

25 51 76

25 51 76

25 51 76

25 51 76

25 51 76

25 51 76

25 51 76

25 51 76

25 51 76

25 51 76

25 51 76

25 51 76

25 51 76

25 51 76

25 51 76

25 51 76

25 51 76

25 51 76

25 51 76

25 51 76

25 51 76

25 51 76

25 51 76

25 51 76

25 51 76

25 51 76

25 51 76

25 51 76

25 51 76

25 51 76

25 51 76

25 51 76

25 51 76

25 51 76

25 51 76

25 51 76

25 51 76

25 51 76

25 51 76

25 51 76

25 51 76

25 51 76

25 51 76

25 51 76

25 51 76

25 51 76

25 51 76

25 51 76

25 51 76

25 51 76

25 51 76

25 51 76

25 51 76

25 51 76

25 51 76

25 51 76

25 51 76

25 51 76

25 51 76

25 51 76

25 51 76

25 51 76

25 51 76

25 51 76

25 51 76

25 51 76

25 51 76

25 51 76

25 51 76

25 51 76

25 51 76

25 51 76

25 51 76

25 51 76

25 51 76

25 51 76

25 51 76

25 51 76

25 51 76

25 51 76

25 51 76

25 51 76

25 51 76

25 51 76

25 51 76

25 51 76

25 51 76

25 51 76

25 51 76

25 51 76

25 51 76

25 51 76

25 51 76

25 51 76

25 51 76

25 51 76

25 51 76

25 51 76

25 51 76

25 51 76

25 51 76

25 51 76

25 51 76

25 51 76

25 51 76

25 51 76

25 51 76

25 51 76

25 51 76

25 51 76

25 51 76

25 51 76

25 51 76

25 51 76

25 51 76

25 51 76

25 51 76

25 51 76

25 51 76

25 51 76

25 51 76

25 51 76

25 51 76

25 51 76

25 51 76

25 51 76

25 51 76

25 51 76

25 51 76

25 51 76

25 51 76

25 51 76

25 51 76

25 51 76

25 51 76

25 51 76

25 51 76

25 51 76

25 51 76

25 51 76

25 51 76

25 51 76

25 51 76

25 51 76

25 51 76

25 51 76

25 51 76

25 51 76

25 51 76

25 51 76

25 51 76

25 51 76

25 51 76

25 51 76

25 51 76

25 51 76

25 51 76

25 51 76

25 51 76

25 51 76

25 51 76

25 51 76

25 51 76

25 51 76

25 51 76

25 51 76

25 51 76

25 51 76

25 51 76

25 51 76

25 51 76

25 51 76

25 51 76

25 51 76

25 51 76

25 51 76

25 51 76

25 51 76

25 51 76

25 51 76

25 51 76

25 51 76

25 51 76

25 51 76

25 51 76

25 51 76

25 51 76

25 51 76

25 51 76

25 51 76

25 51 76

25 51 76

25 51 76

25 51 76

25 51 76

25 51 76

25 51 76

25 51 76

25 51 76

25 51 76

25 51 76

25 51 76

25 51 76

25 51 76

25 51 76

25 51 76

25 51 76

25 51 76

25 51 76

25 51 76

25 51 76

25 51 76

25 51 76

25 51 76

25 51 76

25 51 76

25 51 76

25 51 76

25 51 76

25 51 76

25 51 76

25 51 76

25 51 76

25 51 76

25 51 76

25 51 76

25 51 76

25 51 76

25 51 76

25 51 76

25 51 76

25 51 76

25 51 76

25 51 76

25 51 76

25 51 76

25 51 76

25 51 76

25 51 76

25 51 76

25 51 76

25 51 76

25 51 76

25 51 76

25 51 76

25 51 76

25 51 76

25 51 76

25 51 76

25 51 76

25 51 76

25 51 76

25 51 76

25 51 76

25 51 76

25 51 76

25 51 76

25 51 76

25 51 76

25 51 76

25 51 76

25 51 76

25 51 76

25 51 76

25 51 76

25 51 76

25 51 76

25 51 76

25 51 76

25 51 76

25 51 76

25 51 76

25 51 76

25 51 76

25 51 76

25 51 76

25 51 76

25 51 76

25 51 76

25 51 76

25 51 76

25 51 76

25 51 76

25 51 76

25 51 76

25 51 76

25 51 76

25 51 76

25 51 76

25 51 76

25 51 76

25 51 76

25 51 76

25 51 76

25 51 76

25 51 76

25 51 76

25 51 76

25 51 76

25 51 76

25 51 76

25 51 76

25 51 76

25 51 76

25 51 76

25 51 76

25 51 76

25 51 76

25 51 76

25 51 76

25 51 76

25 51 76

25 51 76

25 51 76

25 51 76

25 51 76

25 51 76

25 51 76

25 51 76

25 51 76

25 51 76

25 51 76

25 51 76

25 51 76

25 51 76

25 51 76

25 51 76

25 51 76

25 51 76

25 51 76

25 51 76

25 51 76

25 51 76

25 51 76

25 51 76

25 51 76

25 51 76

25 51 76

25 51 76

25 51 76

25 51 76

25 51 76

25 51 76

25 51 76

25 51 76

25 51 76

25 51 76

25 51 76

25 51 76

25 51 76

25 51 76

25 51 76

25 51 76

25 51 76

25 51 76

25 51 76

25 51 76

25 51 76

25 51 76

25 51 76

25 51 76

25 51 76

25 51 76

25 51 76

25 51 76

25 51 76

25 51 76

25 51 76

25 51 76

25 51 76

25 51 76

25 51 76

25 51 76

25 51 76

25 51 76

25 51 76

25 51 76

25 51 76

25 51 76

25 51 76

25 51 76

25 51 76

25 51 76

25 51 76

25 51 76

25 51 76

25 51 76

25 51 76

25 51 76

25 51 76

25 51 76

25 51 76

25 51 76

25 51 76

25 51 76

25 51 76

25 51 76

25 51 76

25 51 76

25 51 76

25 51 76

25 51 76

25 51 76

25 51 76

25 51 76

25 51 76

25 51 76

25 51 76

25 51 76

25 51 76

25 51 76

25 51 76

25 51 76

25 51 76

25 51 76

25 51 76

25 51 76

25 51 76

25 51 76

25 51 76

25 51 76

25 51 76

25 51 76

25 51 76

25 51 76

25 51 76

25 51 76

25 51 76

25 51 76

25 51 76

25 51 76

25 51 76

25 51 76

25 51 76

25 51 76

25 51 76

25 51 76

25 51 76

25 51 76

25 51 76

25 51 76

25 51 76

25 51 76

25 51 76

25 51 76

25 51 76

25 51 76

25 51 76

25 51 76

25 51 76

25 51 76

25 51 76

25 51 76

25 51 76

25 51 76

25 51 76

25 51 76

25 51 76

25 51 76

25 51 76

25 51 76

25 51 76

25 51 76

25 51 76

25 51 76

25 51 76

25 51 76

25 51 76

25 51 76

25 51 76

25 51 76

25 51 76

25 51 76

25 51 76

25 51 76

25 51 76

25 51 76

25 51 76

25 51 76

25 51 76

25 51 76

25 51 76

25 51 76

25 51 76

25 51 76

25 51 76

25 51 76

25 51 76

25 51 76

25 51 76

25 51 76

25 51 76

25 51 76

25 51 76

25 51 76

25 51 76

25 51 76

25 51 76

25 51 76

25 51 76

25 51 76

25 51 76

25 51 76

25 51 76

25 51 76

25 51 76

25 51 76

25 51 76

25 51 76

25 51 76

25 51 76

25 51 76

25 51 76

25 51 76

25 51 76

25 51 76

25 51 76

25 51 76

25 51 76

25 51 76

25 51 76

25 51 76

25 51 76

25 51 76

25 51 76

25 51 76

25 51 76

25 51 76

25 51 76

25 51 76

25 51 76

25 51 76

25 51 76

25 51 76

25 51 76

25 51 76

25 51 76

25 51 76

25 51 76

25 51 76

25 51 76

25 51 76

25 51 76

25 51 76

25 51 76

25 51 76

25 51 76

25 51 76

25 51 76

25 51 76

25 51 76

25 51 76

25 51 76

25 51 76

25 51 76

25 51 76

25 51 76

25 51 76

25 51 76

25 51 76

25 51 76

25 51 76

25 51 76

25 51 76

25 51 76

25 51 76

25 51 76

25 51 76

25 51 76

25 51 76

25 51 76

25 51 76

25 51 76

25 51 76

25 51 76

25 51 76

25 51 76

25 51 76

25 51 76

25 51 76

25 51 76

25 51 76

25 51 76

25 51 76

25 51 76

25 51 76

25 51 76

25 51 76

25 51 76

25 51 76

25 51 76

25 51 76

25 51 76

25 51 76

25 51 76

25 51 76

25 51 76

25 51 76

25 51 76

25 51 76

25 51 76

25 51 76

25 51 76

25 51 76

25 51 76

25 51 76

25 51 76

25 51 76

25 51 76

25 51 76

25 51 76

25 51 76

25 51 76

25 51 76

25 51 76

25 51 76

25 51 76

25 51 76

25 51 76

25 51 76

25 51 76

25 51 76

25 51 76

25 51 76

25 51 76

25 51 76

25 51 76

25 51 76

25 51 76

25 51 76

25 51 76

25 51 76

25 51 76

25 51 76

25 51 76

25 51 76

25 51 76

25 51 76

25 51 76

25 51 76

25 51 76

25 51 76

25 51 76

25 51 76

25 51 76

25 51 76

25 51 76

25 51 76

25 51 76

25 51 76

25 51 76

25 51 76

25 51 76

25 51 76

25 51 76

25 51 76

25 51 76

25 51 76

25 51 76

25 51 76

25 51 76

25 51 76

25 51 76

25 51 76

25 51 76

25 51 76

25 51 76

25 51 76

25 51 76

25 51 76

25 51 76

25 51 76

25 51 76

25 51 76

25 51 76

25 51 76

25 51 76

25 51 76

25 51 76

25 51 76

25 51 76

25 51 76

25 51 76

25 51 76

25 51 76

25 51 76

25 51 76

25 51 76

25 51 76

25 51 76

25 51 76

25 51 76

25 51 76

25 51 76

25 51 76

25 51 76

25 51 76

25 51 76

25 51 76

25 51 76

25 51 76

25 51 76

25 51 76

25 51 76

25 51 76

25 51 76

25 51 76

25 51 76

25 51 76

25 51 76

25 51 76

25 51 76

25 51 76

25 51 76

25 51 76

25 51 76

25 51 76

25 51 76

25 51 76

25 51 76

25 51 76

25 51 76

25 51 76

25 51 76

25 51 76

25 51 76

25 51 76

25 51 76

25 51 76

25 51 76

25 51 76

25 51 76

25 51 76

25 51 76

25 51 76

25 51 76

25 51 76

25 51 76

25 51 76

25 51 76

25 51 76

25 51 76

25 51 76

25 51 76

25 51 76

25 51 76

25 51 76

25 51 76

25 51 76

25 51 76

25 51 76

25 51 76

25 51 76

25 51 76

25 51 76

25 51 76

25 51 76

25 51 76

25 51 76

25 51 76

25 51 76

25 51 76

25 51 76

25 51 76

25 51 76

25 51 76

25 51 76

25 51 76

25 51 76

25 51 76

25 51 76

25 51 76

25 51 76

25 51 76

25 51 76

25 51 76

25 51 76

25 51 76

25 51 76

25 51 76

25 51 76

25 51 76

25 51 76

25 51 76

25 51 76

25 51 76

25 51 76

25 51 76

25 51 76

25 51 76

25 51 76

25 51 76

25 51 76

25 51 76

25 51 76

25 51 76

25 51 76

25 51 76

25 51 76

25 51 76

25 51 76

25 51 76

25 51 76

25 51 76

25 51 76

25 51 76

25 51 76

25 51 76

25 51 76

25 51 76

25 51 76

25 51 76

25 51 76

25 51 76

25 51 76

25 51 76

25 51 76

25 51 76

25 51 76

25 51 76

25 51 76

25 51 76

25 51 76

25 51 76

25 51 76

25 51 76

25 51 76

25 51 76

25 51 76

25 51 76

25 51 76

25 51 76

25 51 76

25 51 76

25 51 76

25 51 76

25 51 76

25 51 76

25 51 76

25 51 76

25 51 76

25 51 76

25 51 76

25 51 76

25 51 76

25 51 76

25 51 76

25 51 76

25 51 76

25 51 76

25 51 76

25 51 76

25 51 76

25 51 76

25 51 76

25 51 76

25 51 76

25 51 76

25 51 76

25 51 76

25 51 76

25 51 76

25 51 76

25 51 76

25 51 76

25 51 76

25 51 76

25 51 76

25 51 76

25 51 76

25 51 76

25 51 76

25 51 76

25 51 76

25 51 76

25 51 76

25 51 76

25 51 76

25 51 76

25 51 76

25 51 76

25 51 76

25 51 76

25 51 76

25 51 76

25 51 76

25 51 76

25 51 76

25 51 76

25 51 76

25 51 76

25 51 76

25 51 76

25 51 76

25 51 76

25 51 76

25 51 76

25 51 76

25 51 76

25 51 76

25 51 76

25 51 76

25 51 76

25 51 76

25 51 76

25 51 76

25 51 76

25 51 76

25 51 76

25 51 76

25 51 76

25 51 76

25 51 76

25 51 76

25 51 76

25 51 76

25 51 76

25 51 76

25 51 76

25 51 76

25 51 76

25 51 76

25 51 76

25 51 76

25 51 76

25 51 76

25 51 76

25 51 76

25 51 76

25 51 76

25 51 76

25 51 76

25 51 76

25 51 76

25 51 76

25 51 76

25 51 76

25 51 76

25 51 76

25 51 76

25 51 76

25 51 76

25 51 76

25 51 76

25 51 76

25 51 76

25 51 76

25 51 76

25 51 76

25 51 76

25 51 76

25 51 76

25 51 76

25 51 76

25 51 76

25 51 76

25 51 76

25 51 76

25 51 76

25 51 76

25 51 76

25 51 76

25 51 76

25 51 76

25 51 76

25 51 76

25 51 76

25 51 76

25 51 76

25 51 76

25 51 76

25 51 76

25 51 76

25 51 76

25 51 76

25 51 76

25 51 76

25 51 76

25 51 76

25 51 76

25 51 76

25 51 76

25 51 76

25 51 76

25 51 76

25 51 76

25 51 76

25 51 76

25 51 76

25 51 76

25 51 76

25 51 76

25 51 76

25 51 76

25 51 76

25 51 76

25 51 76

25 51 76

25 51 76

25 51 76

25 51 76

25 51 76

25 51 76

25 51 76

25 51 76

25 51 76

25 51 76

25 51 76

25 51 76

25 51 76

25 51 76

25 51 76

25 51 76

25 51 76

25 51 76

25 51 76

25 51 76

25 51 76

25 51 76

25 51 76

25 51 76

25 51 76

25 51 76

25 51 76

25 51 76

25 51 76

25 51 76

25 51 76

25 51 76

25 51 76

25 51 76

25 51 76

25 51 76

25 51 76

25 51 76

25 51 76

25 51 76

25 51 76

25 51 76

25 51 76

25 51 76

25 51 76

25 51 76

25 51 76

25 51 76

25 51 76

25 51 76

25 51 76

25 51 76

25 51 76

25 51 76

25 51 76

25 51 76

25 51 76

25 51 76

25 51 76

25 51 76

25 51 76

25 51 76

25 51 76

25 51 76

25 51 76

25 51 76

25 51 76

25 51 76

25 51 76

25 51 76

25 51 76

25 51 76

25 51 76

25 51 76

25 51 76

25 51 76

25 51 76

25 51 76

25 51 76

25 51 76

25 51 76

25 51 76

25 51 76

25 51 76

25 51 76

25 51 76

25 51 76

25 51 76

25 51 76

25 51 76

25 51 76

25 51 76

25 51 76

25 51 76

25 51 76

25 51 76

25 51 76

25 51 76

25 51 76

25 51 76

25 51 76

25 51 76

25 51 76

25 51 76

25 51 76

25 51 76

25 51 76

25 51 76

25 51 76

25 51 76

25 51 76

25 51 76

25 51 76

25 51 76

25 51 76

25 51 76

25 51 76

25 51 76

25 51 76

25 51 76

25 51 76

25 51 76

25 51 76

25 51 76

25 51 76

25 51 76

25 51 76

25 51 76

25 51 76

25 51 76

25 51 76

25 51 76

25 51 76

25 51 76

25 51 76

25 51 76

25 51 76

25 51 76

25 51 76

25 51 76

25 51 76

25 51 76

25 51 76

25 51 76

25 51 76

25 51 76

25 51 76

25 51 76

25 51 76

25 51 76

25 51 76

25 51 76

25 51 76

25 51 76

25 51 76

25 51 76

25 51 76

25 51 76

25 51 76

25 51 76

25 51 76

25 51 76

25 51 76

25 51 76

25 51 76

25 51 76

25 51 76

25 51 76

25 51 76

25 51 76

25 51 76

25 51 76

25 51 76

25 51 76

25 51 76

25 51 76

25 51 76

25 51 76

25 51 76

25 51 76

25 51 76

25 51 76

25 51 76

25 51 76

25 51 76

25 51 76

25 51 76

25 51 76

25 51 76

25 51 76

25 51 76

25 51 76

25 51 76

25 51 76

25 51 76

25 51 76

25 51 76

25 51 76

25 51 76

25 51 76

25 51 76

25 51 76

25 51 76

25 51 76

25 51 76

25 51 76

25 51 76

25 51 76

25 51 76

25 51 76

25 51 76

25 51 76

25 51 76

25 51 76

25 51 76

25 51 76

25 51 76

25 51 76

25 51 76

25 51 76

25 51 76

25 51 76

25 51 76

25 51 76

25 51 76

25 51 76

25 51 76

25 51 76

25 51 76

25 51 76

25 51 76

25 51 76

25 51 76

25 51 76

25 51 76

25 51 76

25 51 76

25 51 76

25 51 76

25 51 76

25 51 76

25 51 76

25 51 76

25 51 76

25 51 76

25 51 76

25 51 76

25 51 76

25 51 76

25 51 76

25 51 76

25 51 76

25 51 76

25 51 76

25 51 76

25 51 76

25 51 76

25 51 76

25 51 76

25 51 76

25 51 76

25 51 76

25 51 76

25 51 76

25 51 76

25 51 76

25 51 76

25 51 76

25 51 76

25 51 76

25 51 76

25 51 76

25 51 76

25 51 76

25 51 76

25 51 76

25 51 76

25 51 76

25 51 76

25 51 76

25 51 76

25 51 76

25 51 76

25 51 76

25 51 76

25 51 76

25 51 76

25 51 76

25 51 76

25 51 76

25 51 76

25 51 76

25 51 76

25 51 76

25 51 76

25 51 76

25 51 76

25 51 76

25 51 76

25 51 76

25 51 76

25 51 76

25 51 76

25 51 76

25 51 76

25 51 76

25 51 76

25 51 76

25 51 76

25 51 76

25 51 76

25 51 76

25 51 76

25 51 76

25 51 76

25 51 76

25 51 76

25 51 76

25 51 76

25 51 76

25 51 76

25 51 76

25 51 76

25 51 76

25 51 76

25 51 76

25 51 76

25 51 76

25 51 76

25 51 76

25 51 76

25 51 76

25 51 76

25 51 76

25 51 76

25 51 76

25 51 76

25 51 76

25 51 76

25 51 76

25 51 76

25 51 76

25 51 76

25 51 76

25 51 76

25 51 76

25 51 76

25 51 76

25 51 76

25 51 76

25 51 76

25 51 76

25 51 76

25 51 76

25 51 76

25 51 76

25 51 76

25 51 76

25 51 76

25 51 76

25 51 76

25 51 76

25 51 76

25 51 76

25 51 76

25 51 76

25 51 76

25 51 76

25 51 76

25 51 76

25 51 76

25 51 76

25 51 76

25 51 76

25 51 76

25 51 76

25 51 76

25 51 76

25 51 76

25 51 76

25 51 76

25 51 76

25 51 76

25 51 76

25 51 76

25 51 76

25 51 76

25 51 76

25 51 76

25 51 76

25 51 76

25 51 76

25 51 76

25 51 76

25 51 76

25 51 76

25 51 76

25 51 76

25 51 76

25 51 76

25 51 76

25 51 76

25 51 76

25 51 76

25 51 76

25 51 76

25 51 76

25 51 76

25 51 76

25 51 76

25 51 76

25 51 76

25 51 76

25 51 76

25 51 76

25 51 76

25 51 76

25 51 76

25 51 76

25 51 76

25 51 76

25 51 76

25 51 76

25 51 76

25 51 76

25 51 76

25 51 76

25 51 76

25 51 76

25 51 76

25 51 76

25 51 76

25 51 76

25 51 76

25 51 76

25 51 76

25 51 76

25 51 76

25 51 76

25 51 76

25 51 76

25 51 76

25 51 76

25 51 76

25 51 76

25 51 76

25 51 76

25 51 76

25 51 76

25 51 76

25 51 76

25 51 76

25 51 76

25 51 76

25 51 76

25 51 76

25 51 76

25 51 76

25 51 76

25 51 76

25 51 76

25 51 76

25 51 76

25 51 76

25 51 76

25 51 76

25 51 76

25 51 76

25 51 76

25 51 76

25 51 76

25 51 76

25 51 76

25 51 76

25 51 76

25 51 76

25 51 76

25 51 76

25 51 76

25 51 76

25 51 76

25 51 76

25 51 76

25 51 76

25 51 76

25 51 76

25 51 76

25 51 76

25 51 76

25 51 76

25 51 76

25 51 76

25 51 76

25 51 76

25 51 76

25 51 76

25 51 76

25 51 76

25 51 76

25 51 76

25 51 76

25 51 76

25 51 76

25 51 76

25 51 76

25 51 76

25 51 76

25 51 76

25 51 76

25 51 76

25 51 76

25 51 76

25 51 76

25 51 76

25 51 76

25 51 76

25 51 76

25 51 76

25 51 76

25 51 76

25 51 76

25 51 76

25 51 76

25 51 76

25 51 76

25 51 76

25 51 76

25 51 76

25 51 76

25 51 76

25 51 76

25 51 76

25 51 76

25 51 76

25 51 76

25 51 76

25 51 76

25 51 76

25 51 76

25 51 76

25 51 76

25 51 76

25 51 76

25 51 76

25 51 76

25 51 76

25 51 76

25 51 76

25 51 76

25 51 76

25 51 76

25 51 76

25 51 76

25 51 76

25 51 76

25 51 76

25 51 76

25 51 76

25 51 76

25 51 76

25 51 76

25 51 76

25 51 76

25 51 76

25 51 76

25 51 76

25 51 76

25 51 76

25 51 76

25 51 76

25 51 76

25 51 76

25 51 76

25 51 76

25 51 76

25 51 76

25 51 76

25 51 76

25 51 76

25 51 76

25 51 76

25 51 76

25 51 76

25 51 76

25 51 76

25 51 76

25 51 76

25 51 76

25 51 76

25 51 76

25 51 76

25 51 76

25 51 76

25 51 76

25 51 76

25 51 76

25 51 76

25 51 76

25 51 76

25 51 76

25 51 76

25 51 76

25 51 76

25 51 76

25 51 76

25 51 76

25 51 76

25 51 76

25 51 76

25 51 76

25 51 76

25 51 76

25 51 76

25 51 76

25 51 76

25 51 76

25 51 76

25 51 76

25 51 76

25 51 76

25 51 76

25 51 76

25 51 76

25 51 76

25 51 76

25 51 76

25 51 76

25 51 76

25 51 76

25 51 76

25 51 76

25 51 76

25 51 76

25 51 76

25 51 76

25 51 76

25 51 76

25 51 76

25 51 76

25 51 76

25 51 76

25 51 76

25 51 76

25 51 76

25 51 76

25 51 76

25 51 76

25 51 76

25 51 76

25 51 76

25 51 76

25 51 76

25 51 76

25 51 76

25 51 76

25 51 76

25 51 76

25 51 76

25 51 76

25 51 76

25 51 76

25 51 76

25 51 76

25 51 76

25 51 76

25 51 76

25 51 76

25 51 76

25 51 76

25 51 76

25 51 76

25 51 76

25 51 76

25 51 76

25 51 76

25 51 76

25 51 76

25 51 76

25 51 76

25 51 76

25 51 76

25 51 76

25 51 76

25 51 76

25 51 76

25 51 76

25 51 76

25 51 76

25 51 76

25 51 76

25 51 76

25 51 76

25 51 76

25 51 76

25 51 76

25 51 76

25 51 76

25 51 76

25 51 76

25 51 76

25 51 76

25 51 76

25 51 76

25 51 76

25 51 76

25 51 76

25 51 76

25 51 76

25 51 76

25 51 76

25 51 76

25 51 76

25 51 76

25 51 76

25 51 76

25 51 76

25 51 76

25 51 76

25 51 76

25 51 76

25 51 76

25 51 76

25 51 76

25 51 76

25 51 76

25 51 76

25 51 76

25 51 76

25 51 76

25 51 76

25 51 76

25 51 76

25 51 76

25 51 76

25 51 76

25 51 76

25 51 76

25 51 76

25 51 76

25 51 76

25 51 76

25 51 76

25 51 76

25 51 76

25 51 76

25 51 76

25 51 76

25 51 76

25 51 76

25 51 76

25 51 76

25 51 76

25 51 76

25 51 76

25 51 76

25 51 76

25 51 76

25 51 76

25 51 76

25 51 76

25 51 76

25 51 76

25 51 76

25 51 76

25 51 76

25 51 76

25 51 76

25 51 76

25 51 76

25 51 76

25 51 76

25 51 76

25 51 76

25 51 76

25 51 76

25 51 76

25 51 76

25 51 76

25 51 76

25 51 76

25 51 76

25 51 76

25 51 76

25 51 76

25 51 76

25 51 76

25 51 76

25 51 76

25 51 76

25 51 76

25 51 76

25 51 76

25 51 76

25 51 76

25 51 76

25 51 76

25 51 76

25 51 76

25 51 76

25 51 76

25 51 76

25 51 76

25 51 76

25 51 76

25 51 76

25 51 76

25 51 76

25 51 76

25 51 76

25 51 76

25 51 76

25 51 76

25 51 76

25 51 76

25 51 76

25 51 76

25 51 76

25 51 76

25 51 76

25 51 76

25 51 76

25 51 76

25 51 76

25 51 76

25 51 76

25 51 76

25 51 76

25 51 76

25 51 76

25 51 76

25 51 76

25 51 76

25 51 76

25 51 76

25 51 76

25 51 76

25 51 76

25 51 76

25 51 76

25 51 76

25 51 76

25 51 76

25 51 76

25 51 76

25 51 76

25 51 76

25 51 76

25 51 76

25 51 76

25 51 76

25 51 76

25 51 76

25 51 76

25 51 76

25 51 76

25 51 76

25 51 76

25 51 76

25 51 76

25 51 76

25 51 76

25 51 76

25 51 76

25 51 76

25 51 76

25 51 76

25 51 76

25 51 76

25 51 76

25 51 76

25 51 76

25 51 76

25 51 76

25 51 76

25 51 76

25 51 76

25 51 76

25 51 76

25 51 76

25 51 76

25 51 76

25 51 76

25 51 76

25 51 76

25 51 76

25 51 76

25 51 76

25 51 76

25 51 76

25 51 76

25 51 76

25 51 76

25 51 76

25 51 76

25 51 76

25 51 76

25 51 76

25 51 76

25 51 76

25 51 76

25 51 76

25 51 76

25 51 76

25 51 76

25 51 76

25 51 76

25 51 76

25 51 76

25 51 76

25 51 76

25 51 76

25 51 76

25 51 76

25 51 76

25 51 76

25 51 76

25 51 76

25 51 76

25 51 76

25 51 76

25 51 76

25 51 76

25 51 76

25 51 76

25 51 76

25 51 76

25 51 76

25 51 76

25 51 76

25 51 76

25 51 76

25 51 76

25 51 76

25 51 76

25 51 76

25 51 76

25 51 76

25 51 76

25 51 76

25 51 76

25 51 76

25 51 76

25 51 76

25 51 76

25 51 76

25 51 76

25 51 76

25 51 76

25 51 76

25 51 76

25 51 76

25 51 76

25 51 76

25 51 76

25 51 76

25 51 76

25 51 76

25 51 76

25 51 76

25 51 76

25 51 76

25 51 76

25 51 76

25 51 76

25 51 76

25 51 76

25 51 76

25 51 76

25 51 76

25 51 76

25 51 76

25 51 76

25 51 76

25 51 76

25 51 76

25 51 76

25 51 76

25 51 76

25 51 76

25 51 76

25 51 76

25 51 76

25 51 76

25 51 76

25 51 76

25 51 76

25 51 76

25 51 76

25 51 76

25 51 76

25 51 76

25 51 76

25 51 76

25 51 76

25 51 76

25 51 76

25 51 76

25 51 76

25 51 76

25 51 76

25 51 76

25 51 76

25 51 76

25 51 76

25 51 76

25 51 76

25 51 76

25 51 76

25 51 76

25 51 76

25 51 76

25 51 76

25 51 76

25 51 76

25 51 76

25 51 76

25 51 76

25 51 76

25 51 76

25 51 76

25 51 76

25 51 76

25 51 76

25 51 76

25 51 76

25 51 76

25 51 76

25 51 76

25 51 76

25 51 76

25 51 76

25 51 76

25 51 76

25 51 76

25 51 76

25 51 76

25 51 76

25 51 76

25 51 76

25 51 76

25 51 76

25 51 76

25 51 76

25 51 76

25 51 76

25 51 76

25 51 76

25 51 76

25 51 76

25 51 76

25 51 76

25 51 76

25 51 76

25 51 76

25 51 76

25 51 76

25 51 76

25 51 76

25 51 76

25 51 76

25 51 76

25 51 76

25 51 76

25 51 76

25 51 76

25 51 76

25 51 76

25 51 76

25 51 76

25 51 76

25 51 76

25 51 76

25 51 76

25 51 76

25 51 76

25 51 76

25 51 76

25 51 76

25 51 76

25 51 76

25 51 76

25 51 76

25 51 76

25 51 76

25 51 76

25 51 76

25 51 76

25 51 76

25 51 76

25 51 76

25 51 76

25 51 76

25 51 76

25 51 76

25 51 76

25 51 76

25 51 76

25 51 76

25 51 76

25 51 76

25 51 76

25 51 76

25 51 76

25 51 76

25 51 76

25 51 76

25 51 76

25 51 76

25 51 76

25 51 76

25 51 76

25 51 76

25 51 76

25 51 76

25 51 76

25 51 76

25 51 76

25 51 76

25 51 76

25 51 76

25 51 76

25 51 76

25 51 76

25 51 76

25 51 76

25 51 76

25 51 76

25 51 76

25 51 76

25 51 76

25 51 76

25 51 76

25 51 76

25 51 76

25 51 76

25 51 76

25 51 76

25 51 76

25 51 76

25 51 76

25 51 76

25 51 76

25 51 76

25 51 76

25 51 76

25 51 76

25 51 76

25 51 76

25 51 76

25 51 76

25 51 76

25 51 76

25 51 76

25 51 76

25 51 76

25 51 76

25 51 76

25 51 76

25 51 76

25 51 76

25 51 76

25 51 76

25 51 76

25 51 76

25 51 76

25 51 76

25 51 76

25 51 76

25 51 76

25 51 76

25 51 76

25 51 76

25 51 76

25 51 76

25 51 76

25 51 76

25 51 76

25 51 76

25 51 76

25 51 76

25 51 76

25 51 76

25 51 76

25 51 76

25 51 76

25 51 76

25 51 76

25 51 76

25 51 76

25 51 76

25 51 76

25 51 76

25 51 76

25 51 76

25 51 76

25 51 76

25 51 76

25 51 76

25 51 76

25 51 76

25 51 76

25 51 76

25 51 76

25 51 76

25 51 76

25 51 76

25 51 76

25 51 76

25 51 76

25 51 76

25 51 76

25 51 76

25 51 76

25 51 76

25 51 76

25 51 76

25 51 76

25 51 76

25 51 76

25 51 76

25 51 76

25 51 76

25 51 76

25 51 76

25 51 76

25 51 76

25 51 76

25 51 76

25 51 76

25 51 76

25 51 76

25 51 76

25 51 76

25 51 76

25 51 76

25 51 76

25 51 76

25 51 76

25 51 76

25 51 76

25 51 76

25 51 76

25 51 76

25 51 76

25 51 76

25 51 76

25 51 76

25 51 76

25 51 76

25 51 76

25 51 76

25 51 76

25 51 76

25 51 76

25 51 76

25 51 76

25 51 76

25 51 76

25 51 76

25 51 76

25 51 76

25 51 76

25 51 76

25 51 76

25 51 76

25 51 76

25 51 76

25 51 76

25 51 76

25 51 76

25 51 76

25 51 76

25 51 76

25 51 76

25 51 76

25 51 76

25 51 76

25 51 76

25 51 76

25 51 76

25 51 76

25 51 76

25 51 76

25 51 76

25 51 76

25 51 76

25 51 76

25 51 76

25 51 76

25 51 76

25 51 76

25 51 76

25 51 76

25 51 76

25 51 76

25 51 76

25 51 76

25 51 76

25 51 76

25 51 76

25 51 76

25 51 76

25 51 76

25 51 76

25 51 76

25 51 76

25 51 76

25 51 76

25 51 76

25 51 76

25 51 76

25 51 76

25 51 76

25 51 76

25 51 76

25 51 76

25 51 76

25 51 76

25 51 76

25 51 76

25 51 76

25 51 76

25 51 76

25 51 76

25 51 76

25 51 76

25 51 76

25 51 76

25 51 76

25 51 76

25 51 76

25 51 76

25 51 76

25 51 76

25 51 76

25 51 76

25 51 76

25 51 76

25 51 76

25 51 76

25 51 76

25 51 76

25 51 76

25 51 76

25 51 76

25 51 76

25 51 76

25 51 76

25 51 76

25 51 76

25 51 76

25 51 76

25 51 76

25 51 76

25 51 76

25 51 76

25 51 76

25 51 76

25 51 76

25 51 76

25 51 76

25 51 76

25 51 76

25 51 76

25 51 76

25 51 76

25 51 76

25 51 76

25 51 76

25 51 76

25 51 76

25 51 76

25 51 76

25 51 76

25 51 76

25 51 76

25 51 76

25 51 76

25 51 76

25 51 76

25 51 76

25 51 76

25 51 76

25 51 76

25 51 76

25 51 76

25 51 76

25 51 76

25 51 76

25 51 76

25 51 76

25 51 76

25 51 76

25 51 76

25 51 76

25 51 76

25 51 76

25 51 76

25 51 76

25 51 76

25 51 76

25 51 76

25 51 76

25 51 76

25 51 76

25 51 76

25 51 76

25 51 76

25 51 76

25 51 76

25 51 76

25 51 76

25 51 76

25 51 76

25 51 76

25 51 76

25 51 76

25 51 76

25 51 76

25 51 76

25 51 76

25 51 76

25 51 76

25 51 76

25 51 76

25 51 76

25 51 76

25 51 76

25 51 76

25 51 76

25 51 76

25 51 76

25 51 76

25 51 76

25 51 76

25 51 76

25 51 76

25 51 76

25 51 76

25 51 76

25 51 76

25 51 76

25 51 76

25 51 76

25 51 76

25 51 76

25 51 76

25 51 76

25 51 76

25 51 76

25 51 76

25 51 76

25 51 76

25 51 76

25 51 76

25 51 76

25 51 76

25 51 76

25 51 76

25 51 76

25 51 76

25 51 76

25 51 76

25 51 76

25 51 76

25 51 76

25 51 76

25 51 76

25 51 76

25 51 76

25 51 76

25 51 76

25 51 76

25 51 76

25 51 76

25 51 76

25 51 76

25 51 76

25 51 76

25 51 76

25 51 76

25 51 76

25 51 76

25 51 76

25 51 76

25 51 76

25 51 76

25 51 76

25 51 76

25 51 76

25 51 76

25 51 76

25 51 76

25 51 76

25 51 76

25 51 76

25 51 76

25 51 76

25 51 76

25 51 76

25 51 76

25 51 76

25 51 76

25 51 76

25 51 76

25 51 76

25 51 76

25 51 76

25 51 76

25 51 76

25 51 76

25 51 76

25 51 76

25 51 76

25 51 76

25 51 76

25 51 76

25 51 76

25 51 76

25 51 76

25 51 76

25 51 76

25 51 76

25 51 76

25 51 76

25 51 76

25 51 76

25 51 76

25 51 76

25 51 76

25 51 76

25 51 76

25 51 76

25 51 76

25 51 76

25 51 76

25 51 76

25 51 76

25 51 76

25 51 76

25 51 76

25 51 76

25 51 76

25 51 76

25 51 76

25 51 76

25 51 76

25 51 76

25 51 76

25 51 76

25 51 76

25 51 76

25 51 76

25 51 76

25 51 76

25 51 76

25 51 76

25 51 76

25 51 76

25 51 76

25 51 76

25 51 76

25 51 76

25 51 76

25 51 76

25 51 76

25 51 76

25 51 76

25 51 76

25 51 76

25 51 76

25 51 76

25 51 76

25 51 76

25 51 76

25 51 76

25 51 76

25 51 76

25 51 76

25 51 76

25 51 76

25 51 76

25 51 76

25 51 76

25 51 76

25 51 76

25 51 76

25 51 76

25 51 76

25 51 76

25 51 76

25 51 76

25 51 76

25 51 76

25 51 76

25 51 76

25 51 76

25 51 76

25 51 76

25 51 76

25 51 76

25 51 76

25 51 76

25 51 76

25 51 76

25 51 76

25 51 76

25 51 76

25 51 76

25 51 76

25 51 76

25 51 76

25 51 76

25 51 76

25 51 76

25 51 76

25 51 76

25 51 76

25 51 76

25 51 76

25 51 76

25 51 76

25 51 76

25 51 76

25 51 76

25 51 76

25 51 76

25 51 76

25 51 76

25 51 76

25 51 76

25 51 76

25 51 76

25 51 76

25 51 76

25 51 76

25 51 76

25 51 76

25 51 76

25 51 76

25 51 76

25 51 76

25 51 76

25 51 76

25 51 76

25 51 76

25 51 76

25 51 76

25 51 76

25 51 76

25 51 76

25 51 76

25 51 76

25 51 76

25 51 76

25 51 76

25 51 76

25 51 76

25 51 76

25 51 76

25 51 76

25 51 76

25 51 76

25 51 76

25 51 76

25 51 76

25 51 76

25 51 76

25 51 76

25 51 76

25 51 76

25 51 76

25 51 76

25 51 76

25 51 76

25 51 76

25 51 76

25 51 76

25 51 76

25 51 76

25 51 76

25 51 76

25 51 76

25 51 76

25 51 76

25 51 76

25 51 76

25 51 76

25 51 76

25 51 76

25 51 76

25 51 76

25 51 76

25 51 76

25 51 76

25 51 76

25 51 76

25 51 76

25 51 76

25 51 76

25 51 76

25 51 76

25 51 76

25 51 76

25 51 76

25 51 76

25 51 76

25 51 76

25 51 76

25 51 76

25 51 76

25 51 76

25 51 76

25 51 76

25 51 76

25 51 76

25 51 76

25 51 76

25 51 76

25 51 76

25 51 76

25 51 76

25 51 76

25 51 76

25 51 76

25 51 76

25 51 76

25 51 76

25 51 76

25 51 76

25 51 76

25 51 76

25 51 76

25 51 76

25 51 76

25 51 76

25 51 76

25 51 76

25 51 76

25 51 76

25 51 76

25 51 76

25 51 76

25 51 76

25 51 76

25 51 76

25 51 76

25 51 76

25 51 76

25 51 76

25 51 76

25 51 76

25 51 76

25 51 76

25 51 76

25 51 76

25 51 76

25 51 76

25 51 76

25 51 76

25 51 76

25 51 76

25 51 76

25 51 76

25 51 76

25 51 76

25 51 76

25 51 76

25 51 76

25 51 76

25 51 76

25 51 76

25 51 76

25 51 76

25 51 76

25 51 76

25 51 76

25 51 76

25 51 76

25 51 76

25 51 76

25 51 76

25 51 76

25 51 76

25 51 76

25 51 76

25 51 76

25 51 76

25 51 76

25 51 76

25 51 76

25 51 76

25 51 76

25 51 76

25 51 76

25 51 76

25 51 76

25 51 76

25 51 76

25 51 76

25 51 76

25 51 76

25 51 76

25 51 76

25 51 76

25 51 76

25 51 76

25 51 76

25 51 76

25 51 76

25 51 76

25 51 76

25 51 76

25 51 76

25 51 76

25 51 76

25 51 76

25 51 76

25 51 76

25 51 76

25 51 76

25 51 76

25 51 76

25 51 76

25 51 76

25 51 76

25 51 76

25 51 76

25 51 76

25 51 76

25 51 76

25 51 76

25 51 76

25 51 76

25 51 76

25 51 76

25 51 76

25 51 76

25 51 76

25 51 76

25 51 76

25 51 76

25 51 76

25 51 76

25 51 76

25 51 76

25 51 76

25 51 76

25 51 76

25 51 76

25 51 76

25 51 76

25 51 76

25 51 76

25 51 76

25 51 76

25 51 76

25 51 76

25 51 76

25 51 76

25 51 76

25 51 76

25 51 76

25 51 76

25 51 76

25 51 76

25 51 76

25 51 76

25 51 76

25 51 76

25 51 76

25 51 76

25 51 76

25 51 76

25 51 76

25 51 76

25 51 76

25 51 76

25 51 76

25 51 76

25 51 76

25 51 76

25 51 76

25 51 76

25 51 76

25 51 76

25 51 76

25 51 76

25 51 76

25 51 76

25 51 76

25 51 76

25 51 76

25 51 76

25 51 76

25 51 76

25 51 76

25 51 76

25 51 76

25 51 76

25 51 76

25 51 76

25 51 76

25 51 76

25 51 76

25 51 76

25 51 76

25 51 76

25 51 76

25 51 76

25 51 76

25 51 76

25 51 76

25 51 76

25 51 76

25 51 76

25 51 76

25 51 76

25 51 76

25 51 76

25 51 76

25 51 76

25 51 76

25 51 76

25 51 76

25 51 76

25 51 76

25 51 76

25 51 76

25 51 76

25 51 76

25 51 76

25 51 76

25 51 76

25 51 76

25 51 76

25 51 76

25 51 76

25 51 76

25 51 76

25 51 76

25 51 76

25 51 76

25 51 76

25 51 76

25 51 76

25 51 76

25 51 76

25 51 76

25 51 76

25 51 76

25 51 76

25 51 76

25 51 76

25 51 76

25 51 76

25 51 76

25 51 76

25 51 76

25 51 76

25 51 76

25 51 76

25 51 76

25 51 76

25 51 76

25 51 76

25 51 76

25 51 76

25 51 76

25 51 76

25 51 76

25 51 76

25 51 76

25 51 76

25 51 76

25 51 76

25 51 76

25 51 76

25 51 76

25 51 76

25 51 76

25 51 76

25 51 76

25 51 76

25 51 76

25 51 76

25 51 76

25 51 76

25 51 76

25 51 76

25 51 76

25 51 76

25 51 76

25 51 76

25 51 76

25 51 76

25 51 76

25 51 76

25 51 76

25 51 76

25 51 76

25 51 76

25 51 76

25 51 76

25 51 76

25 51 76

25 51 76

25 51 76

25 51 76

25 51 76

25 51 76

25 51 76

25 51 76

25 51 76

25 51 76

25 51 76

25 51 76

25 51 76

25 51 76

25 51 76

25 51 76

25 51 76

25 51 76

25 51 76

25 51 76

25 51 76

25 51 76

25 51 76

25 51 76

25 51 76

25 51 76

25 51 76

25 51 76

25 51 76

25 51 76

25 51 76

25 51 76

25 51 76

25 51 76

25 51 76

25 51 76

25 51 76

25 51 76

25 51 76

25 51 76

25 51 76

25 51 76

25 51 76

25 51 76

25 51 76

25 51 76

25 51 76

25 51 76

25 51 76

25 51 76

25 51 76

25 51 76

25 51 76

25 51 76

25 51 76

25 51 76

25 51 76

25 51 76

25 51 76

25 51 76

25 51 76

25 51 76

25 51 76

25 51 76

25 51 76

25 51 76

25 51 76

25 51 76

25 51 76

25 51 76

25 51 76

25 51 76

25 51 76

25 51 76

25 51 76

25 51 76

25 51 76

25 51 76

25 51 76

25 51 76

25 51 76

25 51 76

25 51 76

25 51 76

25 51 76

25 51 76

25 51 76

25 51 76

25 51 76

25 51 76

25 51 76

25 51 76

25 51 76

25 51 76

25 51 76

25 51 76

25 51 76

25 51 76

25 51 76

25 51 76

25 51 76

25 51 76

25 51 76

25 51 76

25 51 76

25 51 76

25 51 76

25 51 76

25 51 76

25 51 76

25 51 76

25 51 76

25 51 76

25 51 76

25 51 76

25 51 76

25 51 76

25 51 76

25 51 76

25 51 76

25 51 76

25 51 76

25 51 76

25 51 76

25 51 76

25 51 76

25 51 76

25 51 76

25 51 76

25 51 76

25 51 76

25 51 76

25 51 76

25 51 76

25 51 76

25 51 76

25 51 76

25 51 76

25 51 76

25 51 76

25 51 76

25 51 76

25 51 76

25 51 76

25 51 76

25 51 76

25 51 76

25 51 76

25 51 76

25 51 76

25 51 76

25 51 76

25 51 76

25 51 76

25 51 76

25 51 76

25 51 76

25 51 76

25 51 76

25 51 76

25 51 76

25 51 76

25 51 76

25 51 76

25 51 76

25 51 76

25 51 76

25 51 76

25 51 76

25 51 76

25 51 76

25 51 76

25 51 76

25 51 76

25 51 76

25 51 76

25 51 76

25 51 76

25 51 76

25 51 76

25 51 76

25 51 76

25 51 76

25 51 76

25 51 76

25 51 76

25 51 76

25 51 76

25 51 76

25 51 76

25 51 76

25 51 76

25 51 76

25 51 76

25 51 76

25 51 76

25 51 76

25 51 76

25 51 76

25 51 76

25 51 76

25 51 76

25 51 76

25 51 76

25 51 76

25 51 76

25 51 76

25 51 76

25 51 76

25 51 76

25 51 76

25 51 76

25 51 76

25 51 76

25 51 76

25 51 76

25 51 76

25 51 76

25 51 76

25 51 76

25 51 76

25 51 76

25 51 76

25 51 76

25 51 76

25 51 76

25 51 76

25 51 76

25 51 76

25 51 76

25 51 76

25 51 76

25 51 76

25 51 76

25 51 76

25 51 76

25 51 76

25 51 76

25 51 76

25 51 76

25 51 76

25 51 76

25 51 76

25 51 76

25 51 76

25 51 76

25 51 76

25 51 76

25 51 76

25 51 76

25 51 76

25 51 76

25 51 76

25 51 76

25 51 76

25 51 76

25 51 76

25 51 76

25 51 76

25 51 76

25 51 76

25 51 76

25 51 76

25 51 76

25 51 76

25 51 76

25 51 76

25 51 76

25 51 76

25 51 76

25 51 76

25 51 76

25 51 76

25 51 76

25 51 76

25 51 76

25 51 76

25 51 76

25 51 76

25 51 76

25 51 76

25 51 76

25 51 76

25 51 76

25 51 76

25 51 76

25 51 76

25 51 76

25 51 76

25 51 76

25 51 76

25 51 76

25 51 76

25 51 76

25 51 76

25 51 76

25 51 76

25 51 76

25 51 76

25 51 76

25 51 76

25 51 76

25 51 76

25 51 76

25 51 76

25 51 76

25 51 76

25 51 76

25 51 76

25 51 76

25 51 76

25 51 76

25 51 76

25 51 76

25 51 76

25 51 76

25 51 76

25 51 76

25 51 76

25 51 76

25 51 76

25 51 76

25 51 76

25 51 76

25 51 76

25 51 76

25 51 76

25 51 76

25 51 76

25 51 76

25 51 76

25 51 76

25 51 76

25 51 76

25 51 76

25 51 76

25 51 76

25 51 76

25 51 76

25 51 76

25 51 76

25 51 76

25 51 76

25 51 76

25 51 76

25 51 76

25 51 76

25 51 76

25 51 76

25 51 76

25 51 76

25 51 76

25 51 76

25 51 76

25 51 76

25 51 76

25 51 76

25 51 76

25 51 76

25 51 76

25 51 76

25 51 76

25 51 76

25 51 76

25 51 76

25 51 76

25 51 76

25 51 76

25 51 76

25 51 76

25 51 76

25 51 76

25 51 76

25 51 76

25 51 76

25 51 76

25 51 76

25 51 76

25 51 76

25 51 76

25 51 76

25 51 76

25 51 76

25 51 76

25 51 76

25 51 76

25 51 76

25 51 76

25 51 76

25 51 76

25 51 76

25 51 76

25 51 76

25 51 76

25 51 76

25 51 76

25 51 76

25 51 76

25 51 76

25 51 76

25 51 76

25 51 76

25 51 76

25 51 76

25 51 76

25 51 76

25 51 76

25 51 76

25 51 76

25 51 76

25 51 76

25 51 76

25 51 76

25 51 76

25 51 76

25 51 76

25 51 76

25 51 76

25 51 76

25 51 76

25 51 76

25 51 76

25 51 76

25 51 76

25 51 76

25 51 76

25 51 76

25 51 76

25 51 76

25 51 76

25 51 76

25 51 76

25 51 76

25 51 76

25 51 76

25 51 76

25 51 76

25 51 76

25 51 76

25 51 76

25 51 76

25 51 76

25 51 76

25 51 76

25 51 76

25 51 76

25 51 76

25 51 76

25 51 76

25 51 76

25 51 76

25 51 76

25 51 76

25 51 76

25 51 76

25 51 76

25 51 76

25 51 76

25 51 76

25 51 76

25 51 76

25 51 76

25 51 76

25 51 76

25 51 76

25 51 76

25 51 76

25 51 76

25 51 76

25 51 76

25 51 76

25 51 76

25 51 76

25 51 76

25 51 76

25 51 76

25 51 76

25 51 76

25 51 76

25 51 76

25 51 76

25 51 76

25 51 76

25 51 76

25 51 76

25 51 76

25 51 76

25 51 76

25 51 76

25 51 76

25 51 76

25 51 76

25 51 76

25 51 76

25 51 76

25 51 76

25 51 76

25 51 76

25 51 76

25 51 76

25 51 76

25 51 76

25 51 76

25 51 76

25 51 76

25 51 76

25 51 76

25 51 76

25 51 76

25 51 76

25 51 76

25 51 76

25 51 76

25 51 76

25 51 76

25 51 76

25 51 76

25 51 76

25 51 76

25 51 76

25 51 76

25 51 76

25 51 76

25 51 76

25 51 76

25 51 76

25 51 76

25 51 76

25 51 76

25 51 76

25 51 76

25 51 76

25 51 76

25 51 76

25 51 76

25 51 76

25 51 76

25 51 76

25 51 76

25 51 76

25 51 76

25 51 76

25 51 76

25 51 76

25 51 76

25 51 76

25 51 76

25 51 76

25 51 76

25 51 76

25 51 76

25 51 76

25 51 76

25 51 76

25 51 76

25 51 76

25 51 76

25 51 76

25 51 76

25 51 76

25 51 76

25 51 76

25 51 76

25 51 76

25 51 76

25 51 76

25 51 76

25 51 76

25 51 76

25 51 76

25 51 76

25 51 76

25 51 76

25 51 76

25 51 76

25 51 76

25 51 76

25 51 76

25 51 76

25 51 76

25 51 76

25 51 76

25 51 76

25 51 76

25 51 76

25 51 76

25 51 76

25 51 76

25 51 76

25 51 76

25 51 76

25 51 76

25 51 76

25 51 76

25 51 76

25 51 76

25 51 76

25 51 76

25 51 76

25 51 76

25 51 76

25 51 76

25 51 76

25 51 76

25 51 76

25 51 76

25 51 76

25 51 76

25 51 76

25 51 76

25 51 76

25 51 76

25 51 76

25 51 76

25 51 76

25 51 76

25 51 76

25 51 76

25 51 76

25 51 76

25 51 76

25 51 76

25 51 76

25 51 76

25 51 76

25 51 76

25 51 76

25 51 76

25 51 76

25 51 76

25 51 76

25 51 76

25 51 76

25 51 76

25 51 76

25 51 76

25 51 76

25 51 76

25 51 76

25 51 76

25 51 76

25 51 76

25 51 76

25 51 76

25 51 76

25 51 76

25 51 76

25 51 76

25 51 76

25 51 76

25 51 76

25 51 76

25 51 76

25 51 76

25 51 76

25 51 76

25 51 76

25 51 76

25 51 76

25 51 76

25 51 76

25 51 76

25 51 76

25 51 76

25 51 76

25 51 76

25 51 76

25 51 76

25 51 76

25 51 76

25 51 76

25 51 76

25 51 76

25 51 76

25 51 76

25 51 76

25 51 76

25 51 76

25 51 76

25 51 76

25 51 76

25 51 76

25 51 76

25 51 76

25 51 76

25 51 76

25 51 76

25 51 76

25 51 76

25 51 76

25 51 76

25 51 76

25 51 76

25 51 76

25 51 76

25 51 76

25 51 76

25 51 76

25 51 76

25 51 76

25 51 76

25 51 76

25 51 76

25 51 76

25 51 76

25 51 76

25 51 76

25 51 76

25 51 76

25 51 76

25 51 76

25 51 76

25 51 76

25 51 76

25 51 76

25 51 76

25 51 76

25 51 76

25 51 76

25 51 76

25 51 76

25 51 76

25 51 76

25 51 76

25 51 76

25 51 76

25 51 76

25 51 76

25 51 76

25 51 76

25 51 76

25 51 76

25 51 76

25 51 76

25 51 76

25 51 76

25 51 76

25 51 76

25 51 76

25 51 76

25 51 76

25 51 76

25 51 76

25 51 76

25 51 76

25 51 76

25 51 76

25 51 76

25 51 76

25 51 76

25 51 76

25 51 76

25 51 76

25 51 76

25 51 76

25 51 76

25 51 76

25 51 76

25 51 76

25 51 76

25 51 76

25 51 76

25 51 76

25 51 76

25 51 76

25 51 76

25 51 76

25 51 76

25 51 76

25 51 76

25 51 76

25 51 76

25 51 76

25 51 76

25 51 76

25 51 76

25 51 76

25 51 76

25 51 76

25 51 76

25 51 76

25 51 76

25 51 76

25 51 76

25 51 76

25 51 76

25 51 76

25 51 76

25 51 76

25 51 76

25 51 76

25 51 76

25 51 76

25 51 76

25 51 76

25 51 76

25 51 76

25 51 76

25 51 76

25 51 76

25 51 76

25 51 76

25 51 76

25 51 76

25 51 76

25 51 76

25 51 76

25 51 76

25 51 76

25 51 76

25 51 76

25 51 76

25 51 76

25 51 76

25 51 76

25 51 76

25 51 76

25 51 76

25 51 76

25 51 76

25 51 76

25 51 76

25 51 76

25 51 76

25 51 76

25 51 76

25 51 76

25 51 76

25 51 76

25 51 76

25 51 76

25 51 76

25 51 76

25 51 76

25 51 76

25 51 76

25 51 76

25 51 76

25 51 76

25 51 76

25 51 76

25 51 76

25 51 76

25 51 76

25 51 76

25 51 76

25 51 76

25 51 76

25 51 76

25 51 76

25 51 76

25 51 76

25 51 76

25 51 76

25 51 76

25 51 76

25 51 76

25 51 76

25 51 76

25 51 76

25 51 76

25 51 76

25 51 76

25 51 76

25 51 76

25 51 76

25 51 76

25 51 76

25 51 76

25 51 76

25 51 76

25 51 76

25 51 76

25 51 76

25 51 76

25 51 76

25 51 76

25 51 76

25 51 76

25 51 76

25 51 76

25 51 76

25 51 76

25 51 76

25 51 76

25 51 76

25 51 76

25 51 76

25 51 76

25 51 76

25 51 76

25 51 76

25 51 76

25 51 76

25 51 76

25 51 76

25 51 76

25 51 76

25 51 76

25 51 76

25 51 76

25 51 76

25 51 76

25 51 76

25 51 76

25 51 76

25 51 76

25 51 76

25 51 76

25 51 76

25 51 76

25 51 76

25 51 76

25 51 76

25 51 76

25 51 76

25 51 76

25 51 76

25 51 76

25 51 76

25 51 76

25 51 76

25 51 76

25 51 76

25 51 76

25 51 76

25 51 76

25 51 76

25 51 76

25 51 76

25 51 76

25 51 76

25 51 76

25 51 76

25 51 76

25 51 76

25 51 76

25 51 76

25 51 76

25 51 76

25 51 76

25 51 76

25 51 76

25 51 76

25 51 76

25 51 76

25 51 76

25 51 76

25 51 76

25 51 76

25 51 76

25 51 76

25 51 76

25 51 76

25 51 76

25 51 76

25 51 76

25 51 76

25 51 76

25 51 76

25 51 76

25 51 76

25 51 76

25 51 76

25 51 76

25 51 76

25 51 76

25 51 76

25 51 76

25 51 76

25 51 76

25 51 76

25 51 76

25 51 76

25 51 76

25 51 76

25 51 76

25 51 76

25 51 76

25 51 76

25 51 76

25 51 76

25 51 76

25 51 76

25 51 76

25 51 76

25 51 76

25 51 76

25 51 76

25 51 76

25 51 76

25 51 76

25 51 76

25 51 76

25 51 76

25 51 76

25 51 76

25 51 76

25 51 76

25 51 76

25 51 76

25 51 76

25 51 76

25 51 76

25 51 76

25 51 76

25 51 76

25 51 76

25 51 76

25 51 76

25 51 76

25 51 76

25 51 76

25 51 76

25 51 76

25 51 76

25 51 76

25 51 76

25 51 76

25 51 76

25 51 76

25 51 76

25 51 76

25 51 76

25 51 76

25 51 76

25 51 76

25 51 76

25 51 76

25 51 76

25 51 76

25 51 76

25 51 76

25 51 76

25 51 76

25 51 76

25 51 76

25 51 76

25 51 76

25 51 76

25 51 76

25 51 76

25 51 76

25 51 76

25 51 76

25 51 76

25 51 76

25 51 76

25 51 76

25 51 76

25 51 76

25 51 76

25 51 76

25 51 76

25 51 76

25 51 76

25 51 76

25 51 76

25 51 76

25 51 76

25 51 76

25 51 76

25 51 76

25 51 76

25 51 76

25 51 76

25 51 76

25 51 76

25 51 76

25 51 76

25 51 76

25 51 76

25 51 76

25 51 76

25 51 76

25 51 76

25 51 76

25 51 76

25 51 76

25 51 76

25 51 76

25 51 76

25 51 76

25 51 76

25 51 76

25 51 76

25 51 76

25 51 76

25 51 76

25 51 76

25 51 76

25 51 76

25 51 76

25 51 76

25 51 76

25 51 76

25 51 76

25 51 76

25 51 76

25 51 76

25 51 76

25 51 76

25 51 76

25 51 76

25 51 76

25 51 76

25 51 76

25 51 76

25 51 76

25 51 76

25 51 76

25 51 76

25 51 76

25 51 76

25 51 76

25 51 76

25 51 76

25 51 76

25 51 76

25 51 76

25 51 76

25 51 76

25 51 76

25 51 76

25 51 76

25 51 76

25 51 76

25 51 76

25 51 76

25 51 76

25 51 76

25 51 76

25 51 76

25 51 76

25 51 76

25 51 76

25 51 76

25 51 76

25 51 76

25 51 76

25 51 76

25 51 76

25 51 76

25 51 76

25 51 76

25 51 76

25 51 76

25 51 76

25 51 76

25 51 76

25 51 76

25 51 76

25 51 76

25 51 76

25 51 76

25 51 76

25 51 76

25 51 76

25 51 76

25 51 76

25 51 76

25 51 76

25 51 76

25 51 76

25 51 76

25 51 76

25 51 76

25 51 76

25 51 76

25 51 76

25 51 76

25 51 76

25 51 76

25 51 76

25 51 76

25 51 76

25 51 76

25 51 76

25 51 76

25 51 76

25 51 76

25 51 76

25 51 76

25 51 76

25 51 76

25 51 76

25 51 76

25 51 76

25 51 76

25 51 76

25 51 76

25 51 76

25 51 76

25 51 76

25 51 76

25 51 76

25 51 76

25 51 76

25 51 76

25 51 76

25 51 76

25 51 76

25 51 76

25 51 76

25 51 76

25 51 76

25 51 76

25 51 76

25 51 76

25 51 76

25 51 76

25 51 76

25 51 76

25 51 76

25 51 76

25 51 76

25 51 76

25 51 76

25 51 76

25 51 76

25 51 76

25 51 76

25 51 76

25 51 76

25 51 76

25 51 76

25 51 76

25 51 76

25 51 76

25 51 76

25 51 76

25 51 76

25 51 76

25 51 76

25 51 76

25 51 76

25 51 76

25 51 76

25 51 76

25 51 76

25 51 76

25 51 76

25 51 76

25 51 76

25 51 76

25 51 76

25 51 76

25 51 76

25 51 76

25 51 76

25 51 76

25 51 76

25 51 76

25 51 76

25 51 76

25 51 76

25 51 76

25 51 76

25 51 76

25 51 76

25 51 76

25 51 76

25 51 76

25 51 76

25 51 76

25 51 76

25 51 76

25 51 76

25 51 76

25 51 76

25 51 76

25 51 76

25 51 76

25 51 76

25 51 76

25 51 76

25 51 76

25 51 76

25 51 76

25 51 76

25 51 76

25 51 76

25 51 76

25 51 76

25 51 76

25 51 76

25 51 76

25 51 76

25 51 76

25 51 76

25 51 76

25 51 76

25 51 76

25 51 76

25 51 76

25 51 76

25 51 76

25 51 76

25 51 76

25 51 76

25 51 76

25 51 76

25 51 76

25 51 76

25 51 76

25 51 76

25 51 76

25 51 76

25 51 76

25 51 76

25 51 76

25 51 76

25 51 76

25 51 76

25 51 76

25 51 76

25 51 76

25 51 76

25 51 76

25 51 76

25 51 76

25 51 76

25 51 76

25 51 76

25 51 76

25 51 76

25 51 76

25 51 76

25 51 76

25 51 76

25 51 76

25 51 76

25 51 76

25 51 76

25 51 76

25 51 76

25 51 76

25 51 76

25 51 76

25 51 76

25 51 76

25 51 76

25 51 76

25 51 76

25 51 76

25 51 76

25 51 76

25 51 76

25 51 76

25 51 76

25 51 76

25 51 76

25 51 76

25 51 76

25 51 76

25 51 76

25 51 76

25 51 76

25 51 76

25 51 76

25 51 76

25 51 76

25 51 76

25 51 76

25 51 76

25 51 76

25 51 76

25 51 76

25 51 76

25 51 76

25 51 76

25 51 76

25 51 76

25 51 76

25 51 76

25 51 76

25 51 76

25 51 76

25 51 76

25 51 76

25 51 76

25 51 76

25 51 76

25 51 76

25 51 76

25 51 76

25 51 76

25 51 76

25 51 76

25 51 76

25 51 76

25 51 76

25 51 76

25 51 76

25 51 76

25 51 76

25 51 76

25 51 76

25 51 76

25 51 76

25 51 76

25 51 76

25 51 76

25 51 76

25 51 76

25 51 76

25 51 76

25 51 76

25 51 76

25 51 76

25 51 76

25 51 76

25 51 76

25 51 76

25 51 76

25 51 76

25 51 76

25 51 76

25 51 76

25 51 76

25 51 76

25 51 76

25 51 76

25 51 76

25 51 76

25 51 76

25 51 76

25 51 76

25 51 76

25 51 76

25 51 76

25 51 76

25 51 76

25 51 76

25 51 76

25 51 76

25 51 76

25 51 76

25 51 76

25 51 76

25 51 76

25 51 76

25 51 76

25 51 76

25 51 76

25 51 76

25 51 76

25 51 76

25 51 76

25 51 76

25 51 76

25 51 76

25 51 76

25 51 76

25 51 76

25 51 76

25 51 76

25 51 76

25 51 76

25 51 76

25 51 76

25 51 76

25 51 76

25 51 76

25 51 76

25 51 76

25 51 76

25 51 76

25 51 76

25 51 76

25 51 76

25 51 76

25 51 76

25 51 76

25 51 76

25 51 76

25 51 76

25 51 76

25 51 76

25 51 76

25 51 76

25 51 76

25 51 76

25 51 76

25 51 76

25 51 76

25 51 76

25 51 76

25 51 76

25 51 76

25 51 76

25 51 76

25 51 76

25 51 76

25 51 76

25 51 76

25 51 76

25 51 76

25 51 76

25 51 76

25 51 76

25 51 76

25 51 76

25 51 76

25 51 76

25 51 76

25 51 76

25 51 76

25 51 76

25 51 76

25 51 76

25 51 76

25 51 76

25 51 76

25 51 76

25 51 76

25 51 76

25 51 76

25 51 76

25 51 76

25 51 76

25 51 76

25 51 76

25 51 76

25 51 76

25 51 76

25 51 76

25 51 76

25 51 76

25 51 76

25 51 76

25 51 76

25 51 76

25 51 76

25 51 76

25 51 76

25 51 76

25 51 76

25 51 76

25 51 76

25 51 76

25 51 76

25 51 76

25 51 76

25 51 76

25 51 76

25 51 76

25 51 76

25 51 76

25 51 76

25 51 76

25 51 76

25 51 76

25 51 76

25 51 76

25 51 76

25 51 76

25 51 76

25 51 76

25 51 76

25 51 76

25 51 76

25 51 76

25 51 76

25 51 76

25 51 76

25 51 76

25 51 76

25 51 76

25 51 76

25 51 76

25 51 76

25 51 76

25 51 76

25 51 76

25 51 76

25 51 76

25 51 76

25 51 76

25 51 76

25 51 76

25 51 76

25 51 76

25 51 76

25 51 76

25 51 76

25 51 76

25 51 76

25 51 76

25 51 76

25 51 76

25 51 76

25 51 76

25 51 76

25 51 76

25 51 76

25 51 76

25 51 76

25 51 76

25 51 76

25 51 76

25 51 76

25 51 76

25 51 76

25 51 76

25 51 76

25 51 76

25 51 76

25 51 76

25 51 76

25 51 76

25 51 76

25 51 76

25 51 76

25 51 76

25 51 76

25 51 76

25 51 76

25 51 76

25 51 76

25 51 76

25 51 76

25 51 76

25 51 76

25 51 76

25 51 76

25 51 76

25 51 76

25 51 76

25 51 76

25 51 76

25 51 76

25 51 76

25 51 76

25 51 76

25 51 76

25 51 76

25 51 76

25 51 76

25 51 76

25 51 76

25 51 76

25 51 76

25 51 76

25 51 76

25 51 76

25 51 76

25 51 76

25 51 76

25 51 76

25 51 76

25 51 76

25 51 76

25 51 76

25 51 76

25 51 76

25 51 76

25 51 76

25 51 76

25 51 76

25 51 76

25 51 76

25 51 76

25 51 76

25 51 76

25 51 76

25 51 76

25 51 76

25 51 76

25 51 76

25 51 76

25 51 76

25 51 76

25 51 76

25 51 76

25 51 76

25 51 76

25 51 76

25 51 76

25 51 76

25 51 76

25 51 76

25 51 76

25 51 76

25 51 76

25 51 76

25 51 76

25 51 76

25 51 76

25 51 76

25 51 76

25 51 76

25 51 76

25 51 76

25 51 76

25 51 76

25 51 76

25 51 76

25 51 76

25 51 76

25 51 76

25 51 76

25 51 76

25 51 76

25 51 76

25 51 76

25 51 76

25 51 76

25 51 76

25 51 76

25 51 76

25 51 76

25 51 76

25 51 76

25 51 76

25 51 76

25 51 76

25 51 76

25 51 76

25 51 76

25 51 76

25 51 76

25 51 76

25 51 76

25 51 76

25 51 76

25 51 76

25 51 76

25 51 76

25 51 76

25 51 76

25 51 76

25 51 76

25 51 76

25 51 76

25 51 76

25 51 76

25 51 76

25 51 76

25 51 76

25 51 76

25 51 76

25 51 76

25 51 76

25 51 76

25 51 76

25 51 76

25 51 76

25 51 76

25 51 76

25 51 76

25 51 76

25 51 76

25 51 76

25 51 76

25 51 76

25 51 76

25 51 76

25 51 76

25 51 76

25 51 76

25 51 76

25 51 76

25 51 76

25 51 76

25 51 76

25 51 76

25 51 76

25 51 76

25 51 76

25 51 76

25 51 76

25 51 76

25 51 76

25 51 76

25 51 76

25 51 76

25 51 76

25 51 76

25 51 76

25 51 76

25 51 76

25 51 76

25 51 76

25 51 76

25 51 76

25 51 76

25 51 76

25 51 76

25 51 76

25 51 76

25 51 76

25 51 76

25 51 76

25 51 76

25 51 76

25 51 76

25 51 76

25 51 76

25 51 76

25 51 76

25 51 76

25 51 76

25 51 76

25 51 76

25 51 76

25 51 76

25 51 76

25 51 76

25 51 76

25 51 76

25 51 76

25 51 76

25 51 76

25 51 76

25 51 76

25 51 76

25 51 76

25 51 76

25 51 76

25 51 76

25 51 76

25 51 76

25 51 76

25 51 76

25 51 76

25 51 76

25 51 76

25 51 76

25 51 76

25 51 76

25 51 76

25 51 76

25 51 76

25 51 76

25 51 76

25 51 76

25 51 76

25 51 76

25 51 76

25 51 76

25 51 76

25 51 76

25 51 76

25 51 76

25 51 76

25 51 76

25 51 76

25 51 76

25 51 76

25 51 76

25 51 76

25 51 76

25 51 76

25 51 76

25 51 76

25 51 76

25 51 76

25 51 76

25 51 76

25 51 76

25 51 76

25 51 76

25 51 76

25 51 76

25 51 76

25 51 76

25 51 76

25 51 76

25 51 76

25 51 76

25 51 76

25 51 76

25 51 76

25 51 76

25 51 76

25 51 76

25 51 76

25 51 76

25 51 76

25 51 76

25 51 76

25 51 76

25 51 76

25 51 76

25 51 76

25 51 76

25 51 76

25 51 76

25 51 76

25 51 76

25 51 76

25 51 76

25 51 76

25 51 76

25 51 76

25 51 76

25 51 76

25 51 76

25 51 76

25 51 76

25 51 76

25 51 76

25 51 76

25 51 76

25 51 76

25 51 76

25 51 76

25 51 76

25 51 76

25 51 76

25 51 76

25 51 76

25 51 76

25 51 76

25 51 76

25 51 76

25 51 76

25 51 76

25 51 76

25 51 76

25 51 76

25 51 76

25 51 76

25 51 76

25 51 76

25 51 76

25 51 76

25 51 76

25 51 76

25 51 76

25 51 76

25 51 76

25 51 76

25 51 76

25 51 76

25 51 76

25 51 76

25 51 76

25 51 76

25 51 76

25 51 76

25 51 76

25 51 76

25 51 76

25 51 76

25 51 76

25 51 76

25 51 76

25 51 76

25 51 76

25 51 76

25 51 76

25 51 76

25 51 76

25 51 76

25 51 76

25 51 76

25 51 76

25 51 76

25 51 76

25 51 76

25 51 76

25 51 76

25 51 76

25 51 76

25 51 76

25 51 76

25 51 76

25 51 76

25 51 76

25 51 76

25 51 76

25 51 76

25 51 76

25 51 76

25 51 76

25 51 76

25 51 76

25 51 76

25 51 76

25 51 76

25 51 76

25 51 76

25 51 76

25 51 76

25 51 76

25 51 76

25 51 76

25 51 76

25 51 76

25 51 76

25 51 76

25 51 76

25 51 76

25 51 76

25 51 76

25 51 76

25 51 76

25 51 76

25 51 76

25 51 76

25 51 76

25 51 76

25 51 76

25 51 76

25 51 76

25 51 76

25 51 76

25 51 76

25 51 76

25 51 76

25 51 76

25 51 76

25 51 76

25 51 76

25 51 76

25 51 76

25 51 76

25 51 76

25 51 76

25 51 76

25 51 76

25 51 76

25 51 76

25 51 76

25 51 76

25 51 76

25 51 76

25 51 76

25 51 76

25 51 76

25 51 76

25 51 76

25 51 76

25 51 76

25 51 76

25 51 76

25 51 76

25 51 76

25 51 76

25 51 76

25 51 76

25 51 76

25 51 76

25 51 76

25 51 76

25 51 76

25 51 76

25 51 76

25 51 76

25 51 76

25 51 76

25 51 76

25 51 76

25 51 76

25 51 76

25 51 76

25 51 76

25 51 76

25 51 76

25 51 76

25 51 76

25 51 76

25 51 76

25 51 76

25 51 76

25 51 76

25 51 76

25 51 76

25 51 76

25 51 76

25 51 76

25 51 76

25 51 76

25 51 76

25 51 76

25 51 76

25 51 76

25 51 76

25 51 76

25 51 76

25 51 76

25 51 76

25 51 76

25 51 76

25 51 76

25 51 76

25 51 76

25 51 76

25 51 76

25 51 76

25 51 76

25 51 76

25 51 76

25 51 76

25 51 76

25 51 76

25 51 76

25 51 76

25 51 76

25 51 76

25 51 76

25 51 76

25 51 76

25 51 76

25 51 76

25 51 76

25 51 76

25 51 76

25 51 76

25 51 76

25 51 76

25 51 76

25 51 76

25 51 76

25 51 76

25 51 76

25 51 76

25 51 76

25 51 76

25 51 76

25 51 76

25 51 76

25 51 76

25 51 76

25 51 76

25 51 76

25 51 76

25 51 76

25 51 76

25 51 76

25 51 76

25 51 76

25 51 76

25 51 76

25 51 76

25 51 76

25 51 76

25 51 76

25 51 76

25 51 76

25 51 76

25 51 76

25 51 76

25 51 76

25 51 76

25 51 76

25 51 76

25 51 76

25 51 76

25 51 76

25 51 76

25 51 76

25 51 76

25 51 76

25 51 76

25 51 76

25 51 76

25 51 76

25 51 76

25 51 76

25 51 76

25 51 76

25 51 76

25 51 76

25 51 76

25 51 76

25 51 76

25 51 76

25 51 76

25 51 76

25 51 76

25 51 76

25 51 76

25 51 76

25 51 76

25 51 76

25 51 76

25 51 76

25 51 76

25 51 76

25 51 76

25 51 76

25 51 76

25 51 76

25 51 76

25 51 76

25 51 76

25 51 76

25 51 76

25 51 76

25 51 76

25 51 76

25 51 76

25 51 76

25 51 76

25 51 76

25 51 76

25 51 76

25 51 76

25 51 76

25 51 76

25 51 76

25 51 76

25 51 76

25 51 76

25 51 76

25 51 76

25 51 76

25 51 76

25 51 76

25 51 76

25 51 76

25 51 76

25 51 76

25 51 76

25 51 76

25 51 76

25 51 76

25 51 76

25 51 76

25 51 76

25 51 76

25 51 76

25 51 76

25 51 76

25 51 76

25 51 76

25 51 76

25 51 76

25 51 76

25 51 76

25 51 76

25 51 76

25 51 76

25 51 76

25 51 76

25 51 76

25 51 76

25 51 76

25 51 76

25 51 76

25 51 76

25 51 76

25 51 76

25 51 76

25 51 76

25 51 76

25 51 76

25 51 76

25 51 76

25 51 76

25 51 76

25 51 76

25 51 76

25 51 76

25 51 76

25 51 76

25 51 76

25 51 76

25 51 76

25 51 76

25 51 76

25 51 76

25 51 76

25 51 76

25 51 76

25 51 76

25 51 76

25 51 76

25 51 76

25 51 76

25 51 76

25 51 76

25 51 76

25 51 76

25 51 76

25 51 76

25 51 76

25 51 76

25 51 76

25 51 76

25 51 76

25 51 76

25 51 76

25 51 76

25 51 76

25 51 76

25 51 76

25 51 76

25 51 76

25 51 76

25 51 76

25 51 76

25 51 76

25 51 76

25 51 76

25 51 76

25 51 76

25 51 76

25 51 76

25 51 76

25 51 76

25 51 76

25 51 76

25 51 76

25 51 76

25 51 76

25 51 76

25 51 76

25 51 76

25 51 76

25 51 76

25 51 76

25 51 76

25 51 76

25 51 76

25 51 76

25 51 76

25 51 76

25 51 76

25 51 76

25 51 76

25 51 76

25 51 76

25 51 76

25 51 76

25 51 76

25 51 76

25 51 76

25 51 76

25 51 76

25 51 76

25 51 76

25 51 76

25 51 76

25 51 76

25 51 76

25 51 76

25 51 76

25 51 76

25 51 76

25 51 76

25 51 76

25 51 76

25 51 76

25 51 76

25 51 76

25 51 76

25 51 76

25 51 76

25 51 76

25 51 76

25 51 76

25 51 76

25 51 76

25 51 76

25 51 76

25 51 76

25 51 76

25 51 76

25 51 76

25 51 76

25 51 76

25 51 76

25 51 76

25 51 76

25 51 76

25 51 76

25 51 76

25 51 76

25 51 76

25 51 76

25 51 76

25 51 76

25 51 76

25 51 76

25 51 76

25 51 76

25 51 76

25 51 76

25 51 76

25 51 76

25 51 76

25 51 76

25 51 76

25 51 76

25 51 76

25 51 76

25 51 76

25 51 76

25 51 76

25 51 76

25 51 76

25 51 76

25 51 76

25 51 76

25 51 76

25 51 76

25 51 76

25 51 76

25 51 76

25 51 76

25 51 76

25 51 76

25 51 76

25 51 76

25 51 76

25 51 76

25 51 76

25 51 76

25 51 76

25 51 76

25 51 76

25 51 76

25 51 76

25 51 76

25 51 76

25 51 76

25 51 76

25 51 76

25 51 76

25 51 76

25 51 76

25 51 76

25 51 76

25 51 76

25 51 76

25 51 76

25 51 76

25 51 76

25 51 76

25 51 76

25 51 76

25 51 76

25 51 76

25 51 76

25 51 76

25 51 76

25 51 76

25 51 76

25 51 76

25 51 76

25 51 76

25 51 76

25 51 76

25 51 76

25 51 76

25 51 76

25 51 76

25 51 76

25 51 76

25 51 76

25 51 76

25 51 76

25 51 76

25 51 76

25 51 76

25 51 76

25 51 76

25 51 76

25 51 76

25 51 76

25 51 76

25 51 76

25 51 76

25 51 76

25 51 76

25 51 76

25 51 76

25 51 76

25 51 76

25 51 76

25 51 76

25 51 76

25 51 76

25 51 76

25 51 76

25 51 76

25 51 76

25 51 76

25 51 76

25 51 76

25 51 76

25 51 76

25 51 76

25 51 76

25 51 76

25 51 76

25 51 76

25 51 76

25 51 76

25 51 76

25 51 76

25 51 76

25 51 76

25 51 76

25 51 76

25 51 76

25 51 76

25 51 76

25 51 76

25 51 76

25 51 76

25 51 76

25 51 76

25 51 76

25 51 76

25 51 76

25 51 76

25 51 76

25 51 76

25 51 76

25 51 76

25 51 76

25 51 76

25 51 76

25 51 76

25 51 76

25 51 76

25 51 76

25 51 76

25 51 76

25 51 76

25 51 76

25 51 76

25 51 76

25 51 76

25 51 76

25 51 76

25 51 76

25 51 76

25 51 76

25 51 76

25 51 76

25 51 76

25 51 76

25 51 76

25 51 76

25 51 76

25 51 76

25 51 76

25 51 76

25 51 76

25 51 76

25 51 76

25 51 76

25 51 76

25 51 76

25 51 76

25 51 76

25 51 76

25 51 76

25 51 76

25 51 76

25 51 76

25 51 76

25 51 76

25 51 76

25 51 76

25 51 76

25 51 76

25 51 76

25 51 76

25 51 76

25 51 76

25 51 76

25 51 76

25 51 76

25 51 76

25 51 76

25 51 76

25 51 76

25 51 76

25 51 76

25 51 76

25 51 76

25 51 76

25 51 76

25 51 76

25 51 76

25 51 76

25 51 76

25 51 76

25 51 76

25 51 76

25 51 76

25 51 76

25 51 76

25 51 76

25 51 76

25 51 76

25 51 76

25 51 76

25 51 76

25 51 76

25 51 76

25 51 76

25 51 76

25 51 76

25 51 76

25 51 76

25 51 76

25 51 76

25 51 76

25 51 76

25 51 76

25 51 76

25 51 76

25 51 76

25 51 76

25 51 76

25 51 76

25 51 76

25 51 76

25 51 76

25 51 76

25 51 76

25 51 76

25 51 76

25 51 76

25 51 76

25 51 76

25 51 76

25 51 76

25 51 76

25 51 76

25 51 76

25 51 76

25 51 76

25 51 76

25 51 76

25 51 76

25 51 76

25 51 76

25 51 76

25 51 76

25 51 76

25 51 76

25 51 76

25 51 76

25 51 76

25 51 76

25 51 76

25 51 76

25 51 76

25 51 76

25 51 76

25 51 76

25 51 76

25 51 76

25 51 76

25 51 76

25 51 76

25 51 76

25 51 76

25 51 76

25 51 76

25 51 76

25 51 76

25 51 76

25 51 76

25 51 76

25 51 76

25 51 76

25 51 76

25 51 76

25 51 76

25 51 76

25 51 76

25 51 76

25 51 76

25 51 76

25 51 76

25 51 76

25 51 76

25 51 76

25 51 76

25 51 76

25 51 76

25 51 76

25 51 76

25 51 76

25 51 76

25 51 76

25 51 76

25 51 76

25 51 76

25 51 76

25 51 76

25 51 76

25 51 76

25 51 76

25 51 76

25 51 76

25 51 76

25 51 76

25 51 76

25 51 76

25 51 76

25 51 76

25 51 76

25 51 76

25 51 76

25 51 76

25 51 76

25 51 76

25 51 76

25 51 76

25 51 76

25 51 76

25 51 76

25 51 76

25 51 76

25 51 76

25 51 76

25 51 76

25 51 76

25 51 76

25 51 76

25 51 76

25 51 76

25 51 76

25 51 76

25 51 76

25 51 76

25 51 76

25 51 76

25 51 76

25 51 76

25 51 76

25 51 76

25 51 76

25 51 76

25 51 76

25 51 76

25 51 76

25 51 76

25 51 76

25 51 76

25 51 76

25 51 76

25 51 76

25 51 76

25 51 76

25 51 76

25 51 76

25 51 76

25 51 76

25 51 76

25 51 76

25 51 76

25 51 76

25 51 76

25 51 76

25 51 76

25 51 76

25 51 76

25 51 76

25 51 76

25 51 76

25 51 76

25 51 76

25 51 76

25 51 76

25 51 76

25 51 76

25 51 76

25 51 76

25 51 76

25 51 76

25 51 76

25 51 76

25 51 76

25 51 76

25 51 76

25 51 76

25 51 76

25 51 76

25 51 76

25 51 76

25 51 76

25 51 76

25 51 76

25 51 76

25 51 76

25 51 76

25 51 76

25 51 76

25 51 76

25 51 76

25 51 76

25 51 76

25 51 76

25 51 76

25 51 76

25 51 76

25 51 76

25 51 76

25 51 76

25 51 76

25 51 76

25 51 76

25 51 76

25 51 76

25 51 76

25 51 76

25 51 76

25 51 76

25 51 76

25 51 76

25 51 76

25 51 76

25 51 76

25 51 76

25 51 76

25 51 76

25 51 76

25 51 76

25 51 76

25 51 76

25 51 76

25 51 76

25 51 76

25 51 76

25 51 76

25 51 76

25 51 76

25 51 76

25 51 76

25 51 76

25 51 76

25 51 76

25 51 76

25 51 76

25 51 76

25 51 76

25 51 76

25 51 76

25 51 76

25 51 76

25 51 76

25 51 76

25 51 76

25 51 76

25 51 76

25 51 76

25 51 76

25 51 76

25 51 76

25 51 76

25 51 76

25 51 76

25 51 76

25 51 76

25 51 76

25 51 76

25 51 76

25 51 76

25 51 76

25 51 76

25 51 76

25 51 76

25 51 76

25 51 76

25 51 76

25 51 76

25 51 76

25 51 76

25 51 76

25 51 76

25 51 76

25 51 76

25 51 76

25 51 76

25 51 76

25 51 76

25 51 76

25 51 76

25 51 76

25 51 76

25 51 76

25 51 76

25 51 76

25 51 76

25 51 76

25 51 76

25 51 76

25 51 76

25 51 76

25 51 76

25 51 76

25 51 76

25 51 76

25 51 76

25 51 76

25 51 76

25 51 76

25 51 76

25 51 76

25 51 76

25 51 76

25 51 76

25 51 76

25 51 76

25 51 76

25 51 76

25 51 76

25 51 76

25 51 76

25 51 76

25 51 76

25 51 76

25 51 76

25 51 76

25 51 76

25 51 76

25 51 76

25 51 76

25 51 76

25 51 76

25 51 76

25 51 76

25 51 76

25 51 76

25 51 76

25 51 76

25 51 76

25 51 76

25 51 76

25 51 76

25 51 76

25 51 76

25 51 76

25 51 76

25 51 76

25 51 76

25 51 76

25 51 76

25 51 76

25 51 76

25 51 76

25 51 76

25 51 76

25 51 76

25 51 76

25 51 76

25 51 76

25 51 76

25 51 76

25 51 76

25 51 76

25 51 76

25 51 76

25 51 76

25 51 76

25 51 76

25 51 76

25 51 76

25 51 76

25 51 76

25 51 76

25 51 76

25 51 76

25 51 76

25 51 76

25 51 76

25 51 76

25 51 76

25 51 76

25 51 76

25 51 76

25 51 76

25 51 76

25 51 76

25 51 76

25 51 76

25 51 76

25 51 76

25 51 76

25 51 76

25 51 76

25 51 76

25 51 76

25 51 76

25 51 76

25 51 76

25 51 76

25 51 76

25 51 76

25 51 76

25 51 76

25 51 76

25 51 76

25 51 76

25 51 76

25 51 76

25 51 76

25 51 76

25 51 76

25 51 76

25 51 76

25 51 76

25 51 76

25 51 76

25 51 76

25 51 76

25 51 76

25 51 76

25 51 76

25 51 76

25 51 76

25 51 76

25 51 76

25 51 76

25 51 76

25 51 76

25 51 76

25 51 76

25 51 76

25 51 76

25 51 76

25 51 76

25 51 76

25 51 76

25 51 76

25 51 76

25 51 76

25 51 76

25 51 76

25 51 76

25 51 76

25 51 76

25 51 76

25 51 76

25 51 76

25 51 76

25 51 76

25 51 76

25 51 76

25 51 76

25 51 76

25 51 76

25 51 76

25 51 76

25 51 76

25 51 76

25 51 76

25 51 76

25 51 76

25 51 76

25 51 76

25 51 76

25 51 76

25 51 76

25 51 76

25 51 76

25 51 76

25 51 76

25 51 76

25 51 76

25 51 76

25 51 76

25 51 76

25 51 76

25 51 76

25 51 76

25 51 76

25 51 76

25 51 76

25 51 76

25 51 76

25 51 76

25 51 76

25 51 76

25 51 76

25 51 76

25 51 76

25 51 76

25 51 76

25 51 76

25 51 76

25 51 76

25 51 76

25 51 76

25 51 76

25 51 76

25 51 76

25 51 76

25 51 76

25 51 76

25 51 76

25 51 76

25 51 76

25 51 76

25 51 76

25 51 76

25 51 76

25 51 76

25 51 76

25 51 76

25 51 76

25 51 76

25 51 76

25 51 76

25 51 76

25 51 76

25 51 76

25 51 76

25 51 76

25 51 76

25 51 76

25 51 76

25 51 76

25 51 76

25 51 76

25 51 76

25 51 76

25 51 76

25 51 76

25 51 76

25 51 76

25 51 76

25 51 76

25 51 76

25 51 76

25 51 76

25 51 76

25 51 76

25 51 76

25 51 76

25 51 76

25 51 76

25 51 76

25 51 76

25 51 76

25 51 76

25 51 76

25 51 76

25 51 76

25 51 76

25 51 76

25 51 76

25 51 76

25 51 76

25 51 76

25 51 76

25 51 76

25 51 76

25 51 76

25 51 76

25 51 76

25 51 76

25 51 76

25 51 76

25 51 76

25 51 76

25 51 76

25 51 76

25 51 76

25 51 76

25 51 76

25 51 76

25 51 76

25 51 76

25 51 76

25 51 76

25 51 76

25 51 76

25 51 76

25 51 76

25 51 76

25 51 76

25 51 76

25 51 76

25 51 76

25 51 76

25 51 76

25 51 76

25 51 76

25 51 76

25 51 76

25 51 76

25 51 76

25 51 76

25 51 76

25 51 76

25 51 76

25 51 76

25 51 76

25 51 76

25 51 76

25 51 76

25 51 76

25 51 76

25 51 76

25 51 76

25 51 76

25 51 76

25 51 76

25 51 76

25 51 76

25 51 76

25 51 76

25 51 76

25 51 76

25 51 76

25 51 76

25 51 76

25 51 76

25 51 76

25 51 76

25 51 76

25 51 76

25 51 76

25 51 76

25 51 76

25 51 76

25 51 76

25 51 76

25 51 76

25 51 76

25 51 76

25 51 76

25 51 76

25 51 76

25 51 76

25 51 76

25 51 76

25 51 76

25 51 76

25 51 76

25 51 76

25 51 76

25 51 76

25 51 76

25 51 76

25 51 76

25 51 76

25 51 76

25 51 76

25 51 76

25 51 76

25 51 76

25 51 76

25 51 76

25 51 76

25 51 76

25 51 76

25 51 76

25 51 76

25 51 76

25 51 76

25 51 76

25 51 76

25 51 76

25 51 76

25 51 76

25 51 76

25 51 76

25 51 76

25 51 76

25 51 76

25 51 76

25 51 76

25 51 76

25 51 76

25 51 76

25 51 76

25 51 76

25 51 76

25 51 76

25 51 76

25 51 76

25 51 76

25 51 76

25 51 76

25 51 76

25 51 76

25 51 76

25 51 76

25 51 76

25 51 76

25 51 76

25 51 76

25 51 76

25 51 76

25 51 76

25 51 76

25 51 76

25 51 76

25 51 76

25 51 76

25 51 76

25 51 76

25 51 76

25 51 76

25 51 76

25 51 76

25 51 76

25 51 76

25 51 76

25 51 76

25 51 76

25 51 76

25 51 76

25 51 76

25 51 76

25 51 76

25 51 76

25 51 76

25 51 76

25 51 76

25 51 76

25 51 76

25 51 76

25 51 76

25 51 76

25 51 76

25 51 76

25 51 76

25 51 76

25 51 76

25 51 76

25 51 76

25 51 76

25 51 76

25 51 76

25 51 76

25 51 76

25 51 76

25 51 76

25 51 76

25 51 76

25 51 76

25 51 76

25 51 76

25 51 76

25 51 76

25 51 76

25 51 76

25 51 76

25 51 76

25 51 76

25 51 76

25 51 76

25 51 76

25 51 76

25 51 76

25 51 76

25 51 76

25 51 76

25 51 76

25 51 76

25 51 76

25 51 76

25 51 76

25 51 76

25 51 76

25 51 76

25 51 76

25 51 76

25 51 76

25 51 76

25 51 76

25 51 76

25 51 76

25 51 76

25 51 76

25 51 76

25 51 76

25 51 76

25 51 76

25 51 76

25 51 76

25 51 76

25 51 76

25 51 76

25 51 76

25 51 76

25 51 76

25 51 76

25 51 76

25 51 76

25 51 76

25 51 76

25 51 76

25 51 76

25 51 76

25 51 76

25 51 76

25 51 76

25 51 76

25 51 76

25 51 76

25 51 76

25 51 76

25 51 76

25 51 76

25 51 76

25 51 76

25 51 76

25 51 76

25 51 76

25 51 76

25 51 76

25 51 76

25 51 76

25 51 76

25 51 76

25 51 76

25 51 76

25 51 76

25 51 76

25 51 76

25 51 76

25 51 76

25 51 76

25 51 76

25 51 76

25 51 76

25 51 76

25 51 76

25 51 76

25 51 76

25 51 76

25 51 76

25 51 76

25 51 76

25 51 76

25 51 76

25 51 76

25 51 76

25 51 76

25 51 76

25 51 76

25 51 76

25 51 76

25 51 76

25 51 76

25 51 76

25 51 76

25 51 76

25 51 76

25 51 76

25 51 76

25 51 76

25 51 76

25 51 76

25 51 76

25 51 76

25 51 76

25 51 76

25 51 76

25 51 76

25 51 76

25 51 76

25 51 76

25 51 76

25 51 76

25 51 76

25 51 76

25 51 76

25 51 76

25 51 76

25 51 76

25 51 76

25 51 76

25 51 76

25 51 76

25 51 76

25 51 76

25 51 76

25 51 76

25 51 76

25 51 76

25 51 76

25 51 76

25 51 76

25 51 76

25 51 76

25 51 76

25 51 76

25 51 76

25 51 76

25 51 76

25 51 76

25 51 76

25 51 76

25 51 76

25 51 76

25 51 76

25 51 76

25 51 76

25 51 76

25 51 76

25 51 76

25 51 76

25 51 76

25 51 76

25 51 76

25 51 76

25 51 76

25 51 76

25 51 76

25 51 76

25 51 76

25 51 76

25 51 76

25 51 76

25 51 76

25 51 76

25 51 76

25 51 76

25 51 76

25 51 76

25 51 76

25 51 76

25 51 76

25 51 76

25 51 76

25 51 76

25 51 76

25 51 76

25 51 76

25 51 76

25 51 76

25 51 76

25 51 76

25 51 76

25 51 76

25 51 76

25 51 76

25 51 76

25 51 76

25 51 76

25 51 76

25 51 76

25 51 76

25 51 76

25 51 76

25 51 76

25 51 76

25 51 76

25 51 76

25 51 76

25 51 76

25 51 76

25 51 76

25 51 76

25 51 76

25 51 76

25 51 76

25 51 76

25 51 76

25 51 76

25 51 76

25 51 76

25 51 76

25 51 76

25 51 76

25 51 76

25 51 76

25 51 76

25 51 76

25 51 76

25 51 76

25 51 76

25 51 76

25 51 76

25 51 76

25 51 76

25 51 76

25 51 76

25 51 76

25 51 76

25 51 76

25 51 76

25 51 76

25 51 76

25 51 76

25 51 76

25 51 76

25 51 76

25 51 76

25 51 76

25 51 76

25 51 76

25 51 76

25 51 76

25 51 76

25 51 76

25 51 76

25 51 76

25 51 76

25 51 76

25 51 76

25 51 76

25 51 76

25 51 76

25 51 76

25 51 76

25 51 76

25 51 76

25 51 76

25 51 76

25 51 76

25 51 76

25 51 76

25 51 76

25 51 76

25 51 76

25 51 76

25 51 76

25 51 76

25 51 76

25 51 76

25 51 76

25 51 76

25 51 76

25 51 76

25 51 76

25 51 76

25 51 76

25 51 76

25 51 76

25 51 76

25 51 76

25 51 76

25 51 76

25 51 76

25 51 76

25 51 76

25 51 76

25 51 76

25 51 76

25 51 76

25 51 76

25 51 76

25 51 76

25 51 76

25 51 76

25 51 76

25 51 76

25 51 76

25 51 76

25 51 76

25 51 76

25 51 76

25 51 76

25 51 76

25 51 76

25 51 76

25 51 76

25 51 76

25 51 76

25 51 76

25 51 76

25 51 76

25 51 76

25 51 76

25 51 76

25 51 76

25 51 76

25 51 76

25 51 76

25 51 76

25 51 76

25 51 76

25 51 76

25 51 76

25 51 76

25 51 76

25 51 76

25 51 76

25 51 76

25 51 76

25 51 76

25 51 76

25 51 76

25 51 76

25 51 76

25 51 76

25 51 76

25 51 76

25 51 76

25 51 76

25 51 76

25 51 76

25 51 76

25 51 76

25 51 76

25 51 76

25 51 76

25 51 76

25 51 76

25 51 76

25 51 76

25 51 76

25 51 76

25 51 76

25 51 76

25 51 76

25 51 76

25 51 76

25 51 76

25 51 76

25 51 76

25 51 76

25 51 76

25 51 76

25 51 76

25 51 76

25 51 76

25 51 76

25 51 76

25 51 76

25 51 76

25 51 76

25 51 76

25 51 76

25 51 76

25 51 76

25 51 76

25 51 76

25 51 76

25 51 76

25 51 76

25 51 76

25 51 76

25 51 76

25 51 76

25 51 76

25 51 76

25 51 76

25 51 76

25 51 76

25 51 76

25 51 76

25 51 76

25 51 76

25 51 76

25 51 76

25 51 76

25 51 76

25 51 76

25 51 76

25 51 76

25 51 76

25 51 76

25 51 76

25 51 76

25 51 76

25 51 76

25 51 76

25 51 76

25 51 76

25 51 76

25 51 76

25 51 76

25 51 76

25 51 76

25 51 76

25 51 76

25 51 76

25 51 76

25 51 76

25 51 76

25 51 76

25 51 76

25 51 76

25 51 76

25 51 76

25 51 76

25 51 76

25 51 76

25 51 76

25 51 76

25 51 76

25 51 76

25 51 76

25 51 76

25 51 76

25 51 76

25 51 76

25 51 76

25 51 76

25 51 76

25 51 76

25 51 76

25 51 76

25 51 76

25 51 76

25 51 76

25 51 76

25 51 76

25 51 76

25 51 76

25 51 76

25 51 76

25 51 76

25 51 76

25 51 76

25 51 76

25 51 76

25 51 76

25 51 76

25 51 76

25 51 76

25 51 76

25 51 76

25 51 76

25 51 76

25 51 76

25 51 76

25 51 76

25 51 76

25 51 76

25 51 76

25 51 76

25 51 76

25 51 76

25 51 76

25 51 76

25 51 76

25 51 76

25 51 76

25 51 76

25 51 76

25 51 76

25 51 76

25 51 76

25 51 76

25 51 76

25 51 76

25 51 76

25 51 76

25 51 76

25 51 76

25 51 76

25 51 76

25 51 76

25 51 76

25 51 76

25 51 76

25 51 76

25 51 76

25 51 76

25 51 76

25 51 76

25 51 76

25 51 76

25 51 76

25 51 76

25 51 76

25 51 76

25 51 76

25 51 76

25 51 76

25 51 76

25 51 76

25 51 76

25 51 76

25 51 76

25 51 76

25 51 76

25 51 76

25 51 76

25 51 76

25 51 76

25 51 76

25 51 76

25 51 76

25 51 76

25 51 76

25 51 76

25 51 76

25 51 76

25 51 76

25 51 76

25 51 76

25 51 76

25 51 76

25 51 76

25 51 76

25 51 76

25 51 76

25 51 76

25 51 76

25 51 76

25 51 76

25 51 76

25 51 76

25 51 76

25 51 76

25 51 76

25 51 76

25 51 76

25 51 76

25 51 76

25 51 76

25 51 76

25 51 76

25 51 76

25 51 76

25 51 76

25 51 76

25 51 76

25 51 76

25 51 76

25 51 76

25 51 76

25 51 76

25 51 76

25 51 76

25 51 76

25 51 76

25 51 76

25 51 76

25 51 76

25 51 76

25 51 76

25 51 76

25 51 76

25 51 76

25 51 76

25 51 76

25 51 76

25 51 76

25 51 76

25 51 76

25 51 76

25 51 76

25 51 76

25 51 76

25 51 76

25 51 76

25 51 76

25 51 76

25 51 76

25 51 76

25 51 76

25 51 76

25 51 76

25 51 76

25 51 76

25 51 76

25 51 76

25 51 76

25 51 76

25 51 76

25 51 76

25 51 76

25 51 76

25 51 76

25 51 76

25 51 76

25 51 76

25 51 76

25 51 76

25 51 76

25 51 76

25 51 76

25 51 76

25 51 76

25 51 76

25 51 76

25 51 76

25 51 76

25 51 76

25 51 76

25 51 76

25 51 76

25 51 76

25 51 76

25 51 76

25 51 76

25 51 76

25 51 76

25 51 76

25 51 76

25 51 76

25 51 76

25 51 76

25 51 76

25 51 76

25 51 76

25 51 76

25 51 76

25 51 76

25 51 76

25 51 76

25 51 76

25 51 76

25 51 76

25 51 76

25 51 76

25 51 76

25 51 76

25 51 76

25 51 76

25 51 76

25 51 76

25 51 76

25 51 76

25 51 76

25 51 76

25 51 76

25 51 76

25 51 76

25 51 76

25 51 76

25 51 76

25 51 76

25 51 76

25 51 76

25 51 76

25 51 76

25 51 76

25 51 76

25 51 76

25 51 76

25 51 76

25 51 76

25 51 76

25 51 76

25 51 76

25 51 76

25 51 76

25 51 76

25 51 76

25 51 76

25 51 76

25 51 76

25 51 76

25 51 76

25 51 76

25 51 76

25 51 76

25 51 76

25 51 76

25 51 76

25 51 76

25 51 76

25 51 76

25 51 76

25 51 76

25 51 76

25 51 76

25 51 76

25 51 76

25 51 76

25 51 76

25 51 76

25 51 76

25 51 76

25 51 76

25 51 76

25 51 76

25 51 76

25 51 76

25 51 76

25 51 76

25 51 76

25 51 76

25 51 76

25 51 76

25 51 76

25 51 76

25 51 76

25 51 76

25 51 76

25 51 76

25 51 76

25 51 76

25 51 76

25 51 76

25 51 76

25 51 76

25 51 76

25 51 76

25 51 76

25 51 76

25 51 76

25 51 76

25 51 76

25 51 76

25 51 76

25 51 76

25 51 76

25 51 76

25 51 76

25 51 76

25 51 76

25 51 76

25 51 76

25 51 76

25 51 76

25 51 76

25 51 76

25 51 76

25 51 76

25 51 76

25 51 76

25 51 76

25 51 76

25 51 76

25 51 76

25 51 76

25 51 76

25 51 76

25 51 76

25 51 76

25 51 76

25 51 76

25 51 76

25 51 76

25 51 76

25 51 76

25 51 76

25 51 76

25 51 76

25 51 76

25 51 76

25 51 76

25 51 76

25 51 76

25 51 76

25 51 76

25 51 76

25 51 76

25 51 76

25 51 76

25 51 76

25 51 76

25 51 76

25 51 76

25 51 76

25 51 76

25 51 76

25 51 76

25 51 76

25 51 76

25 51 76

25 51 76

25 51 76

25 51 76

25 51 76

25 51 76

25 51 76

25 51 76

25 51 76

25 51 76

25 51 76

25 51 76

25 51 76

25 51 76

25 51 76

25 51 76

25 51 76

25 51 76

25 51 76

25 51 76

25 51 76

25 51 76

25 51 76

25 51 76

25 51 76

25 51 76

25 51 76

25 51 76

25 51 76

25 51 76

25 51 76

25 51 76

25 51 76

25 51 76

25 51 76

25 51 76

25 51 76

25 51 76

25 51 76

25 51 76

25 51 76

25 51 76

25 51 76

25 51 76

25 51 76

25 51 76

25 51 76

25 51 76

25 51 76

25 51 76

25 51 76

25 51 76

25 51 76

25 51 76

25 51 76

25 51 76

25 51 76

25 51 76

25 51 76

25 51 76

25 51 76

25 51 76

25 51 76

25 51 76

25 51 76

25 51 76

25 51 76

25 51 76

25 51 76

25 51 76

25 51 76

25 51 76

25 51 76

25 51 76

25 51 76

25 51 76

25 51 76

25 51 76

25 51 76

25 51 76

25 51 76

25 51 76

25 51 76

25 51 76

25 51 76

25 51 76

25 51 76

25 51 76

25 51 76

25 51 76

25 51 76

25 51 76

25 51 76

25 51 76

25 51 76

25 51 76

25 51 76

25 51 76

25 51 76

25 51 76

25 51 76

25 51 76

25 51 76

25 51 76

25 51 76

25 51 76

25 51 76

25 51 76

25 51 76

25 51 76

25 51 76

25 51 76

25 51 76

25 51 76

25 51 76

25 51 76

25 51 76

25 51 76

25 51 76

25 51 76

25 51 76

25 51 76

25 51 76

25 51 76

25 51 76

25 51 76

25 51 76

25 51 76

25 51 76

25 51 76

25 51 76

25 51 76

25 51 76

25 51 76

25 51 76

25 51 76

25 51 76

25 51 76

25 51 76

25 51 76

25 51 76

25 51 76

25 51 76

25 51 76

25 51 76

25 51 76

25 51 76

25 51 76

25 51 76

25 51 76

25 51 76

25 51 76

25 51 76

25 51 76

25 51 76

25 51 76

25 51 76

25 51 76

25 51 76

25 51 76

25 51 76

25 51 76

25 51 76

25 51 76

25 51 76

25 51 76

25 51 76

25 51 76

25 51 76

25 51 76

25 51 76

25 51 76

25 51 76

25 51 76

25 51 76

25 51 76

25 51 76

25 51 76

25 51 76

25 51 76

25 51 76

25 51 76

25 51 76

25 51 76

25 51 76

25 51 76

25 51 76

25 51 76

25 51 76

25 51 76

25 51 76

25 51 76

25 51 76

25 51 76

25 51 76

25 51 76

25 51 76

25 51 76

25 51 76

25 51 76

25 51 76

25 51 76

25 51 76

25 51 76

25 51 76

25 51 76

25 51 76

25 51 76

25 51 76

25 51 76

25 51 76

25 51 76

25 51 76

25 51 76

25 51 76

25 51 76

25 51 76

25 51 76

25 51 76

25 51 76

25 51 76

25 51 76

25 51 76

25 51 76

25 51 76

25 51 76

25 51 76

25 51 76

25 51 76

25 51 76

25 51 76

25 51 76

25 51 76

25 51 76

25 51 76

25 51 76

25 51 76

25 51 76

25 51 76

25 51 76

25 51 76

25 51 76

25 51 76

25 51 76

25 51 76

25 51 76

25 51 76

25 51 76

25 51 76

25 51 76

25 51 76

25 51 76

25 51 76

25 51 76

25 51 76

25 51 76

25 51 76

25 51 76

25 51 76

25 51 76

25 51 76

25 51 76

25 51 76

25 51 76

25 51 76

25 51 76

25 51 76

25 51 76

25 51 76

25 51 76

25 51 76

25 51 76

25 51 76

25 51 76

25 51 76

25 51 76

25 51 76

25 51 76

25 51 76

25 51 76

25 51 76

25 51 76

25 51 76

25 51 76

25 51 76

25 51 76

25 51 76

25 51 76

25 51 76

25 51 76

25 51 76

25 51 76

25 51 76

25 51 76

25 51 76

25 51 76

25 51 76

25 51 76

25 51 76

25 51 76

25 51 76

25 51 76

25 51 76

25 51 76

25 51 76

25 51 76

25 51 76

25 51 76

25 51 76

25 51 76

25 51 76

25 51 76

25 51 76

25 51 76

25 51 76

25 51 76

25 51 76

25 51 76

25 51 76

25 51 76

25 51 76

25 51 76

25 51 76

25 51 76

25 51 76

25 51 76

25 51 76

25 51 76

25 51 76

25 51 76

25 51 76

25 51 76

25 51 76

25 51 76

25 51 76

25 51 76

25 51 76

25 51 76

25 51 76

25 51 76

25 51 76

25 51 76

25 51 76

25 51 76

25 51 76

25 51 76

25 51 76

25 51 76

25 51 76

25 51 76

25 51 76

25 51 76

25 51 76

25 51 76

25 51 76

25 51 76

25 51 76

25 51 76

25 51 76

25 51 76

25 51 76

25 51 76

25 51 76

25 51 76

25 51 76

25 51 76

25 51 76

25 51 76

25 51 76

25 51 76

25 51 76

25 51 76

25 51 76

25 51 76

25 51 76

25 51 76

25 51 76

25 51 76

25 51 76

25 51 76

25 51 76

25 51 76

25 51 76

25 51 76

25 51 76

25 51 76

25 51 76

25 51 76

25 51 76

25 51 76

25 51 76

25 51 76

25 51 76

25 51 76

25 51 76

25 51 76

25 51 76

25 51 76

25 51 76

25 51 76

25 51 76

25 51 76

25 51 76

25 51 76

25 51 76

25 51 76

25 51 76

25 51 76

25 51 76

25 51 76

25 51 76

25 51 76

25 51 76

25 51 76

25 51 76

25 51 76

25 51 76

25 51 76

25 51 76

25 51 76

25 51 76

25 51 76

25 51 76

25 51 76

25 51 76

25 51 76

25 51 76

25 51 76

25 51 76

25 51 76

25 51 76

25 51 76

25 51 76

25 51 76

25 51 76

25 51 76

25 51 76

25 51 76

25 51 76

25 51 76

25 51 76

25 51 76

25 51 76

25 51 76

25 51 76

25 51 76

25 51 76

25 51 76

25 51 76

25 51 76

25 51 76

25 51 76

25 51 76

25 51 76

25 51 76

25 51 76

25 51 76

25 51 76

25 51 76

25 51 76

25 51 76

25 51 76

25 51 76

25 51 76

25 51 76

25 51 76

25 51 76

25 51 76

25 51 76

25 51 76

25 51 76

25 51 76

25 51 76

25 51 76

25 51 76

25 51 76

25 51 76

25 51 76

25 51 76

25 51 76

25 51 76

25 51 76

25 51 76

25 51 76

25 51 76

25 51 76

25 51 76

25 51 76

25 51 76

25 51 76

25 51 76

25 51 76

25 51 76

25 51 76

25 51 76

25 51 76

25 51 76

25 51 76

25 51 76

25 51 76

25 51 76

25 51 76

25 51 76

25 51 76

25 51 76

25 51 76

25 51 76

25 51 76

25 51 76

25 51 76

25 51 76

25 51 76

25 51 76

25 51 76

25 51 76

25 51 76

25 51 76

25 51 76

25 51 76

25 51 76

25 51 76

25 51 76

25 51 76

25 51 76

25 51 76

25 51 76

25 51 76

25 51 76

25 51 76

25 51 76

25 51 76

25 51 76

25 51 76

25 51 76

25 51 76

25 51 76

25 51 76

25 51 76

25 51 76

25 51 76

25 51 76

25 51 76

25 51 76

25 51 76

25 51 76

25 51 76

25 51 76

25 51 76

25 51 76

25 51 76

25 51 76

25 51 76

25 51 76

25 51 76

25 51 76

25 51 76

25 51 76

25 51 76

25 51 76

25 51 76

25 51 76

25 51 76

25 51 76

25 51 76

25 51 76

25 51 76

25 51 76

25 51 76

25 51 76

25 51 76

25 51 76

25 51 76

25 51 76

25 51 76

25 51 76

25 51 76

25 51 76

25 51 76

25 51 76

25 51 76

25 51 76

25 51 76

25 51 76

25 51 76

25 51 76

25 51 76

25 51 76

25 51 76

25 51 76

25 51 76

25 51 76

25 51 76

25 51 76

25 51 76

25 51 76

25 51 76

25 51 76

25 51 76

25 51 76

25 51 76

25 51 76

25 51 76

25 51 76

25 51 76

25 51 76

25 51 76

25 51 76

25 51 76

25 51 76

25 51 76

25 51 76

25 51 76

25 51 76

25 51 76

25 51 76

25 51 76

25 51 76

25 51 76

25 51 76

25 51 76

25 51 76

25 51 76

25 51 76

25 51 76

25 51 76

25 51 76

25 51 76

25 51 76

25 51 76

25 51 76

25 51 76

25 51 76

25 51 76

25 51 76

25 51 76

25 51 76

25 51 76

25 51 76

25 51 76

25 51 76

25 51 76

25 51 76

25 51 76

25 51 76

25 51 76

25 51 76

25 51 76

25 51 76

25 51 76

25 51 76

25 51 76

25 51 76

25 51 76

25 51 76

25 51 76

25 51 76

25 51 76

25 51 76

25 51 76

25 51 76

25 51 76

25 51 76

25 51 76

25 51 76

25 51 76

25 51 76

25 51 76

25 51 76

25 51 76

25 51 76

25 51 76

25 51 76

25 51 76

25 51 76

25 51 76

25 51 76

25 51 76

25 51 76

25 51 76

25 51 76

25 51 76

25 51 76

25 51 76

25 51 76

25 51 76

25 51 76

25 51 76

25 51 76

25 51 76

25 51 76

25 51 76

25 51 76

25 51 76

25 51 76

25 51 76

25 51 76

25 51 76

25 51 76

25 51 76

25 51 76

25 51 76

25 51 76

25 51 76

25 51 76

25 51 76

25 51 76

25 51 76

25 51 76

25 51 76

25 51 76

25 51 76

25 51 76

25 51 76

25 51 76

25 51 76

25 51 76

25 51 76

25 51 76

25 51 76

25 51 76

25 51 76

25 51 76

25 51 76

25 51 76

25 51 76

25 51 76

25 51 76

25 51 76

25 51 76

25 51 76

25 51 76

25 51 76

25 51 76

25 51 76

25 51 76

25 51 76

25 51 76

25 51 76

25 51 76

25 51 76

25 51 76

25 51 76

25 51 76

25 51 76

25 51 76

25 51 76

25 51 76

25 51 76

25 51 76

25 51 76

25 51 76

25 51 76

25 51 76

25 51 76

25 51 76

25 51 76

25 51 76

25 51 76

25 51 76

25 51 76

25 51 76

25 51 76

25 51 76

25 51 76

25 51 76

25 51 76

25 51 76

25 51 76

25 51 76

25 51 76

25 51 76

25 51 76

25 51 76

25 51 76

25 51 76

25 51 76

25 51 76

25 51 76

25 51 76

25 51 76

25 51 76

25 51 76

25 51 76

25 51 76

25 51 76

25 51 76

25 51 76

25 51 76

25 51 76

25 51 76

25 51 76

25 51 76

25 51 76

25 51 76

25 51 76

25 51 76

25 51 76

25 51 76

25 51 76

25 51 76

25 51 76

25 51 76

25 51 76

25 51 76

25 51 76

25 51 76

25 51 76

25 51 76

25 51 76

25 51 76

25 51 76

25 51 76

25 51 76

25 51 76

25 51 76

25 51 76

25 51 76

25 51 76

25 51 76

25 51 76

25 51 76

25 51 76

25 51 76

25 51 76

25 51 76

25 51 76

25 51 76

25 51 76

25 51 76

25 51 76

25 51 76

25 51 76

25 51 76

25 51 76

25 51 76

25 51 76

25 51 76

25 51 76

25 51 76

25 51 76

25 51 76

25 51 76

25 51 76

25 51 76

25 51 76

25 51 76

25 51 76

25 51 76

25 51 76

25 51 76

25 51 76

25 51 76

25 51 76

25 51 76

25 51 76

25 51 76

25 51 76

25 51 76

25 51 76

25 51 76

25 51 76

25 51 76

25 51 76

25 51 76

25 51 76

25 51 76

25 51 76

25 51 76

25 51 76

25 51 76

25 51 76

25 51 76

25 51 76

25 51 76

25 51 76

25 51 76

25 51 76

25 51 76

25 51 76

25 51 76

25 51 76

25 51 76

25 51 76

25 51 76

25 51 76

25 51 76

25 51 76

25 51 76

25 51 76

25 51 76

25 51 76

25 51 76

25 51 76

25 51 76

25 51 76

25 51 76

25 51 76

25 51 76

25 51 76

25 51 76

25 51 76

25 51 76

25 51 76

25 51 76

25 51 76

25 51 76

25 51 76

25 51 76

25 51 76

25 51 76

25 51 76

25 51 76

25 51 76

25 51 76

25 51 76

25 51 76

25 51 76

25 51 76

25 51 76

25 51 76

25 51 76

25 51 76

25 51 76

25 51 76

25 51 76

25 51 76

25 51 76

25 51 76

25 51 76

25 51 76

25 51 76

25 51 76

25 51 76

25 51 76

25 51 76

25 51 76

25 51 76

25 51 76

25 51 76

25 51 76

25 51 76

25 51 76

25 51 76

25 51 76

25 51 76

25 51 76

25 51 76

25 51 76

25 51 76

25 51 76

25 51 76

25 51 76

25 51 76

25 51 76

25 51 76

25 51 76

25 51 76

25 51 76

25 51 76

25 51 76

25 51 76

25 51 76

25 51 76

25 51 76

25 51 76

25 51 76

25 51 76

25 51 76

25 51 76

25 51 76

25 51 76

25 51 76

25 51 76

25 51 76

25 51 76

25 51 76

25 51 76

25 51 76

25 51 76

25 51 76

25 51 76

25 51 76

25 51 76

25 51 76

25 51 76

25 51 76

25 51 76

25 51 76

25 51 76

25 51 76

25 51 76

25 51 76

25 51 76

25 51 76

25 51 76

25 51 76

25 51 76

25 51 76

25 51 76

25 51 76

25 51 76

25 51 76

25 51 76

25 51 76

25 51 76

25 51 76

25 51 76

25 51 76

25 51 76

25 51 76

25 51 76

25 51 76

25 51 76

25 51 76

25 51 76

25 51 76

25 51 76

25 51 76

25 51 76

25 51 76

25 51 76

25 51 76

25 51 76

25 51 76

25 51 76

25 51 76

25 51 76

25 51 76

25 51 76

25 51 76

25 51 76

25 51 76

25 51 76

25 51 76

25 51 76

25 51 76

25 51 76

25 51 76

25 51 76

25 51 76

25 51 76

25 51 76

25 51 76

25 51 76

25 51 76

25 51 76

25 51 76

25 51 76

25 51 76

25 51 76

25 51 76

25 51 76

25 51 76

25 51 76

25 51 76

25 51 76

25 51 76

25 51 76

25 51 76

25 51 76

25 51 76

25 51 76

25 51 76

25 51 76

25 51 76

25 51 76

25 51 76

25 51 76

25 51 76

25 51 76

25 51 76

25 51 76

25 51 76

25 51 76

25 51 76

25 51 76

25 51 76

25 51 76

25 51 76

25 51 76

25 51 76

25 51 76

25 51 76

25 51 76

25 51 76

25 51 76

25 51 76

25 51 76

25 51 76

25 51 76

25 51 76

25 51 76

25 51 76

25 51 76

25 51 76

25 51 76

25 51 76

25 51 76

25 51 76

25 51 76

25 51 76

25 51 76

25 51 76

25 51 76

25 51 76

25 51 76

25 51 76

25 51 76

25 51 76

25 51 76

25 51 76

25 51 76

25 51 76

25 51 76

25 51 76

25 51 76

25 51 76

25 51 76

25 51 76

25 51 76

25 51 76

25 51 76

25 51 76

25 51 76

25 51 76

25 51 76

25 51 76

25 51 76

25 51 76

25 51 76

25 51 76

25 51 76

25 51 76

25 51 76

25 51 76

25 51 76

25 51 76

25 51 76

25 51 76

25 51 76

25 51 76

25 51 76

25 51 76

25 51 76

25 51 76

25 51 76

25 51 76

25 51 76

25 51 76

25 51 76

25 51 76

25 51 76

25 51 76

25 51 76

25 51 76

25 51 76

25 51 76

25 51 76

25 51 76

25 51 76

25 51 76

25 51 76

25 51 76

25 51 76

25 51 76

25 51 76

25 51 76

25 51 76

25 51 76

25 51 76

25 51 76

25 51 76

25 51 76

25 51 76

25 51 76

25 51 76

25 51 76

25 51 76

25 51 76

25 51 76

25 51 76

25 51 76

25 51 76

25 51 76

25 51 76

25 51 76

25 51 76

25 51 76

25 51 76

25 51 76

25 51 76

25 51 76

25 51 76

25 51 76

25 51 76

25 51 76

25 51 76

25 51 76

25 51 76

25 51 76

25 51 76

25 51 76

25 51 76

25 51 76

25 51 76

25 51 76

25 51 76

25 51 76

25 51 76

25 51 76

25 51 76

25 51 76

25 51 76

25 51 76

25 51 76

25 51 76

25 51 76

25 51 76

25 51 76

25 51 76

25 51 76

25 51 76

25 51 76

25 51 76

25 51 76

25 51 76

25 51 76

25 51 76

25 51 76

25 51 76

25 51 76

25 51 76

25 51 76

25 51 76

25 51 76

25 51 76

25 51 76

25 51 76

25 51 76

25 51 76

25 51 76

25 51 76

25 51 76

25 51 76

25 51 76

25 51 76

25 51 76

25 51 76

25 51 76

25 51 76

25 51 76

25 51 76

25 51 76

25 51 76

25 51 76

25 51 76

25 51 76

25 51 76

25 51 76

25 51 76

25 51 76

25 51 76

25 51 76

25 51 76

25 51 76

25 51 76

25 51 76

25 51 76

25 51 76

25 51 76

25 51 76

25 51 76

25 51 76

25 51 76

25 51 76

25 51 76

25 51 76

25 51 76

25 51 76

25 51 76

25 51 76

25 51 76

25 51 76

25 51 76

25 51 76

25 51 76

25 51 76

25 51 76

25 51 76

25 51 76

25 51 76

25 51 76

25 51 76

25 51 76

25 51 76

25 51 76

25 51 76

25 51 76

25 51 76

25 51 76

25 51 76

25 51 76

25 51 76

25 51 76

25 51 76

25 51 76

25 51 76

25 51 76

25 51 76

25 51 76

25 51 76

25 51 76

25 51 76

25 51 76

25 51 76

25 51 76

25 51 76

25 51 76

25 51 76

25 51 76

25 51 76

25 51 76

25 51 76

25 51 76

25 51 76

25 51 76

25 51 76

25 51 76

25 51 76

25 51 76

25 51 76

25 51 76

25 51 76

25 51 76

25 51 76

25 51 76

25 51 76

25 51 76

25 51 76

25 51 76

25 51 76

25 51 76

25 51 76

25 51 76

25 51 76

25 51 76

25 51 76

25 51 76

25 51 76

25 51 76

25 51 76

25 51 76

25 51 76

25 51 76

25 51 76

25 51 76

25 51 76

25 51 76

25 51 76

25 51 76

25 51 76

25 51 76

25 51 76

25 51 76

25 51 76

25 51 76

25 51 76

25 51 76

25 51 76

25 51 76

25 51 76

25 51 76

25 51 76

25 51 76

25 51 76

25 51 76

25 51 76

25 51 76

25 51 76

25 51 76

25 51 76

25 51 76

25 51 76

25 51 76

25 51 76

25 51 76

25 51 76

25 51 76

25 51 76

25 51 76

25 51 76

25 51 76

25 51 76

25 51 76

25 51 76

25 51 76

25 51 76

25 51 76

25 51 76

25 51 76

25 51 76

25 51 76

25 51 76

25 51 76

25 51 76

25 51 76

25 51 76

25 51 76

25 51 76

25 51 76

25 51 76

25 51 76

25 51 76

25 51 76

25 51 76

25 51 76

25 51 76

25 51 76

25 51 76

25 51 76

25 51 76

25 51 76

25 51 76

25 51 76

25 51 76

25 51 76

25 51 76

25 51 76

25 51 76

25 51 76

25 51 76

25 51 76

25 51 76

25 51 76

25 51 76

25 51 76

25 51 76

25 51 76

25 51 76

25 51 76

25 51 76

25 51 76

25 51 76

25 51 76

25 51 76

25 51 76

25 51 76

25 51 76

25 51 76

25 51 76

25 51 76

25 51 76

25 51 76

25 51 76

25 51 76

25 51 76

25 51 76

25 51 76

25 51 76

25 51 76

25 51 76

25 51 76

25 51 76

25 51 76

25 51 76

25 51 76

25 51 76

25 51 76

25 51 76

25 51 76

25 51 76

25 51 76

25 51 76

25 51 76

25 51 76

25 51 76

25 51 76

25 51 76

25 51 76

25 51 76

25 51 76

25 51 76

25 51 76

25 51 76

25 51 76

25 51 76

25 51 76

25 51 76

25 51 76

25 51 76

25 51 76

25 51 76

25 51 76

25 51 76

25 51 76

25 51 76

25 51 76

25 51 76

25 51 76

25 51 76

25 51 76

25 51 76

25 51 76

25 51 76

25 51 76

25 51 76

25 51 76

25 51 76

25 51 76

25 51 76

25 51 76

25 51 76

25 51 76

25 51 76

25 51 76

25 51 76

25 51 76

25 51 76

25 51 76

25 51 76

25 51 76

25 51 76

25 51 76

25 51 76

25 51 76

25 51 76

25 51 76

25 51 76

25 51 76

25 51 76

25 51 76

25 51 76

25 51 76

25 51 76

25 51 76

25 51 76

25 51 76

25 51 76

25 51 76

25 51 76

25 51 76

25 51 76

25 51 76

25 51 76

25 51 76

25 51 76

25 51 76

25 51 76

25 51 76

25 51 76

25 51 76

25 51 76

25 51 76

25 51 76

25 51 76

25 51 76

25 51 76

25 51 76

25 51 76

25 51 76

25 51 76

25 51 76

25 51 76

25 51 76

25 51 76

25 51 76

25 51 76

25 51 76

25 51 76

25 51 76

25 51 76

25 51 76

25 51 76

25 51 76

25 51 76

25 51 76

25 51 76

25 51 76

25 51 76

25 51 76

25 51 76

25 51 76

25 51 76

25 51 76

25 51 76

25 51 76

25 51 76

25 51 76

25 51 76

25 51 76

25 51 76

25 51 76

25 51 76

25 51 76

25 51 76

25 51 76

25 51 76

25 51 76

25 51 76

25 51 76

25 51 76

25 51 76

25 51 76

25 51 76

25 51 76

25 51 76

25 51 76

25 51 76

25 51 76

25 51 76

25 51 76

25 51 76

25 51 76

25 51 76

25 51 76

25 51 76

25 51 76

25 51 76

25 51 76

25 51 76

25 51 76

25 51 76

25 51 76

25 51 76

25 51 76

25 51 76

25 51 76

25 51 76

25 51 76

25 51 76

25 51 76

25 51 76

25 51 76

25 51 76

25 51 76

25 51 76

25 51 76

25 51 76

25 51 76

25 51 76

25 51 76

25 51 76

25 51 76

25 51 76

25 51 76

25 51 76

25 51 76

25 51 76

25 51 76

25 51 76

25 51 76

25 51 76

25 51 76

25 51 76

25 51 76

25 51 76

25 51 76

25 51 76

25 51 76

25 51 76

25 51 76

25 51 76

25 51 76

25 51 76

25 51 76

25 51 76

25 51 76

25 51 76

25 51 76

25 51 76

25 51 76

25 51 76

25 51 76

25 51 76

25 51 76

25 51 76

25 51 76

25 51 76

25 51 76

25 51 76

25 51 76

25 51 76

25 51 76

25 51 76

25 51 76

25 51 76

25 51 76

25 51 76

25 51 76

25 51 76

25 51 76

25 51 76

25 51 76

25 51 76

25 51 76

25 51 76

25 51 76

25 51 76

25 51 76

25 51 76

25 51 76

25 51 76

25 51 76

25 51 76

25 51 76

25 51 76

25 51 76

25 51 76

25 51 76

25 51 76

25 51 76

25 51 76

25 51 76

25 51 76

25 51 76

25 51 76

25 51 76

25 51 76

25 51 76

25 51 76

25 51 76

25 51 76

25 51 76

25 51 76

25 51 76

25 51 76

25 51 76

25 51 76

25 51 76

25 51 76

25 51 76

25 51 76

25 51 76

25 51 76

25 51 76

25 51 76

25 51 76

25 51 76

25 51 76

25 51 76

25 51 76

25 51 76

25 51 76

25 51 76

25 51 76

25 51 76

25 51 76

25 51 76

25 51 76

25 51 76

25 51 76

25 51 76

25 51 76

25 51 76

25 51 76

25 51 76

25 51 76

25 51 76

25 51 76

25 51 76

25 51 76

25 51 76

25 51 76

25 51 76

25 51 76

25 51 76

25 51 76

25 51 76

25 51 76

25 51 76

25 51 76

25 51 76

25 51 76

25 51 76

25 51 76

25 51 76

25 51 76

25 51 76

25 51 76

25 51 76

25 51 76

25 51 76

25 51 76

25 51 76

25 51 76

25 51 76

25 51 76

25 51 76

25 51 76

25 51 76

25 51 76

25 51 76

25 51 76

25 51 76

25 51 76

25 51 76

25 51 76

25 51 76

25 51 76

25 51 76

25 51 76

25 51 76

25 51 76

25 51 76

25 51 76

25 51 76

25 51 76

25 51 76

25 51 76

25 51 76

25 51 76

25 51 76

25 51 76

25 51 76

25 51 76

25 51 76

25 51 76

25 51 76

25 51 76

25 51 76

25 51 76

25 51 76

25 51 76

25 51 76

25 51 76

25 51 76

25 51 76

25 51 76

25 51 76

25 51 76

25 51 76

25 51 76

25 51 76

25 51 76

25 51 76

25 51 76

25 51 76

25 51 76

25 51 76

25 51 76

25 51 76

25 51 76

25 51 76

25 51 76

25 51 76

25 51 76

25 51 76

25 51 76

25 51 76

25 51 76

25 51 76

25 51 76

25 51 76

25 51 76

25 51 76

25 51 76

25 51 76

25 51 76

25 51 76

25 51 76

25 51 76

25 51 76

25 51 76

25 51 76

25 51 76

25 51 76

25 51 76

25 51 76

25 51 76

25 51 76

25 51 76

25 51 76

25 51 76

25 51 76

25 51 76

25 51 76

25 51 76

25 51 76

25 51 76

25 51 76

25 51 76

25 51 76

25 51 76

25 51 76

25 51 76

25 51 76

25 51 76

25 51 76

25 51 76

25 51 76

25 51 76

25 51 76

25 51 76

25 51 76

25 51 76

25 51 76

25 51 76

25 51 76

25 51 76

25 51 76

25 51 76

25 51 76

25 51 76

25 51 76

25 51 76

25 51 76

25 51 76

25 51 76

25 51 76

25 51 76

25 51 76

25 51 76

25 51 76

25 51 76

25 51 76

25 51 76

25 51 76

25 51 76

25 51 76

25 51 76

25 51 76

25 51 76

25 51 76

25 51 76

25 51 76

25 51 76

25 51 76

25 51 76

25 51 76

25 51 76

25 51 76

25 51 76

25 51 76

25 51 76

25 51 76

25 51 76

25 51 76

25 51 76

25 51 76

25 51 76

25 51 76

25 51 76

25 51 76

25 51 76

25 51 76

25 51 76

25 51 76

25 51 76

25 51 76

25 51 76

25 51 76

25 51 76

25 51 76

25 51 76

25 51 76

25 51 76

25 51 76

25 51 76

25 51 76

25 51 76

25 51 76

25 51 76

25 51 76

25 51 76

25 51 76

25 51 76

25 51 76

25 51 76

25 51 76

25 51 76

25 51 76

25 51 76

25 51 76

25 51 76

25 51 76

25 51 76

25 51 76

25 51 76

25 51 76

25 51 76

25 51 76

25 51 76

25 51 76

25 51 76

25 51 76

25 51 76

25 51 76

25 51 76

25 51 76

25 51 76

25 51 76

25 51 76

25 51 76

25 51 76

25 51 76

25 51 76

25 51 76

25 51 76

25 51 76

25 51 76

25 51 76

25 51 76

25 51 76

25 51 76

25 51 76

25 51 76

25 51 76

25 51 76

25 51 76

25 51 76

25 51 76

25 51 76

25 51 76

25 51 76

25 51 76

25 51 76

25 51 76

25 51 76

25 51 76

25 51 76

25 51 76

25 51 76

25 51 76

25 51 76

25 51 76

25 51 76

25 51 76

25 51 76

25 51 76

25 51 76

25 51 76

25 51 76

25 51 76

25 51 76

25 51 76

25 51 76

25 51 76

25 51 76

25 51 76

25 51 76

25 51 76

25 51 76

25 51 76

25 51 76

25 51 76

25 51 76

25 51 76

25 51 76

25 51 76

25 51 76

25 51 76

25 51 76

25 51 76

25 51 76

25 51 76

25 51 76

25 51 76

25 51 76

25 51 76

25 51 76

25 51 76

25 51 76

25 51 76

25 51 76

25 51 76

25 51 76

25 51 76

25 51 76

25 51 76

25 51 76

25 51 76

25 51 76

25 51 76

25 51 76

25 51 76

25 51 76

25 51 76

25 51 76

25 51 76

25 51 76

25 51 76

25 51 76

25 51 76

25 51 76

25 51 76

25 51 76

25 51 76

25 51 76

25 51 76

25 51 76

25 51 76

25 51 76

25 51 76

25 51 76

25 51 76

25 51 76

25 51 76

25 51 76

25 51 76

25 51 76

25 51 76

25 51 76

25 51 76

25 51 76

25 51 76

25 51 76

25 51 76

25 51 76

25 51 76

25 51 76

25 51 76

25 51 76

25 51 76

25 51 76

25 51 76

25 51 76

25 51 76

25 51 76

25 51 76

25 51 76

25 51 76

25 51 76

25 51 76

25 51 76

25 51 76

25 51 76

25 51 76

25 51 76

25 51 76

25 51 76

25 51 76

25 51 76

25 51 76

25 51 76

25 51 76

25 51 76

25 51 76

25 51 76

25 51 76

25 51 76

25 51 76

25 51 76

25 51 76

25 51 76

25 51 76

25 51 76

25 51 76

25 51 76

25 51 76

25 51 76

25 51 76

25 51 76

25 51 76

25 51 76

25 51 76

25 51 76

25 51 76

25 51 76

25 51 76

25 51 76

25 51 76

25 51 76

25 51 76

25 51 76

25 51 76

25 51 76

25 51 76

25 51 76

25 51 76

25 51 76

25 51 76

25 51 76

25 51 76

25 51 76

25 51 76

25 51 76

25 51 76

25 51 76

25 51 76

25 51 76

25 51 76

25 51 76

25 51 76

25 51 76

25 51 76

25 51 76

25 51 76

25 51 76

25 51 76

25 51 76

25 51 76

25 51 76

25 51 76

25 51 76

25 51 76

25 51 76

25 51 76

25 51 76

25 51 76

25 51 76

25 51 76

25 51 76

25 51 76

25 51 76

25 51 76

25 51 76

25 51 76

25 51 76

25 51 76

25 51 76

25 51 76

25 51 76

25 51 76

25 51 76

25 51 76

25 51 76

25 51 76

25 51 76

25 51 76

25 51 76

25 51 76

25 51 76

25 51 76

25 51 76

25 51 76

25 51 76

25 51 76

25 51 76

25 51 76

25 51 76

25 51 76

25 51 76

25 51 76

25 51 76

25 51 76

25 51 76

25 51 76

25 51 76

25 51 76

25 51 76

25 51 76

25 51 76

25 51 76

25 51 76

25 51 76

25 51 76

25 51 76

25 51 76

25 51 76

25 51 76

25 51 76

25 51 76

25 51 76

25 51 76

25 51 76

25 51 76

25 51 76

25 51 76

25 51 76

25 51 76

25 51 76

25 51 76

25 51 76

25 51 76

25 51 76

25 51 76

25 51 76

25 51 76

25 51 76

25 51 76

25 51 76

25 51 76

25 51 76

25 51 76

25 51 76

25 51 76

25 51 76

25 51 76

25 51 76

25 51 76

25 51 76

25 51 76

25 51 76

25 51 76

25 51 76

25 51 76

25 51 76

25 51 76

25 51 76

25 51 76

25 51 76

25 51 76

25 51 76

25 51 76

25 51 76

25 51 76

25 51 76

25 51 76

25 51 76

25 51 76

25 51 76

25 51 76

25 51 76

25 51 76

25 51 76

25 51 76

25 51 76

25 51 76

25 51 76

25 51 76

25 51 76

25 51 76

25 51 76

25 51 76

25 51 76

25 51 76

25 51 76

25 51 76

25 51 76

25 51 76

25 51 76

25 51 76

25 51 76

25 51 76

25 51 76

25 51 76

25 51 76

25 51 76

25 51 76

25 51 76

25 51 76

25 51 76

25 51 76

25 51 76

25 51 76

25 51 76

25 51 76

25 51 76

25 51 76

25 51 76

25 51 76

25 51 76

25 51 76

25 51 76

25 51 76

25 51 76

25 51 76

25 51 76

25 51 76

25 51 76

25 51 76

25 51 76

25 51 76

25 51 76

25 51 76

25 51 76

25 51 76

25 51 76

25 51 76

25 51 76

25 51 76

25 51 76

25 51 76

25 51 76

25 51 76

25 51 76

25 51 76

25 51 76

25 51 76

25 51 76

25 51 76

25 51 76

25 51 76

25 51 76

25 51 76

25 51 76

25 51 76

25 51 76

25 51 76

25 51 76

25 51 76

25 51 76

25 51 76

25 51 76

25 51 76

25 51 76

25 51 76

25 51 76

25 51 76

25 51 76

25 51 76

25 51 76

25 51 76

25 51 76

25 51 76

25 51 76

25 51 76

25 51 76

25 51 76

25 51 76

25 51 76

25 51 76

25 51 76

25 51 76

25 51 76

25 51 76

25 51 76

25 51 76

25 51 76

25 51 76

25 51 76

25 51 76

25 51 76

25 51 76

25 51 76

25 51 76

25 51 76

25 51 76

25 51 76

25 51 76

25 51 76

25 51 76

25 51 76

25 51 76

25 51 76

25 51 76

25 51 76

25 51 76

25 51 76

25 51 76

25 51 76

25 51 76

25 51 76

25 51 76

25 51 76

25 51 76

25 51 76

25 51 76

25 51 76

25 51 76

25 51 76

25 51 76

25 51 76

25 51 76

25 51 76

25 51 76

25 51 76

25 51 76

25 51 76

25 51 76

25 51 76

25 51 76

25 51 76

25 51 76

25 51 76

25 51 76

25 51 76

25 51 76

25 51 76

25 51 76

25 51 76

25 51 76

25 51 76

25 51 76

25 51 76

25 51 76

25 51 76

25 51 76

25 51 76

25 51 76

25 51 76

25 51 76

25 51 76

25 51 76

25 51 76

25 51 76

25 51 76

25 51 76

25 51 76

25 51 76

25 51 76

25 51 76

25 51 76

25 51 76

25 51 76

25 51 76

25 51 76

25 51 76

25 51 76

25 51 76

25 51 76

25 51 76

25 51 76

25 51 76

25 51 76

25 51 76

25 51 76

25 51 76

25 51 76

25 51 76

25 51 76

25 51 76

25 51 76

25 51 76

25 51 76

25 51 76

25 51 76

25 51 76

25 51 76

25 51 76

25 51 76

25 51 76

25 51 76

25 51 76

25 51 76

25 51 76

25 51 76

25 51 76

25 51 76

25 51 76

25 51 76

25 51 76

25 51 76

25 51 76

25 51 76

25 51 76

25 51 76

25 51 76

25 51 76

25 51 76

25 51 76

25 51 76

25 51 76

25 51 76

25 51 76

25 51 76

25 51 76

25 51 76

25 51 76

25 51 76

25 51 76

25 51 76

25 51 76

25 51 76

25 51 76

25 51 76

25 51 76

25 51 76

25 51 76

25 51 76

25 51 76

25 51 76

25 51 76

25 51 76

25 51 76

25 51 76

25 51 76

25 51 76

25 51 76

25 51 76

25 51 76

25 51 76

25 51 76

25 51 76

25 51 76

25 51 76

25 51 76

25 51 76

25 51 76

25 51 76

25 51 76

25 51 76

25 51 76

25 51 76

25 51 76

25 51 76

25 51 76

25 51 76

25 51 76

25 51 76

25 51 76

25 51 76

25 51 76

25 51 76

25 51 76

25 51 76

25 51 76

25 51 76

25 51 76

25 51 76

25 51 76

25 51 76

25 51 76

25 51 76

25 51 76

25 51 76

25 51 76

25 51 76

25 51 76

25 51 76

25 51 76

25 51 76

25 51 76

25 51 76

25 51 76

25 51 76

25 51 76

25 51 76

25 51 76

25 51 76

25 51 76

25 51 76

25 51 76

25 51 76

25 51 76

25 51 76

25 51 76

25 51 76

25 51 76

25 51 76

25 51 76

25 51 76

25 51 76

25 51 76

25 51 76

25 51 76

25 51 76

25 51 76

25 51 76

25 51 76

25 51 76

25 51 76

25 51 76

25 51 76

25 51 76

25 51 76

25 51 76

25 51 76

25 51 76

25 51 76

25 51 76

25 51 76

25 51 76

25 51 76

25 51 76

25 51 76

25 51 76

25 51 76

25 51 76

25 51 76

25 51 76

25 51 76

25 51 76

25 51 76

25 51 76

25 51 76

25 51 76

25 51 76

25 51 76

25 51 76

25 51 76

25 51 76

25 51 76

25 51 76

25 51 76

25 51 76

25 51 76

25 51 76

25 51 76

25 51 76

25 51 76

25 51 76

25 51 76

25 51 76

25 51 76

25 51 76

25 51 76

25 51 76

25 51 76

25 51 76

25 51 76

25 51 76

25 51 76

25 51 76

25 51 76

25 51 76

25 51 76

25 51 76

25 51 76

25 51 76

25 51 76

25 51 76

25 51 76

25 51 76

25 51 76

25 51 76

25 51 76

25 51 76

25 51 76

25 51 76

25 51 76

25 51 76

25 51 76

25 51 76

25 51 76

25 51 76

25 51 76

25 51 76

25 51 76

25 51 76

25 51 76

25 51 76

25 51 76

25 51 76

25 51 76

25 51 76

25 51 76

25 51 76

25 51 76

25 51 76

25 51 76

25 51 76

25 51 76

25 51 76

25 51 76

25 51 76

25 51 76

25 51 76

25 51 76

25 51 76

25 51 76

25 51 76

25 51 76

25 51 76

25 51 76

25 51 76

25 51 76

25 51 76

25 51 76

25 51 76

25 51 76

25 51 76

25 51 76

25 51 76

25 51 76

25 51 76

25 51 76

25 51 76

25 51 76

25 51 76

25 51 76

25 51 76

25 51 76

25 51 76

25 51 76

25 51 76

25 51 76

25 51 76

25 51 76

25 51 76

25 51 76

25 51 76

25 51 76

25 51 76

25 51 76

25 51 76

25 51 76

25 51 76

25 51 76

25 51 76

25 51 76

25 51 76

25 51 76

25 51 76

25 51 76

25 51 76

25 51 76

25 51 76

25 51 76

25 51 76

25 51 76

25 51 76

25 51 76

25 51 76

25 51 76

25 51 76

25 51 76

25 51 76

25 51 76

25 51 76

25 51 76

25 51 76

25 51 76

25 51 76

25 51 76

25 51 76

25 51 76

25 51 76

25 51 76

25 51 76

25 51 76

25 51 76

25 51 76

25 51 76

25 51 76

25 51 76

25 51 76

25 51 76

25 51 76

25 51 76

25 51 76

25 51 76

25 51 76

25 51 76

25 51 76

25 51 76

25 51 76

25 51 76

25 51 76

25 51 76

25 51 76

25 51 76

25 51 76

25 51 76

25 51 76

25 51 76

25 51 76

25 51 76

25 51 76

25 51 76

25 51 76

25 51 76

25 51 76

25 51 76

25 51 76

25 51 76

25 51 76

25 51 76

25 51 76

25 51 76

25 51 76

25 51 76

25 51 76

25 51 76

25 51 76

25 51 76

25 51 76

25 51 76

25 51 76

25 51 76

25 51 76

25 51 76

25 51 76

25 51 76

25 51 76

25 51 76

25 51 76

25 51 76

25 51 76

25 51 76

25 51 76

25 51 76

25 51 76

25 51 76

25 51 76

25 51 76

25 51 76

25 51 76

25 51 76

25 51 76

25 51 76

25 51 76

25 51 76

25 51 76

25 51 76

25 51 76

25 51 76

25 51 76

25 51 76

25 51 76

25 51 76

25 51 76

25 51 76

25 51 76

25 51 76

25 51 76

25 51 76

25 51 76

25 51 76

25 51 76

25 51 76

25 51 76

25 51 76

25 51 76

25 51 76

25 51 76

25 51 76

25 51 76

25 51 76

25 51 76

25 51 76

25 51 76

25 51 76

25 51 76

25 51 76

25 51 76

25 51 76

25 51 76

25 51 76

25 51 76

25 51 76

25 51 76

25 51 76

25 51 76

25 51 76

25 51 76

25 51 76

25 51 76

25 51 76

25 51 76

25 51 76

25 51 76

25 51 76

25 51 76

25 51 76

25 51 76

25 51 76

25 51 76

25 51 76

25 51 76

25 51 76

25 51 76

25 51 76

25 51 76

25 51 76

25 51 76

25 51 76

25 51 76

25 51 76

25 51 76

25 51 76

25 51 76

25 51 76

25 51 76

25 51 76

25 51 76

25 51 76

25 51 76

25 51 76

25 51 76

25 51 76

25 51 76

25 51 76

25 51 76

25 51 76

25 51 76

25 51 76

25 51 76

25 51 76

25 51 76

25 51 76

25 51 76

25 51 76

25 51 76

25 51 76

25 51 76

25 51 76

25 51 76

25 51 76

25 51 76

25 51 76

25 51 76

25 51 76

25 51 76

25 51 76

25 51 76

25 51 76

25 51 76

25 51 76

25 51 76

25 51 76

25 51 76

25 51 76

25 51 76

25 51 76

25 51 76

25 51 76

25 51 76

25 51 76

25 51 76

25 51 76

25 51 76

25 51 76

25 51 76

25 51 76

25 51 76

25 51 76

25 51 76

25 51 76

25 51 76

25 51 76

25 51 76

25 51 76

25 51 76

25 51 76

25 51 76

25 51 76

25 51 76

25 51 76

25 51 76

25 51 76

25 51 76

25 51 76

25 51 76

25 51 76

25 51 76

25 51 76

25 51 76

25 51 76

25 51 76

25 51 76

25 51 76

25 51 76

25 51 76

25 51 76

25 51 76

25 51 76

25 51 76

25 51 76

25 51 76

25 51 76

25 51 76

25 51 76

25 51 76

25 51 76

25 51 76

25 51 76

25 51 76

25 51 76

25 51 76

25 51 76

25 51 76

25 51 76

25 51 76

25 51 76

25 51 76

25 51 76

25 51 76

25 51 76

25 51 76

25 51 76

25 51 76

25 51 76

25 51 76

25 51 76

25 51 76

25 51 76

25 51 76

25 51 76

25 51 76

25 51 76

25 51 76

25 51 76

25 51 76

25 51 76

25 51 76

25 51 76

25 51 76

25 51 76

25 51 76

25 51 76

25 51 76

25 51 76

25 51 76

25 51 76

25 51 76

25 51 76

25 51 76

25 51 76

25 51 76

25 51 76

25 51 76

25 51 76

25 51 76

25 51 76

25 51 76

25 51 76

25 51 76

25 51 76

25 51 76

25 51 76

25 51 76

25 51 76

25 51 76

25 51 76

25 51 76

25 51 76

25 51 76

25 51 76

25 51 76

25 51 76

25 51 76

25 51 76

25 51 76

25 51 76

25 51 76

25 51 76

25 51 76

25 51 76

25 51 76

25 51 76

25 51 76

25 51 76

25 51 76

25 51 76

25 51 76

25 51 76

25 51 76

25 51 76

25 51 76

25 51 76

25 51 76

25 51 76

25 51 76

25 51 76

25 51 76

25 51 76

25 51 76

25 51 76

25 51 76

25 51 76

25 51 76

25 51 76

25 51 76

25 51 76

25 51 76

25 51 76

25 51 76

25 51 76

25 51 76

25 51 76

25 51 76

25 51 76

25 51 76

25 51 76

25 51 76

25 51 76

25 51 76

25 51 76

25 51 76

25 51 76

25 51 76

25 51 76

25 51 76

25 51 76

25 51 76

25 51 76

25 51 76

25 51 76

25 51 76

25 51 76

25 51 76

25 51 76

25 51 76

25 51 76

25 51 76

25 51 76

25 51 76

25 51 76

25 51 76

25 51 76

25 51 76

25 51 76

25 51 76

25 51 76

25 51 76

25 51 76

25 51 76

25 51 76

25 51 76

25 51 76

25 51 76

25 51 76

25 51 76

25 51 76

25 51 76

25 51 76

25 51 76

25 51 76

25 51 76

25 51 76

25 51 76

25 51 76

25 51 76

25 51 76

25 51 76

25 51 76

25 51 76

25 51 76

25 51 76

25 51 76

25 51 76

25 51 76

25 51 76

25 51 76

25 51 76

25 51 76

25 51 76

25 51 76

25 51 76

25 51 76

25 51 76

25 51 76

25 51 76

25 51 76

25 51 76

25 51 76

25 51 76

25 51 76

25 51 76

25 51 76

25 51 76

25 51 76

25 51 76

25 51 76

25 51 76

25 51 76

25 51 76

25 51 76

25 51 76

25 51 76

25 51 76

25 51 76

25 51 76

25 51 76

25 51 76

25 51 76

25 51 76

25 51 76

25 51 76

25 51 76

25 51 76

25 51 76

25 51 76

25 51 76

25 51 76

25 51 76

25 51 76

25 51 76

25 51 76

25 51 76

25 51 76

25 51 76

25 51 76

25 51 76

25 51 76

25 51 76

25 51 76

25 51 76

25 51 76

25 51 76

25 51 76

25 51 76

25 51 76

25 51 76

25 51 76

25 51 76

25 51 76

25 51 76

25 51 76

25 51 76

25 51 76

25 51 76

25 51 76

25 51 76

25 51 76

25 51 76

25 51 76

25 51 76

25 51 76

25 51 76

25 51 76

25 51 76

25 51 76

25 51 76

25 51 76

25 51 76

25 51 76

25 51 76

25 51 76

25 51 76

25 51 76

25 51 76

25 51 76

25 51 76

25 51 76

25 51 76

25 51 76

25 51 76

25 51 76

25 51 76

25 51 76

25 51 76

25 51 76

25 51 76

25 51 76

25 51 76

25 51 76

25 51 76

25 51 76

25 51 76

25 51 76

25 51 76

25 51 76

25 51 76

25 51 76

25 51 76

25 51 76

25 51 76

25 51 76

25 51 76

25 51 76

25 51 76

25 51 76

25 51 76

25 51 76

25 51 76

25 51 76

25 51 76

25 51 76

25 51 76

25 51 76

25 51 76

25 51 76

25 51 76

25 51 76

25 51 76

25 51 76

25 51 76

25 51 76

25 51 76

25 51 76

25 51 76

25 51 76

25 51 76

25 51 76

25 51 76

25 51 76

25 51 76

25 51 76

25 51 76

25 51 76

25 51 76

25 51 76

25 51 76

25 51 76

25 51 76

25 51 76

25 51 76

25 51 76

25 51 76

25 51 76

25 51 76

25 51 76

25 51 76

25 51 76

25 51 76

25 51 76

25 51 76

25 51 76

25 51 76

25 51 76

25 51 76

25 51 76

25 51 76

25 51 76

25 51 76

25 51 76

25 51 76

25 51 76

25 51 76

25 51 76

25 51 76

25 51 76

25 51 76

25 51 76

25 51 76

25 51 76

25 51 76

25 51 76

25 51 76

25 51 76

25 51 76

25 51 76

25 51 76

25 51 76

25 51 76

25 51 76

25 51 76

25 51 76

25 51 76

25 51 76

25 51 76

25 51 76

25 51 76

25 51 76

25 51 76

25 51 76

25 51 76

25 51 76

25 51 76

25 51 76

25 51 76

25 51 76

25 51 76

25 51 76

25 51 76

25 51 76

25 51 76

25 51 76

25 51 76

25 51 76

25 51 76

25 51 76

25 51 76

25 51 76

25 51 76

25 51 76

25 51 76

25 51 76

25 51 76

25 51 76

25 51 76

25 51 76

25 51 76

25 51 76

25 51 76

25 51 76

25 51 76

25 51 76

25 51 76

25 51 76

25 51 76

25 51 76

25 51 76

25 51 76

25 51 76

25 51 76

25 51 76

25 51 76

25 51 76

25 51 76

25 51 76

25 51 76

25 51 76

25 51 76

25 51 76

25 51 76

25 51 76

25 51 76

25 51 76

25 51 76

25 51 76

25 51 76

25 51 76

25 51 76

25 51 76

25 51 76

25 51 76

25 51 76

25 51 76

25 51 76

25 51 76

25 51 76

25 51 76

25 51 76

25 51 76

25 51 76

25 51 76

25 51 76

25 51 76

25 51 76

25 51 76

25 51 76

25 51 76

25 51 76

25 51 76

25 51 76

25 51 76

25 51 76

25 51 76

25 51 76

25 51 76

25 51 76

25 51 76

25 51 76

25 51 76

25 51 76

25 51 76

25 51 76

25 51 76

25 51 76

25 51 76

25 51 76

25 51 76

25 51 76

25 51 76

25 51 76

25 51 76

25 51 76

25 51 76

25 51 76

25 51 76

25 51 76

25 51 76

25 51 76

25 51 76

25 51 76

25 51 76

25 51 76

25 51 76

25 51 76

25 51 76

25 51 76

25 51 76

25 51 76

25 51 76

25 51 76

25 51 76

25 51 76

25 51 76

25 51 76

25 51 76

25 51 76

25 51 76

25 51 76

25 51 76

25 51 76

25 51 76

25 51 76

25 51 76

25 51 76

25 51 76

25 51 76

25 51 76

25 51 76

25 51 76

25 51 76

25 51 76

25 51 76

25 51 76

25 51 76

25 51 76

25 51 76

25 51 76

25 51 76

25 51 76

25 51 76

25 51 76

25 51 76

25 51 76

25 51 76

25 51 76

25 51 76

25 51 76

25 51 76

25 51 76

25 51 76

25 51 76

25 51 76

25 51 76

25 51 76

25 51 76

25 51 76

25 51 76

25 51 76

25 51 76

25 51 76

25 51 76

25 51 76

25 51 76

25 51 76

25 51 76

25 51 76

25 51 76

25 51 76

25 51 76

25 51 76

25 51 76

25 51 76

25 51 76

25 51 76

25 51 76

25 51 76

25 51 76

25 51 76

25 51 76

25 51 76

25 51 76

25 51 76

25 51 76

25 51 76

25 51 76

25 51 76

25 51 76

25 51 76

25 51 76

25 51 76

25 51 76

25 51 76

25 51 76

25 51 76

25 51 76

25 51 76

25 51 76

25 51 76

25 51 76

25 51 76

25 51 76

25 51 76

25 51 76

25 51 76

25 51 76

25 51 76

25 51 76

25 51 76

25 51 76

25 51 76

25 51 76

25 51 76

25 51 76

25 51 76

25 51 76

25 51 76

25 51 76

25 51 76

25 51 76

25 51 76

25 51 76

25 51 76

25 51 76

25 51 76

25 51 76

25 51 76

25 51 76

25 51 76

25 51 76

25 51 76

25 51 76

25 51 76

25 51 76

25 51 76

25 51 76

25 51 76

25 51 76

25 51 76

25 51 76

25 51 76

25 51 76

25 51 76

25 51 76

25 51 76

25 51 76

25 51 76

25 51 76

25 51 76

25 51 76

25 51 76

25 51 76

25 51 76

25 51 76

25 51 76

25 51 76

25 51 76

25 51 76

25 51 76

25 51 76

25 51 76

25 51 76

25 51 76

25 51 76

25 51 76

25 51 76

25 51 76

25 51 76

25 51 76

25 51 76

25 51 76

25 51 76

25 51 76

25 51 76

25 51 76

25 51 76

25 51 76

25 51 76

25 51 76

25 51 76

25 51 76

25 51 76

25 51 76

25 51 76

25 51 76

25 51 76

25 51 76

25 51 76

25 51 76

25 51 76

25 51 76

25 51 76

25 51 76

25 51 76

25 51 76

25 51 76

25 51 76

25 51 76

25 51 76

25 51 76

25 51 76

25 51 76

25 51 76

25 51 76

25 51 76

25 51 76

25 51 76

25 51 76

25 51 76

25 51 76

25 51 76

25 51 76

25 51 76

25 51 76

25 51 76

25 51 76

25 51 76

25 51 76

25 51 76

25 51 76

25 51 76

25 51 76

25 51 76

25 51 76

25 51 76

25 51 76

25 51 76

25 51 76

25 51 76

25 51 76

25 51 76

25 51 76

25 51 76

25 51 76

25 51 76

25 51 76

25 51 76

25 51 76

25 51 76

25 51 76

25 51 76

25 51 76

25 51 76

25 51 76

25 51 76

25 51 76

25 51 76

25 51 76

25 51 76

25 51 76

25 51 76

25 51 76

25 51 76

25 51 76

25 51 76

25 51 76

25 51 76

25 51 76

25 51 76

25 51 76

25 51 76

25 51 76

25 51 76

25 51 76

25 51 76

25 51 76

25 51 76

25 51 76

25 51 76

25 51 76

25 51 76

25 51 76

25 51 76

25 51 76

25 51 76

25 51 76

25 51 76

25 51 76

25 51 76

25 51 76

25 51 76

25 51 76

25 51 76

25 51 76

25 51 76

25 51 76

25 51 76

25 51 76

25 51 76

25 51 76

25 51 76

25 51 76

25 51 76

25 51 76

25 51 76

25 51 76

25 51 76

25 51 76

25 51 76

25 51 76

25 51 76

25 51 76

25 51 76

25 51 76

25 51 76

25 51 76

25 51 76

25 51 76

25 51 76

25 51 76

25 51 76

25 51 76

25 51 76

25 51 76

25 51 76

25 51 76

25 51 76

25 51 76

25 51 76

25 51 76

25 51 76

25 51 76

25 51 76

25 51 76

25 51 76

25 51 76

25 51 76

25 51 76

25 51 76

25 51 76

25 51 76

25 51 76

25 51 76

25 51 76

25 51 76

25 51 76

25 51 76

25 51 76

25 51 76

25 51 76

25 51 76

25 51 76

25 51 76

25 51 76

25 51 76

25 51 76

25 51 76

25 51 76

25 51 76

25 51 76

25 51 76

25 51 76

25 51 76

25 51 76

25 51 76

25 51 76

25 51 76

25 51 76

25 51 76

25 51 76

25 51 76

25 51 76

25 51 76

25 51 76

25 51 76

25 51 76

25 51 76

25 51 76

25 51 76

25 51 76

25 51 76

25 51 76

25 51 76

25 51 76

25 51 76

25 51 76

25 51 76

25 51 76

25 51 76

25 51 76

25 51 76

25 51 76

25 51 76

25 51 76

25 51 76

25 51 76

25 51 76

25 51 76

25 51 76

25 51 76

25 51 76

25 51 76

25 51 76

25 51 76

25 51 76

25 51 76

25 51 76

25 51 76

25 51 76

25 51 76

25 51 76

25 51 76

25 51 76

25 51 76

25 51 76

25 51 76

25 51 76

25 51 76

25 51 76

25 51 76

25 51 76

25 51 76

25 51 76

25 51 76

25 51 76

25 51 76

25 51 76

25 51 76

25 51 76

25 51 76

25 51 76

25 51 76

25 51 76

25 51 76

25 51 76

25 51 76

25 51 76

25 51 76

25 51 76

25 51 76

25 51 76

25 51 76

25 51 76

25 51 76

25 51 76

25 51 76

25 51 76

25 51 76

25 51 76

25 51 76

25 51 76

25 51 76

25 51 76

25 51 76

25 51 76

25 51 76

25 51 76

25 51 76

25 51 76

25 51 76

25 51 76

25 51 76

25 51 76

25 51 76

25 51 76

25 51 76

25 51 76

25 51 76

25 51 76

25 51 76

25 51 76

25 51 76

25 51 76

25 51 76

25 51 76

25 51 76

25 51 76

25 51 76

25 51 76

25 51 76

25 51 76

25 51 76

25 51 76

25 51 76

25 51 76

25 51 76

25 51 76

25 51 76

25 51 76

25 51 76

25 51 76

25 51 76

25 51 76

25 51 76

25 51 76

25 51 76

25 51 76

25 51 76

25 51 76

25 51 76

25 51 76

25 51 76

25 51 76

25 51 76

25 51 76

25 51 76

25 51 76

25 51 76

25 51 76

25 51 76

25 51 76

25 51 76

25 51 76

25 51 76

25 51 76

25 51 76

25 51 76

25 51 76

25 51 76

25 51 76

25 51 76

25 51 76

25 51 76

25 51 76

25 51 76

25 51 76

25 51 76

25 51 76

25 51 76

25 51 76

25 51 76

25 51 76

25 51 76

25 51 76

25 51 76

25 51 76

25 51 76

25 51 76

25 51 76

25 51 76

25 51 76

25 51 76

25 51 76

25 51 76

25 51 76

25 51 76

25 51 76

25 51 76

25 51 76

25 51 76

25 51 76

25 51 76

25 51 76

25 51 76

25 51 76

25 51 76

25 51 76

25 51 76

25 51 76

25 51 76

25 51 76

25 51 76

25 51 76

25 51 76

25 51 76

25 51 76

25 51 76

25 51 76

25 51 76

25 51 76

25 51 76

25 51 76

25 51 76

25 51 76

25 51 76

25 51 76

25 51 76

25 51 76

25 51 76

25 51 76

25 51 76

25 51 76

25 51 76

25 51 76

25 51 76

25 51 76

25 51 76

25 51 76

25 51 76

25 51 76

25 51 76

25 51 76

25 51 76

25 51 76

25 51 76

25 51 76

25 51 76

25 51 76

25 51 76

25 51 76

25 51 76

25 51 76

25 51 76

25 51 76

25 51 76

25 51 76

25 51 76

25 51 76

25 51 76

25 51 76

25 51 76

25 51 76

25 51 76

25 51 76

25 51 76

25 51 76

25 51 76

25 51 76

25 51 76

25 51 76

25 51 76

25 51 76

25 51 76

25 51 76

25 51 76

25 51 76

25 51 76

25 51 76

25 51 76

25 51 76

25 51 76

25 51 76

25 51 76

25 51 76

25 51 76

25 51 76

25 51 76

25 51 76

25 51 76

25 51 76

25 51 76

25 51 76

25 51 76

25 51 76

25 51 76

25 51 76

25 51 76

25 51 76

25 51 76

25 51 76

25 51 76

25 51 76

25 51 76

25 51 76

25 51 76

25 51 76

25 51 76

25 51 76

25 51 76

25 51 76

25 51 76

25 51 76

25 51 76

25 51 76

25 51 76

25 51 76

25 51 76

25 51 76

25 51 76

25 51 76

25 51 76

25 51 76

25 51 76

25 51 76

25 51 76

25 51 76

25 51 76

25 51 76

25 51 76

25 51 76

25 51 76

25 51 76

25 51 76

25 51 76

25 51 76

25 51 76

25 51 76

25 51 76

25 51 76

25 51 76

25 51 76

25 51 76

25 51 76

25 51 76

25 51 76

25 51 76

25 51 76

25 51 76

25 51 76

25 51 76

25 51 76

25 51 76

25 51 76

25 51 76

25 51 76

25 51 76

25 51 76

25 51 76

25 51 76

25 51 76

25 51 76

25 51 76

25 51 76

25 51 76

25 51 76

25 51 76

25 51 76

25 51 76

25 51 76

25 51 76

25 51 76

25 51 76

25 51 76

25 51 76

25 51 76

25 51 76

25 51 76

25 51 76

25 51 76

25 51 76

25 51 76

25 51 76

25 51 76

25 51 76

25 51 76

25 51 76

25 51 76

25 51 76

25 51 76

25 51 76

25 51 76

25 51 76

25 51 76

25 51 76

25 51 76

25 51 76

25 51 76

25 51 76

25 51 76

25 51 76

25 51 76

25 51 76

25 51 76

25 51 76

25 51 76

25 51 76

25 51 76

25 51 76

25 51 76

25 51 76

25 51 76

25 51 76

25 51 76

25 51 76

25 51 76

25 51 76

25 51 76

25 51 76

25 51 76

25 51 76

25 51 76

25 51 76

25 51 76

25 51 76

25 51 76

25 51 76

25 51 76

25 51 76

25 51 76

25 51 76

25 51 76

25 51 76

25 51 76

25 51 76

25 51 76

25 51 76

25 51 76

25 51 76

25 51 76

25 51 76

25 51 76

25 51 76

25 51 76

25 51 76

25 51 76

25 51 76

25 51 76

25 51 76

25 51 76

25 51 76

25 51 76

25 51 76

25 51 76

25 51 76

25 51 76

25 51 76

25 51 76

25 51 76

25 51 76

25 51 76

25 51 76

25 51 76

25 51 76

25 51 76

25 51 76

25 51 76

25 51 76

25 51 76

25 51 76

25 51 76

25 51 76

25 51 76

25 51 76

25 51 76

25 51 76

25 51 76

25 51 76

25 51 76

25 51 76

25 51 76

25 51 76

25 51 76

25 51 76

25 51 76

25 51 76

25 51 76

25 51 76

25 51 76

25 51 76

25 51 76

25 51 76

25 51 76

25 51 76

25 51 76

25 51 76

25 51 76

25 51 76

25 51 76

25 51 76

25 51 76

25 51 76

25 51 76

25 51 76

25 51 76

25 51 76

25 51 76

25 51 76

25 51 76

25 51 76

25 51 76

25 51 76

25 51 76

25 51 76

25 51 76

25 51 76

25 51 76

25 51 76

25 51 76

25 51 76

25 51 76

25 51 76

25 51 76

25 51 76

25 51 76

25 51 76

25 51 76

25 51 76

25 51 76

25 51 76

25 51 76

25 51 76

25 51 76

25 51 76

25 51 76

25 51 76

25 51 76

25 51 76

25 51 76

25 51 76

25 51 76

25 51 76

25 51 76

25 51 76

25 51 76

25 51 76

25 51 76

25 51 76

25 51 76

25 51 76

25 51 76

25 51 76

25 51 76

25 51 76

25 51 76

25 51 76

25 51 76

25 51 76

25 51 76

25 51 76

25 51 76

25 51 76

25 51 76

25 51 76

25 51 76

25 51 76

25 51 76

25 51 76

25 51 76

25 51 76

25 51 76

25 51 76

25 51 76

25 51 76

25 51 76

25 51 76

25 51 76

25 51 76

25 51 76

25 51 76

25 51 76

25 51 76

25 51 76

25 51 76

25 51 76

25 51 76

25 51 76

25 51 76

25 51 76

25 51 76

25 51 76

25 51 76

25 51 76

25 51 76

25 51 76

25 51 76

25 51 76

25 51 76

25 51 76

25 51 76

25 51 76

25 51 76

25 51 76

25 51 76

25 51 76

25 51 76

25 51 76

25 51 76

25 51 76

25 51 76

25 51 76

25 51 76

25 51 76

25 51 76

25 51 76

25 51 76

25 51 76

25 51 76

25 51 76

25 51 76

25 51 76

25 51 76

25 51 76

25 51 76

25 51 76

25 51 76

25 51 76

25 51 76

25 51 76

25 51 76

25 51 76

25 51 76

25 51 76

25 51 76

25 51 76

25 51 76

25 51 76

25 51 76

25 51 76

25 51 76

25 51 76

25 51 76

25 51 76

25 51 76

25 51 76

25 51 76

25 51 76

25 51 76

25 51 76

25 51 76

25 51 76

25 51 76

25 51 76

25 51 76

25 51 76

25 51 76

25 51 76

25 51 76

25 51 76

25 51 76

25 51 76

25 51 76

25 51 76

25 51 76

25 51 76

25 51 76

25 51 76

25 51 76

25 51 76

25 51 76

25 51 76

25 51 76

25 51 76

25 51 76

25 51 76

25 51 76

25 51 76

25 51 76

25 51 76

25 51 76

25 51 76

25 51 76

25 51 76

25 51 76

25 51 76

25 51 76

25 51 76

25 51 76

25 51 76

25 51 76

25 51 76

25 51 76

25 51 76

25 51 76

25 51 76

25 51 76

25 51 76

25 51 76

25 51 76

25 51 76

25 51 76

25 51 76

25 51 76

25 51 76

25 51 76

25 51 76

25 51 76

25 51 76

25 51 76

25 51 76

25 51 76

25 51 76

25 51 76

25 51 76

25 51 76

25 51 76

25 51 76

25 51 76

25 51 76

25 51 76

25 51 76

25 51 76

25 51 76

25 51 76

25 51 76

25 51 76

25 51 76

25 51 76

25 51 76

25 51 76

25 51 76

25 51 76

25 51 76

25 51 76

25 51 76

25 51 76

25 51 76

25 51 76

25 51 76

25 51 76

25 51 76

25 51 76

25 51 76

25 51 76

25 51 76

25 51 76

25 51 76

25 51 76

25 51 76

25 51 76

25 51 76

25 51 76

25 51 76

25 51 76

25 51 76

25 51 76

25 51 76

25 51 76

25 51 76

25 51 76

25 51 76

25 51 76

25 51 76

25 51 76

25 51 76

25 51 76

25 51 76

25 51 76

25 51 76

25 51 76

25 51 76

25 51 76

25 51 76

25 51 76

25 51 76

25 51 76

25 51 76

25 51 76

25 51 76

25 51 76

25 51 76

25 51 76

25 51 76

25 51 76

25 51 76

25 51 76

25 51 76

25 51 76

25 51 76

25 51 76

25 51 76

25 51 76

25 51 76

25 51 76

25 51 76

25 51 76

25 51 76

25 51 76

25 51 76

25 51 76

25 51 76

25 51 76

25 51 76

25 51 76

25 51 76

25 51 76

25 51 76

25 51 76

25 51 76

25 51 76

25 51 76

25 51 76

25 51 76

25 51 76

25 51 76

25 51 76

25 51 76

25 51 76

25 51 76

25 51 76

25 51 76

25 51 76

25 51 76

25 51 76

25 51 76

25 51 76

25 51 76

25 51 76

25 51 76

25 51 76

25 51 76

25 51 76

25 51 76

25 51 76

25 51 76

25 51 76

25 51 76

25 51 76

25 51 76

25 51 76

25 51 76

25 51 76

25 51 76

25 51 76

25 51 76

25 51 76

25 51 76

25 51 76

25 51 76

25 51 76

25 51 76

25 51 76

25 51 76

25 51 76

25 51 76

25 51 76

25 51 76

25 51 76

25 51 76

25 51 76

25 51 76

25 51 76

25 51 76

25 51 76

25 51 76

25 51 76

25 51 76

25 51 76

25 51 76

25 51 76

25 51 76

25 51 76

25 51 76

25 51 76

25 51 76

25 51 76

25 51 76

25 51 76

25 51 76

25 51 76

25 51 76

25 51 76

25 51 76

25 51 76

25 51 76

25 51 76

25 51 76

25 51 76

25 51 76

25 51 76

25 51 76

25 51 76

25 51 76

25 51 76

25 51 76

25 51 76

25 51 76

25 51 76

25 51 76

25 51 76

25 51 76

25 51 76

25 51 76

25 51 76

25 51 76

25 51 76

25 51 76

25 51 76

25 51 76

25 51 76

25 51 76

25 51 76

25 51 76

25 51 76

25 51 76

25 51 76

25 51 76

25 51 76

25 51 76

25 51 76

25 51 76

25 51 76

25 51 76

25 51 76

25 51 76

25 51 76

25 51 76

25 51 76

25 51 76

25 51 76

25 51 76

25 51 76

25 51 76

25 51 76

25 51 76

25 51 76

25 51 76

25 51 76

25 51 76

25 51 76

25 51 76

25 51 76

25 51 76

25 51 76

25 51 76

25 51 76

25 51 76

25 51 76

25 51 76

25 51 76

25 51 76

25 51 76

25 51 76

25 51 76

25 51 76

25 51 76

25 51 76

25 51 76

25 51 76

25 51 76

25 51 76

25 51 76

25 51 76

25 51 76

25 51 76

25 51 76

25 51 76

25 51 76

25 51 76

25 51 76

25 51 76

25 51 76

25 51 76

25 51 76

25 51 76

25 51 76

25 51 76

25 51 76

25 51 76

25 51 76

25 51 76

25 51 76

25 51 76

25 51 76

25 51 76

25 51 76

25 51 76

25 51 76

25 51 76

25 51 76

25 51 76

25 51 76

25 51 76

25 51 76

25 51 76

25 51 76

25 51 76

25 51 76

25 51 76

25 51 76

25 51 76

25 51 76

25 51 76

25 51 76

25 51 76

25 51 76

25 51 76

25 51 76

25 51 76

25 51 76

25 51 76

25 51 76

25 51 76

25 51 76

25 51 76

25 51 76

25 51 76

25 51 76

25 51 76

25 51 76

25 51 76

25 51 76

25 51 76

25 51 76

25 51 76

25 51 76

25 51 76

25 51 76

25 51 76

25 51 76

25 51 76

25 51 76

25 51 76

25 51 76

25 51 76

25 51 76

25 51 76

25 51 76

25 51 76

25 51 76

25 51 76

25 51 76

25 51 76

25 51 76

25 51 76

25 51 76

25 51 76

25 51 76

25 51 76

25 51 76

25 51 76

25 51 76

25 51 76

25 51 76

25 51 76

25 51 76

25 51 76

25 51 76

25 51 76

25 51 76

25 51 76

25 51 76

25 51 76

25 51 76

25 51 76

25 51 76

25 51 76

25 51 76

25 51 76

25 51 76

25 51 76

25 51 76

25 51 76

25 51 76

25 51 76

25 51 76

25 51 76

25 51 76

25 51 76

25 51 76

25 51 76

25 51 76

25 51 76

25 51 76

25 51 76

25 51 76

25 51 76

25 51 76

25 51 76

25 51 76

25 51 76

25 51 76

25 51 76

25 51 76

25 51 76

25 51 76

25 51 76

25 51 76

25 51 76

25 51 76

25 51 76

25 51 76

25 51 76

25 51 76

25 51 76

25 51 76

25 51 76

25 51 76

25 51 76

25 51 76

25 51 76

25 51 76

25 51 76

25 51 76

25 51 76

25 51 76

25 51 76

25 51 76

25 51 76

25 51 76

25 51 76

25 51 76

25 51 76

25 51 76

25 51 76

25 51 76

25 51 76

25 51 76

25 51 76

25 51 76

25 51 76

25 51 76

25 51 76

25 51 76

25 51 76

25 51 76

25 51 76

25 51 76

25 51 76

25 51 76

25 51 76

25 51 76

25 51 76

25 51 76

25 51 76

25 51 76

25 51 76

25 51 76

25 51 76

25 51 76

25 51 76

25 51 76

25 51 76

25 51 76

25 51 76

25 51 76

25 51 76

25 51 76

25 51 76

25 51 76

25 51 76

25 51 76

25 51 76

25 51 76

25 51 76

25 51 76

25 51 76

25 51 76

25 51 76

25 51 76

25 51 76

25 51 76

25 51 76

25 51 76

25 51 76

25 51 76

25 51 76

25 51 76

25 51 76

25 51 76

25 51 76

25 51 76

25 51 76

25 51 76

25 51 76

25 51 76

25 51 76

25 51 76

25 51 76

25 51 76

25 51 76

25 51 76

25 51 76

25 51 76

25 51 76

25 51 76

25 51 76

25 51 76

25 51 76

25 51 76

25 51 76

25 51 76

25 51 76

25 51 76

25 51 76

25 51 76

25 51 76

25 51 76

25 51 76

25 51 76

25 51 76

25 51 76

25 51 76

25 51 76

25 51 76

25 51 76

25 51 76

25 51 76

25 51 76

25 51 76

25 51 76

25 51 76

25 51 76

25 51 76

25 51 76

25 51 76

25 51 76

25 51 76

25 51 76

25 51 76

25 51 76

25 51 76

25 51 76

25 51 76

25 51 76

25 51 76

25 51 76

25 51 76

25 51 76

25 51 76

25 51 76

25 51 76

25 51 76

25 51 76

25 51 76

25 51 76

25 51 76

25 51 76

25 51 76

25 51 76

25 51 76

25 51 76

25 51 76

25 51 76

25 51 76

25 51 76

25 51 76

25 51 76

25 51 76

25 51 76

25 51 76

25 51 76

25 51 76

25 51 76

25 51 76

25 51 76

25 51 76

25 51 76

25 51 76

25 51 76

25 51 76

25 51 76

25 51 76

25 51 76

25 51 76

25 51 76

25 51 76

25 51 76

25 51 76

25 51 76

25 51 76

25 51 76

25 51 76

25 51 76

25 51 76

25 51 76

25 51 76

25 51 76

25 51 76

25 51 76

25 51 76

25 51 76

25 51 76

25 51 76

25 51 76

25 51 76

25 51 76

25 51 76

25 51 76

25 51 76

25 51 76

25 51 76

25 51 76

25 51 76

25 51 76

25 51 76

25 51 76

25 51 76

25 51 76

25 51 76

25 51 76

25 51 76

25 51 76

25 51 76

25 51 76

25 51 76

25 51 76

25 51 76

25 51 76

25 51 76

25 51 76

25 51 76

25 51 76

25 51 76

25 51 76

25 51 76

25 51 76

25 51 76

25 51 76

25 51 76

25 51 76

25 51 76

25 51 76

25 51 76

25 51 76

25 51 76

25 51 76

25 51 76

25 51 76

25 51 76

25 51 76

25 51 76

25 51 76

25 51 76

25 51 76

25 51 76

25 51 76

25 51 76

25 51 76

25 51 76

25 51 76

25 51 76

25 51 76

25 51 76

25 51 76

25 51 76

25 51 76

25 51 76

25 51 76

25 51 76

25 51 76

25 51 76

25 51 76

25 51 76

25 51 76

25 51 76

25 51 76

25 51 76

25 51 76

25 51 76

25 51 76

25 51 76

25 51 76

25 51 76

25 51 76

25 51 76

25 51 76

25 51 76

25 51 76

25 51 76

25 51 76

25 51 76

25 51 76

25 51 76

25 51 76

25 51 76

25 51 76

25 51 76

25 51 76

25 51 76

25 51 76

25 51 76

25 51 76

25 51 76

25 51 76

25 51 76

25 51 76

25 51 76

25 51 76

25 51 76

25 51 76

25 51 76

25 51 76

25 51 76

25 51 76

25 51 76

25 51 76

25 51 76

25 51 76

25 51 76

25 51 76

25 51 76

25 51 76

25 51 76

25 51 76

25 51 76

25 51 76

25 51 76

25 51 76

25 51 76

25 51 76

25 51 76

25 51 76

25 51 76

25 51 76

25 51 76

25 51 76

25 51 76

25 51 76

25 51 76

25 51 76

25 51 76

25 51 76

25 51 76

25 51 76

25 51 76

25 51 76

25 51 76

25 51 76

25 51 76

25 51 76

25 51 76

25 51 76

25 51 76

25 51 76

25 51 76

25 51 76

25 51 76

25 51 76

25 51 76

25 51 76

25 51 76

25 51 76

25 51 76

25 51 76

25 51 76

25 51 76

25 51 76

25 51 76

25 51 76

25 51 76

25 51 76

25 51 76

25 51 76

25 51 76

25 51 76

25 51 76

25 51 76

25 51 76

25 51 76

25 51 76

25 51 76

25 51 76

25 51 76

25 51 76

25 51 76

25 51 76

25 51 76

25 51 76

25 51 76

25 51 76

25 51 76

25 51 76

25 51 76

25 51 76

25 51 76

25 51 76

25 51 76

25 51 76

25 51 76

25 51 76

25 51 76

25 51 76

25 51 76

25 51 76

25 51 76

25 51 76

25 51 76

25 51 76

25 51 76

25 51 76

25 51 76

25 51 76

25 51 76

25 51 76

25 51 76

25 51 76

25 51 76

25 51 76

25 51 76

25 51 76

25 51 76

25 51 76

25 51 76

25 51 76

25 51 76

25 51 76

25 51 76

25 51 76

25 51 76

25 51 76

25 51 76

25 51 76

25 51 76

25 51 76

25 51 76

25 51 76

25 51 76

25 51 76

25 51 76

25 51 76

25 51 76

25 51 76

25 51 76

25 51 76

25 51 76

25 51 76

25 51 76

25 51 76

25 51 76

25 51 76

25 51 76

25 51 76

25 51 76

25 51 76

25 51 76

25 51 76

25 51 76

25 51 76

25 51 76

25 51 76

25 51 76

25 51 76

25 51 76

25 51 76

25 51 76

25 51 76

25 51 76

25 51 76

25 51 76

25 51 76

25 51 76

25 51 76

25 51 76

25 51 76

25 51 76

25 51 76

25 51 76

25 51 76

25 51 76

25 51 76

25 51 76

25 51 76

25 51 76

25 51 76

25 51 76

25 51 76

25 51 76

25 51 76

25 51 76

25 51 76

25 51 76

25 51 76

25 51 76

25 51 76

25 51 76

25 51 76

25 51 76

25 51 76

25 51 76

25 51 76

25 51 76

25 51 76

25 51 76

25 51 76

25 51 76

25 51 76

25 51 76

25 51 76

25 51 76

25 51 76

25 51 76

25 51 76

25 51 76

25 51 76

25 51 76

25 51 76

25 51 76

25 51 76

25 51 76

25 51 76

25 51 76

25 51 76

25 51 76

25 51 76

25 51 76

25 51 76

25 51 76

25 51 76

25 51 76

25 51 76

25 51 76

25 51 76

25 51 76

25 51 76

25 51 76

25 51 76

25 51 76

25 51 76

25 51 76

25 51 76

25 51 76

25 51 76

25 51 76

25 51 76

25 51 76

25 51 76

25 51 76

25 51 76

25 51 76

25 51 76

25 51 76

25 51 76

25 51 76

25 51 76

25 51 76

25 51 76

25 51 76

25 51 76

25 51 76

25 51 76

25 51 76

25 51 76

25 51 76

25 51 76

25 51 76

25 51 76

25 51 76

25 51 76

25 51 76

25 51 76

25 51 76

25 51 76

25 51 76

25 51 76

25 51 76

25 51 76

25 51 76

25 51 76

25 51 76

25 51 76

25 51 76

25 51 76

25 51 76

25 51 76

25 51 76

25 51 76

25 51 76

25 51 76

25 51 76

25 51 76

25 51 76

25 51 76

25 51 76

25 51 76

25 51 76

25 51 76

25 51 76

25 51 76

25 51 76

25 51 76

25 51 76

25 51 76

25 51 76

25 51 76

25 51 76

25 51 76

25 51 76

25 51 76

25 51 76

25 51 76

25 51 76

25 51 76

25 51 76

25 51 76

25 51 76

25 51 76

25 51 76

25 51 76

25 51 76

25 51 76

25 51 76

25 51 76

25 51 76

25 51 76

25 51 76

25 51 76

25 51 76

25 51 76

25 51 76

25 51 76

25 51 76

25 51 76

25 51 76

25 51 76

25 51 76

25 51 76

25 51 76

25 51 76

25 51 76

25 51 76

25 51 76

25 51 76

25 51 76

25 51 76

25 51 76

25 51 76

25 51 76

25 51 76

25 51 76

25 51 76

25 51 76

25 51 76

25 51 76

25 51 76

25 51 76

25 51 76

25 51 76

25 51 76

25 51 76

25 51 76

25 51 76

25 51 76

25 51 76

25 51 76

25 51 76

25 51 76

25 51 76

25 51 76

25 51 76

25 51 76

25 51 76

25 51 76

25 51 76

25 51 76

25 51 76

25 51 76

25 51 76

25 51 76

25 51 76

25 51 76

25 51 76

25 51 76

25 51 76

25 51 76

25 51 76

25 51 76

25 51 76

25 51 76

25 51 76

25 51 76

25 51 76

25 51 76

25 51 76

25 51 76

25 51 76

25 51 76

25 51 76

25 51 76

25 51 76

25 51 76

25 51 76

25 51 76

25 51 76

25 51 76

25 51 76

25 51 76

25 51 76

25 51 76

25 51 76

25 51 76

25 51 76

25 51 76

25 51 76

25 51 76

25 51 76

25 51 76

25 51 76

25 51 76

25 51 76

25 51 76

25 51 76

25 51 76

25 51 76

25 51 76

25 51 76

25 51 76

25 51 76

25 51 76

25 51 76

25 51 76

25 51 76

25 51 76

25 51 76

25 51 76

25 51 76

25 51 76

25 51 76

25 51 76

25 51 76

25 51 76

25 51 76

25 51 76

25 51 76

25 51 76

25 51 76

25 51 76

25 51 76

25 51 76

25 51 76

25 51 76

25 51 76

25 51 76

25 51 76

25 51 76

25 51 76

25 51 76

25 51 76

25 51 76

25 51 76

25 51 76

25 51 76

25 51 76

25 51 76

25 51 76

25 51 76

25 51 76

25 51 76

25 51 76

25 51 76

25 51 76

25 51 76

25 51 76

25 51 76

25 51 76

25 51 76

25 51 76

25 51 76

25 51 76

25 51 76

25 51 76

25 51 76

25 51 76

25 51 76

25 51 76

25 51 76

25 51 76

25 51 76

25 51 76

25 51 76

25 51 76

25 51 76

25 51 76

25 51 76

25 51 76

25 51 76

25 51 76

25 51 76

25 51 76

25 51 76

25 51 76

25 51 76

25 51 76

25 51 76

25 51 76

25 51 76

25 51 76

25 51 76

25 51 76

25 51 76

25 51 76

25 51 76

25 51 76

25 51 76

25 51 76

25 51 76

25 51 76

25 51 76

25 51 76

25 51 76

25 51 76

25 51 76

25 51 76

25 51 76

25 51 76

25 51 76

25 51 76

25 51 76

25 51 76

25 51 76

25 51 76

25 51 76

25 51 76

25 51 76

25 51 76

25 51 76

25 51 76

25 51 76

25 51 76

25 51 76

25 51 76

25 51 76

25 51 76

25 51 76

25 51 76

25 51 76

25 51 76

25 51 76

25 51 76

25 51 76

25 51 76

25 51 76

25 51 76

25 51 76

25 51 76

25 51 76

25 51 76

25 51 76

25 51 76

25 51 76

25 51 76

25 51 76

25 51 76

25 51 76

25 51 76

25 51 76

25 51 76

25 51 76

25 51 76

25 51 76

25 51 76

25 51 76

25 51 76

25 51 76

25 51 76

25 51 76

25 51 76

25 51 76

25 51 76

25 51 76

25 51 76

25 51 76

25 51 76

25 51 76

25 51 76

25 51 76

25 51 76

25 51 76

25 51 76

25 51 76

25 51 76

25 51 76

25 51 76

25 51 76

25 51 76

25 51 76

25 51 76

25 51 76

25 51 76

25 51 76

25 51 76

25 51 76

25 51 76

25 51 76

25 51 76

25 51 76

25 51 76

25 51 76

25 51 76

25 51 76

25 51 76

25 51 76

25 51 76

25 51 76

25 51 76

25 51 76

25 51 76

25 51 76

25 51 76

25 51 76

25 51 76

25 51 76

25 51 76

25 51 76

25 51 76

25 51 76

25 51 76

25 51 76

25 51 76

25 51 76

25 51 76

25 51 76

25 51 76

25 51 76

25 51 76

25 51 76

25 51 76

25 51 76

25 51 76

25 51 76

25 51 76

25 51 76

25 51 76

25 51 76

25 51 76

25 51 76

25 51 76

25 51 76

25 51 76

25 51 76

25 51 76

25 51 76

25 51 76

25 51 76

25 51 76

25 51 76

25 51 76

25 51 76

25 51 76

25 51 76

25 51 76

25 51 76

25 51 76

25 51 76

25 51 76

25 51 76

25 51 76

25 51 76

25 51 76

25 51 76

25 51 76

25 51 76

25 51 76

25 51 76

25 51 76

25 51 76

25 51 76

25 51 76

25 51 76

25 51 76

25 51 76

25 51 76

25 51 76

25 51 76

25 51 76

25 51 76

25 51 76

25 51 76

25 51 76

25 51 76

25 51 76

25 51 76

25 51 76

25 51 76

25 51 76

25 51 76

25 51 76

25 51 76

25 51 76

25 51 76

25 51 76

25 51 76

25 51 76

25 51 76

25 51 76

25 51 76

25 51 76

25 51 76

25 51 76

25 51 76

25 51 76

25 51 76

25 51 76

25 51 76

25 51 76

25 51 76

25 51 76

25 51 76

25 51 76

25 51 76

25 51 76

25 51 76

25 51 76

25 51 76

25 51 76

25 51 76

25 51 76

25 51 76

25 51 76

25 51 76

25 51 76

25 51 76

25 51 76

25 51 76

25 51 76

25 51 76

25 51 76

25 51 76

25 51 76

25 51 76

25 51 76

25 51 76

25 51 76

25 51 76

25 51 76

25 51 76

25 51 76

25 51 76

25 51 76

25 51 76

25 51 76

25 51 76

25 51 76

25 51 76

25 51 76

25 51 76

25 51 76

25 51 76

25 51 76

25 51 76

25 51 76

25 51 76

25 51 76

25 51 76

25 51 76

25 51 76

25 51 76

25 51 76

25 51 76

25 51 76

25 51 76

25 51 76

25 51 76

25 51 76

25 51 76

25 51 76

25 51 76

25 51 76

25 51 76

25 51 76

25 51 76

25 51 76

25 51 76

25 51 76

25 51 76

25 51 76

25 51 76

25 51 76

25 51 76

25 51 76

25 51 76

25 51 76

25 51 76

25 51 76

25 51 76

25 51 76

25 51 76

25 51 76

25 51 76

25 51 76

25 51 76

25 51 76

25 51 76

25 51 76

25 51 76

25 51 76

25 51 76

25 51 76

25 51 76

25 51 76

25 51 76

25 51 76

25 51 76

25 51 76

25 51 76

25 51 76

25 51 76

25 51 76

25 51 76

25 51 76

25 51 76

25 51 76

25 51 76

25 51 76

25 51 76

25 51 76

25 51 76

25 51 76

25 51 76

25 51 76

25 51 76

25 51 76

25 51 76

25 51 76

25 51 76

25 51 76

25 51 76

25 51 76

25 51 76

25 51 76

25 51 76

25 51 76

25 51 76

25 51 76

25 51 76

25 51 76

25 51 76

25 51 76

25 51 76

25 51 76

25 51 76

25 51 76

25 51 76

25 51 76

25 51 76

25 51 76

25 51 76

25 51 76

25 51 76

25 51 76

25 51 76

25 51 76

25 51 76

25 51 76

25 51 76

25 51 76

25 51 76

25 51 76

25 51 76

25 51 76

25 51 76

25 51 76

25 51 76

25 51 76

25 51 76

25 51 76

25 51 76

25 51 76

25 51 76

25 51 76

25 51 76

25 51 76

25 51 76

25 51 76

25 51 76

25 51 76

25 51 76

25 51 76

25 51 76

25 51 76

25 51 76

25 51 76

25 51 76

25 51 76

25 51 76

25 51 76

25 51 76

25 51 76

25 51 76

25 51 76

25 51 76

25 51 76

25 51 76

25 51 76

25 51 76

25 51 76

25 51 76

25 51 76

25 51 76

25 51 76

25 51 76

25 51 76

25 51 76

25 51 76

25 51 76

25 51 76

25 51 76

25 51 76

25 51 76

25 51 76

25 51 76

25 51 76

25 51 76

25 51 76

25 51 76

25 51 76

25 51 76

25 51 76

25 51 76

25 51 76

25 51 76

25 51 76

25 51 76

25 51 76

25 51 76

25 51 76

25 51 76

25 51 76

25 51 76

25 51 76

25 51 76

25 51 76

25 51 76

25 51 76

25 51 76

25 51 76

25 51 76

25 51 76

25 51 76

25 51 76

25 51 76

25 51 76

25 51 76

25 51 76

25 51 76

25 51 76

25 51 76

25 51 76

25 51 76

25 51 76

25 51 76

25 51 76

25 51 76

25 51 76

25 51 76

25 51 76

25 51 76

25 51 76

25 51 76

25 51 76

25 51 76

25 51 76

25 51 76

25 51 76

25 51 76

25 51 76

25 51 76

25 51 76

25 51 76

25 51 76

25 51 76

25 51 76

25 51 76

25 51 76

25 51 76

25 51 76

25 51 76

25 51 76

25 51 76

25 51 76

25 51 76

25 51 76

25 51 76

25 51 76

25 51 76

25 51 76

25 51 76

25 51 76

25 51 76

25 51 76

25 51 76

25 51 76

25 51 76

25 51 76

25 51 76

25 51 76

25 51 76

25 51 76

25 51 76

25 51 76

25 51 76

25 51 76

25 51 76

25 51 76

25 51 76

25 51 76

25 51 76

25 51 76

25 51 76

25 51 76

25 51 76

25 51 76

25 51 76

25 51 76

25 51 76

25 51 76

25 51 76

25 51 76

25 51 76

25 51 76

25 51 76

25 51 76

25 51 76

25 51 76

25 51 76

25 51 76

25 51 76

25 51 76

25 51 76

25 51 76

25 51 76

25 51 76

25 51 76

25 51 76

25 51 76

25 51 76

25 51 76

25 51 76

25 51 76

25 51 76

25 51 76

25 51 76

25 51 76

25 51 76

25 51 76

25 51 76

25 51 76

25 51 76

25 51 76

25 51 76

25 51 76

25 51 76

25 51 76

25 51 76

25 51 76

25 51 76

25 51 76

25 51 76

25 51 76

25 51 76

25 51 76

25 51 76

25 51 76

25 51 76

25 51 76

25 51 76

25 51 76

25 51 76

25 51 76

25 51 76

25 51 76

25 51 76

25 51 76

25 51 76

25 51 76

25 51 76

25 51 76

25 51 76

25 51 76

25 51 76

25 51 76

25 51 76

25 51 76

25 51 76

25 51 76

25 51 76

25 51 76

25 51 76

25 51 76

25 51 76

25 51 76

25 51 76

25 51 76

25 51 76

25 51 76

25 51 76

25 51 76

25 51 76

25 51 76

25 51 76

25 51 76

25 51 76

25 51 76

25 51 76

25 51 76

25 51 76

25 51 76

25 51 76

25 51 76

25 51 76

25 51 76

25 51 76

25 51 76

25 51 76

25 51 76

25 51 76

25 51 76

25 51 76

25 51 76

25 51 76

25 51 76

25 51 76

25 51 76

25 51 76

25 51 76

25 51 76

25 51 76

25 51 76

25 51 76

25 51 76

25 51 76

25 51 76

25 51 76

25 51 76

25 51 76

25 51 76

25 51 76

25 51 76

25 51 76

25 51 76

25 51 76

25 51 76

25 51 76

25 51 76

25 51 76

25 51 76

25 51 76

25 51 76

25 51 76

25 51 76

25 51 76

25 51 76

25 51 76

25 51 76

25 51 76

25 51 76

25 51 76

25 51 76

25 51 76

25 51 76

25 51 76

25 51 76

25 51 76

25 51 76

25 51 76

25 51 76

25 51 76

25 51 76

25 51 76

25 51 76

25 51 76

25 51 76

25 51 76

25 51 76

25 51 76

25 51 76

25 51 76

25 51 76

25 51 76

25 51 76

25 51 76

25 51 76

25 51 76

25 51 76

25 51 76

25 51 76

25 51 76

25 51 76

25 51 76

25 51 76

25 51 76

25 51 76

25 51 76

25 51 76

25 51 76

25 51 76

25 51 76

25 51 76

25 51 76

25 51 76

25 51 76

25 51 76

25 51 76

25 51 76

25 51 76

25 51 76

25 51 76

25 51 76

25 51 76

25 51 76

25 51 76

25 51 76

25 51 76

25 51 76

25 51 76

25 51 76

25 51 76

25 51 76

25 51 76

25 51 76

25 51 76

25 51 76

25 51 76

25 51 76

25 51 76

25 51 76

25 51 76

25 51 76

25 51 76

25 51 76

25 51 76

25 51 76

25 51 76

25 51 76

25 51 76

25 51 76

25 51 76

25 51 76

25 51 76

25 51 76

25 51 76

25 51 76

25 51 76

25 51 76

25 51 76

25 51 76

25 51 76

25 51 76

25 51 76

25 51 76

25 51 76

25 51 76

25 51 76

25 51 76

25 51 76

25 51 76

25 51 76

25 51 76

25 51 76

25 51 76

25 51 76

25 51 76

25 51 76

25 51 76

25 51 76

25 51 76

25 51 76

25 51 76

25 51 76

25 51 76

25 51 76

25 51 76

25 51 76

25 51 76

25 51 76

25 51 76

25 51 76

25 51 76

25 51 76

25 51 76

25 51 76

25 51 76

25 51 76

25 51 76

25 51 76

25 51 76

25 51 76

25 51 76

25 51 76

25 51 76

25 51 76

25 51 76

25 51 76

25 51 76

25 51 76

25 51 76

25 51 76

25 51 76

25 51 76

25 51 76

25 51 76

25 51 76

25 51 76

25 51 76

25 51 76

25 51 76

25 51 76

25 51 76

25 51 76

25 51 76

25 51 76

25 51 76

25 51 76

25 51 76

25 51 76

25 51 76

25 51 76

25 51 76

25 51 76

25 51 76

25 51 76

25 51 76

25 51 76

25 51 76

25 51 76

25 51 76

25 51 76

25 51 76

25 51 76

25 51 76

25 51 76

25 51 76

25 51 76

25 51 76

25 51 76

25 51 76

25 51 76

25 51 76

25 51 76

25 51 76

25 51 76

25 51 76

25 51 76

25 51 76

25 51 76

25 51 76

25 51 76

25 51 76

25 51 76

25 51 76

25 51 76

25 51 76

25 51 76

25 51 76

25 51 76

25 51 76

25 51 76

25 51 76

25 51 76

25 51 76

25 51 76

25 51 76

25 51 76

25 51 76

25 51 76

25 51 76

25 51 76

25 51 76

25 51 76

25 51 76

25 51 76

25 51 76

25 51 76

25 51 76

25 51 76

25 51 76

25 51 76

25 51 76

25 51 76

25 51 76

25 51 76

25 51 76

25 51 76

25 51 76

25 51 76

25 51 76

25 51 76

25 51 76

25 51 76

25 51 76

25 51 76

25 51 76

25 51 76

25 51 76

25 51 76

25 51 76

25 51 76

25 51 76

25 51 76

25 51 76

25 51 76

25 51 76

25 51 76

25 51 76

25 51 76

25 51 76

25 51 76

25 51 76

25 51 76

25 51 76

25 51 76

25 51 76

25 51 76

25 51 76

25 51 76

25 51 76

25 51 76

25 51 76

25 51 76

25 51 76

25 51 76

25 51 76

25 51 76

25 51 76

25 51 76

25 51 76

25 51 76

25 51 76

25 51 76

25 51 76

25 51 76

25 51 76

25 51 76

25 51 76

25 51 76

25 51 76

25 51 76

25 51 76

25 51 76

25 51 76

25 51 76

25 51 76

25 51 76

25 51 76

25 51 76

25 51 76

25 51 76

25 51 76

25 51 76

25 51 76

25 51 76

25 51 76

25 51 76

25 51 76

25 51 76

25 51 76

25 51 76

25 51 76

25 51 76

25 51 76

25 51 76

25 51 76

25 51 76

25 51 76

25 51 76

25 51 76

25 51 76

25 51 76

25 51 76

25 51 76

25 51 76

25 51 76

25 51 76

25 51 76

25 51 76

25 51 76

25 51 76

25 51 76

25 51 76

25 51 76

25 51 76

25 51 76

25 51 76

25 51 76

25 51 76

25 51 76

25 51 76

25 51 76

25 51 76

25 51 76

25 51 76

25 51 76

25 51 76

25 51 76

25 51 76

25 51 76

25 51 76

25 51 76

25 51 76

25 51 76

25 51 76

25 51 76

25 51 76

25 51 76

25 51 76

25 51 76

25 51 76

25 51 76

25 51 76

25 51 76

25 51 76

25 51 76

25 51 76

25 51 76

25 51 76

25 51 76

25 51 76

25 51 76

25 51 76

25 51 76

25 51 76

25 51 76

25 51 76

25 51 76

25 51 76

25 51 76

25 51 76

25 51 76

25 51 76

25 51 76

25 51 76

25 51 76

25 51 76

25 51 76

25 51 76

25 51 76

25 51 76

25 51 76

25 51 76

25 51 76

25 51 76

25 51 76

25 51 76

25 51 76

25 51 76

25 51 76

25 51 76

25 51 76

25 51 76

25 51 76

25 51 76

25 51 76

25 51 76

25 51 76

25 51 76

25 51 76

25 51 76

25 51 76

25 51 76

25 51 76

25 51 76

25 51 76

25 51 76

25 51 76

25 51 76

25 51 76

25 51 76

25 51 76

25 51 76

25 51 76

25 51 76

25 51 76

25 51 76

25 51 76

25 51 76

25 51 76

25 51 76

25 51 76

25 51 76

25 51 76

25 51 76

25 51 76

25 51 76

25 51 76

25 51 76

25 51 76

25 51 76

25 51 76

25 51 76

25 51 76

25 51 76

25 51 76

25 51 76

25 51 76

25 51 76

25 51 76

25 51 76

25 51 76

25 51 76

25 51 76

25 51 76

25 51 76

25 51 76

25 51 76

25 51 76

25 51 76

25 51 76

25 51 76

25 51 76

25 51 76

25 51 76

25 51 76

25 51 76

25 51 76

25 51 76

25 51 76

25 51 76

25 51 76

25 51 76

25 51 76

25 51 76

25 51 76

25 51 76

25 51 76

25 51 76

25 51 76

25 51 76

25 51 76

25 51 76

25 51 76

25 51 76

25 51 76

25 51 76

25 51 76

25 51 76

25 51 76

25 51 76

25 51 76

25 51 76

25 51 76

25 51 76

25 51 76

25 51 76

25 51 76

25 51 76

25 51 76

25 51 76

25 51 76

25 51 76

25 51 76

25 51 76

25 51 76

25 51 76

25 51 76

25 51 76

25 51 76

25 51 76

25 51 76

25 51 76

25 51 76

25 51 76

25 51 76

25 51 76

25 51 76

25 51 76

25 51 76

25 51 76

25 51 76

25 51 76

25 51 76

25 51 76

25 51 76

25 51 76

25 51 76

25 51 76

25 51 76

25 51 76

25 51 76

25 51 76

25 51 76

25 51 76

25 51 76

25 51 76

25 51 76

25 51 76

25 51 76

25 51 76

25 51 76

25 51 76

25 51 76

25 51 76

25 51 76

25 51 76

25 51 76

25 51 76

25 51 76

25 51 76

25 51 76

25 51 76

25 51 76

25 51 76

25 51 76

25 51 76

25 51 76

25 51 76

25 51 76

25 51 76

25 51 76

25 51 76

25 51 76

25 51 76

25 51 76

25 51 76

25 51 76

25 51 76

25 51 76

25 51 76

25 51 76

25 51 76

25 51 76

25 51 76

25 51 76

25 51 76

25 51 76

25 51 76

25 51 76

25 51 76

25 51 76

25 51 76

25 51 76

25 51 76

25 51 76

25 51 76

25 51 76

25 51 76

25 51 76

25 51 76

25 51 76

25 51 76

25 51 76

25 51 76

25 51 76

25 51 76

25 51 76

25 51 76

25 51 76

25 51 76

25 51 76

25 51 76

25 51 76

25 51 76

25 51 76

25 51 76

25 51 76

25 51 76

25 51 76

25 51 76

25 51 76

25 51 76

25 51 76

25 51 76

25 51 76

25 51 76

25 51 76

25 51 76

25 51 76

25 51 76

25 51 76

25 51 76

25 51 76

25 51 76

25 51 76

25 51 76

25 51 76

25 51 76

25 51 76

25 51 76

25 51 76

25 51 76

25 51 76

25 51 76

25 51 76

25 51 76

25 51 76

25 51 76

25 51 76

25 51 76

25 51 76

25 51 76

25 51 76

25 51 76

25 51 76

25 51 76

25 51 76

25 51 76

25 51 76

25 51 76

25 51 76

25 51 76

25 51 76

25 51 76

25 51 76

25 51 76

25 51 76

25 51 76

25 51 76

25 51 76

25 51 76

25 51 76

25 51 76

25 51 76

25 51 76

25 51 76

25 51 76

25 51 76

25 51 76

25 51 76

25 51 76

25 51 76

25 51 76

25 51 76

25 51 76

25 51 76

25 51 76

25 51 76

25 51 76

25 51 76

25 51 76

25 51 76

25 51 76

25 51 76

25 51 76

25 51 76

25 51 76

25 51 76

25 51 76

25 51 76

25 51 76

25 51 76

25 51 76

25 51 76

25 51 76

25 51 76

25 51 76

25 51 76

25 51 76

25 51 76

25 51 76

25 51 76

25 51 76

25 51 76

25 51 76

25 51 76

25 51 76

25 51 76

25 51 76

25 51 76

25 51 76

25 51 76

25 51 76

25 51 76

25 51 76

25 51 76

25 51 76

25 51 76

25 51 76

25 51 76

25 51 76

25 51 76

25 51 76

25 51 76

25 51 76

25 51 76

25 51 76

25 51 76

25 51 76

25 51 76

25 51 76

25 51 76

25 51 76

25 51 76

25 51 76

25 51 76

25 51 76

25 51 76

25 51 76

25 51 76

25 51 76

25 51 76

25 51 76

25 51 76

25 51 76

25 51 76

25 51 76

25 51 76

25 51 76

25 51 76

25 51 76

25 51 76

25 51 76

25 51 76

25 51 76

25 51 76

25 51 76

25 51 76

25 51 76

25 51 76

25 51 76

25 51 76

25 51 76

25 51 76

25 51 76

25 51 76

25 51 76

25 51 76

25 51 76

25 51 76

25 51 76

25 51 76

25 51 76

25 51 76

25 51 76

25 51 76

25 51 76

25 51 76

25 51 76

25 51 76

25 51 76

25 51 76

25 51 76

25 51 76

25 51 76

25 51 76

25 51 76

25 51 76

25 51 76

25 51 76

25 51 76

25 51 76

25 51 76

25 51 76

25 51 76

25 51 76

25 51 76

25 51 76

25 51 76

25 51 76

25 51 76

25 51 76

25 51 76

25 51 76

25 51 76

25 51 76

25 51 76

25 51 76

25 51 76

25 51 76

25 51 76

25 51 76

25 51 76

25 51 76

25 51 76

25 51 76

25 51 76

25 51 76

25 51 76

25 51 76

25 51 76

25 51 76

25 51 76

25 51 76

25 51 76

25 51 76

25 51 76

25 51 76

25 51 76

25 51 76

25 51 76

25 51 76

25 51 76

25 51 76

25 51 76

25 51 76

25 51 76

25 51 76

25 51 76

25 51 76

25 51 76

25 51 76

25 51 76

25 51 76

25 51 76

25 51 76

25 51 76

25 51 76

25 51 76

25 51 76

25 51 76

25 51 76

25 51 76

25 51 76

25 51 76

25 51 76

25 51 76

25 51 76

25 51 76

25 51 76

25 51 76

25 51 76

25 51 76

25 51 76

25 51 76

25 51 76

25 51 76

25 51 76

25 51 76

25 51 76

25 51 76

25 51 76

25 51 76

25 51 76

25 51 76

25 51 76

25 51 76

25 51 76

25 51 76

25 51 76

25 51 76

25 51 76

25 51 76

25 51 76

25 51 76

25 51 76

25 51 76

25 51 76

25 51 76

25 51 76

25 51 76

25 51 76

25 51 76

25 51 76

25 51 76

25 51 76

25 51 76

25 51 76

25 51 76

25 51 76

25 51 76

25 51 76

25 51 76

25 51 76

25 51 76

25 51 76

25 51 76

25 51 76

25 51 76

25 51 76

25 51 76

25 51 76

25 51 76

25 51 76

25 51 76

25 51 76

25 51 76

25 51 76

25 51 76

25 51 76

25 51 76

25 51 76

25 51 76

25 51 76

25 51 76

25 51 76

25 51 76

25 51 76

25 51 76

25 51 76

25 51 76

25 51 76

25 51 76

25 51 76

25 51 76

25 51 76

25 51 76

25 51 76

25 51 76

25 51 76

25 51 76

25 51 76

25 51 76

25 51 76

25 51 76

25 51 76

25 51 76

25 51 76

25 51 76

25 51 76

25 51 76

25 51 76

25 51 76

25 51 76

25 51 76

25 51 76

25 51 76

25 51 76

25 51 76

25 51 76

25 51 76

25 51 76

25 51 76

25 51 76

25 51 76

25 51 76

25 51 76

25 51 76

25 51 76

25 51 76

25 51 76

25 51 76

25 51 76

25 51 76

25 51 76

25 51 76

25 51 76

25 51 76

25 51 76

25 51 76

25 51 76

25 51 76

25 51 76

25 51 76

25 51 76

25 51 76

25 51 76

25 51 76

25 51 76

25 51 76

25 51 76

25 51 76

25 51 76

25 51 76

25 51 76

25 51 76

25 51 76

25 51 76

25 51 76

25 51 76

25 51 76

25 51 76

25 51 76

25 51 76

25 51 76

25 51 76

25 51 76

25 51 76

25 51 76

25 51 76

25 51 76

25 51 76

25 51 76

25 51 76

25 51 76

25 51 76

25 51 76

25 51 76

25 51 76

25 51 76

25 51 76

25 51 76

25 51 76

25 51 76

25 51 76

25 51 76

25 51 76

25 51 76

25 51 76

25 51 76

25 51 76

25 51 76

25 51 76

25 51 76

25 51 76

25 51 76

25 51 76

25 51 76

25 51 76

25 51 76

25 51 76

25 51 76

25 51 76

25 51 76

25 51 76

25 51 76

25 51 76

25 51 76

25 51 76

25 51 76

25 51 76

25 51 76

25 51 76

25 51 76

25 51 76

25 51 76

25 51 76

25 51 76

25 51 76

25 51 76

25 51 76

25 51 76

25 51 76

25 51 76

25 51 76

25 51 76

25 51 76

25 51 76

25 51 76

25 51 76

25 51 76

25 51 76

25 51 76

25 51 76

25 51 76

25 51 76

25 51 76

25 51 76

25 51 76

25 51 76

25 51 76

25 51 76

25 51 76

25 51 76

25 51 76

25 51 76

25 51 76

25 51 76

25 51 76

25 51 76

25 51 76

25 51 76

25 51 76

25 51 76

25 51 76

25 51 76

25 51 76

25 51 76

25 51 76

25 51 76

25 51 76

25 51 76

25 51 76

25 51 76

25 51 76

25 51 76

25 51 76

25 51 76

25 51 76

25 51 76

25 51 76

25 51 76

25 51 76

25 51 76

25 51 76

25 51 76

25 51 76

25 51 76

25 51 76

25 51 76

25 51 76

25 51 76

25 51 76

25 51 76

25 51 76

25 51 76

25 51 76

25 51 76

25 51 76

25 51 76

25 51 76

25 51 76

25 51 76

25 51 76

25 51 76

25 51 76

25 51 76

25 51 76

25 51 76

25 51 76

25 51 76

25 51 76

25 51 76

25 51 76

25 51 76

25 51 76

25 51 76

25 51 76

25 51 76

25 51 76

25 51 76

25 51 76

25 51 76

25 51 76

25 51 76

25 51 76

25 51 76

25 51 76

25 51 76

25 51 76

25 51 76

25 51 76

25 51 76

25 51 76

25 51 76

25 51 76

25 51 76

25 51 76

25 51 76

25 51 76

25 51 76

25 51 76

25 51 76

25 51 76

25 51 76

25 51 76

25 51 76

25 51 76

25 51 76

25 51 76

25 51 76

25 51 76

25 51 76

25 51 76

25 51 76

25 51 76

25 51 76

25 51 76

25 51 76

25 51 76

25 51 76

25 51 76

25 51 76

25 51 76

25 51 76

25 51 76

25 51 76

25 51 76

25 51 76

25 51 76

25 51 76

25 51 76

25 51 76

25 51 76

25 51 76

25 51 76

25 51 76

25 51 76

25 51 76

25 51 76

25 51 76

25 51 76

25 51 76

25 51 76

25 51 76

25 51 76

25 51 76

25 51 76

25 51 76

25 51 76

25 51 76

25 51 76

25 51 76

25 51 76

25 51 76

25 51 76

25 51 76

25 51 76

25 51 76

25 51 76

25 51 76

25 51 76

25 51 76

25 51 76

25 51 76

25 51 76

25 51 76

25 51 76

25 51 76

25 51 76

25 51 76

25 51 76

25 51 76

25 51 76

25 51 76

25 51 76

25 51 76

25 51 76

25 51 76

25 51 76

25 51 76

25 51 76

25 51 76

25 51 76

25 51 76

25 51 76

25 51 76

25 51 76

25 51 76

25 51 76

25 51 76

25 51 76

25 51 76

25 51 76

25 51 76

25 51 76

25 51 76

25 51 76

25 51 76

25 51 76

25 51 76

25 51 76

25 51 76

25 51 76

25 51 76

25 51 76

25 51 76

25 51 76

25 51 76

25 51 76

25 51 76

25 51 76

25 51 76

25 51 76

25 51 76

25 51 76

25 51 76

25 51 76

25 51 76

25 51 76

25 51 76

25 51 76

25 51 76

25 51 76

25 51 76

25 51 76

25 51 76

25 51 76

25 51 76

25 51 76

25 51 76

25 51 76

25 51 76

25 51 76

25 51 76

25 51 76

25 51 76

25 51 76

25 51 76

25 51 76

25 51 76

25 51 76

25 51 76

25 51 76

25 51 76

25 51 76

25 51 76

25 51 76

25 51 76

25 51 76

25 51 76

25 51 76

25 51 76

25 51 76

25 51 76

25 51 76

25 51 76

25 51 76

25 51 76

25 51 76

25 51 76

25 51 76

25 51 76

25 51 76

25 51 76

25 51 76

25 51 76

25 51 76

25 51 76

25 51 76

25 51 76

25 51 76

25 51 76

25 51 76

25 51 76

25 51 76

25 51 76

25 51 76

25 51 76

25 51 76

25 51 76

25 51 76

25 51 76

25 51 76

25 51 76

25 51 76

25 51 76

25 51 76

25 51 76

25 51 76

25 51 76

25 51 76

25 51 76

25 51 76

25 51 76

25 51 76

25 51 76

25 51 76

25 51 76

25 51 76

25 51 76

25 51 76

25 51 76

25 51 76

25 51 76

25 51 76

25 51 76

25 51 76

25 51 76

25 51 76

25 51 76

25 51 76

25 51 76

25 51 76

25 51 76

25 51 76

25 51 76

25 51 76

25 51 76

25 51 76

25 51 76

25 51 76

25 51 76

25 51 76

25 51 76

25 51 76

25 51 76

25 51 76

25 51 76

25 51 76

25 51 76

25 51 76

25 51 76

25 51 76

25 51 76

25 51 76

25 51 76

25 51 76

25 51 76

25 51 76

25 51 76

25 51 76

25 51 76

25 51 76

25 51 76

25 51 76

25 51 76

25 51 76

25 51 76

25 51 76

25 51 76

25 51 76

25 51 76

25 51 76

25 51 76

25 51 76

25 51 76

25 51 76

25 51 76

25 51 76

25 51 76

25 51 76

25 51 76

25 51 76

25 51 76

25 51 76

25 51 76

25 51 76

25 51 76

25 51 76

25 51 76

25 51 76

25 51 76

25 51 76

25 51 76

25 51 76

25 51 76

25 51 76

25 51 76

25 51 76

25 51 76

25 51 76

25 51 76

25 51 76

25 51 76

25 51 76

25 51 76

25 51 76

25 51 76

25 51 76

25 51 76

25 51 76

25 51 76

25 51 76

25 51 76

25 51 76

25 51 76

25 51 76

25 51 76

25 51 76

25 51 76

25 51 76

25 51 76

25 51 76

25 51 76

25 51 76

25 51 76

25 51 76

25 51 76

25 51 76

25 51 76

25 51 76

25 51 76

25 51 76

25 51 76

25 51 76

25 51 76

25 51 76

25 51 76

25 51 76

25 51 76

25 51 76

25 51 76

25 51 76

25 51 76

25 51 76

25 51 76

25 51 76

25 51 76

25 51 76

25 51 76

25 51 76

25 51 76

25 51 76

25 51 76

25 51 76

25 51 76

25 51 76

25 51 76

25 51 76

25 51 76

25 51 76

25 51 76

25 51 76

25 51 76

25 51 76

25 51 76

25 51 76

25 51 76

25 51 76

25 51 76

25 51 76

25 51 76

25 51 76

25 51 76

25 51 76

25 51 76

25 51 76

25 51 76

25 51 76

25 51 76

25 51 76

25 51 76

25 51 76

25 51 76

25 51 76

25 51 76

25 51 76

25 51 76

25 51 76

25 51 76

25 51 76

25 51 76

25 51 76

25 51 76

25 51 76

25 51 76

25 51 76

25 51 76

25 51 76

25 51 76

25 51 76

25 51 76

25 51 76

25 51 76

25 51 76

25 51 76

25 51 76

25 51 76

25 51 76

25 51 76

25 51 76

25 51 76

25 51 76

25 51 76

25 51 76

25 51 76

25 51 76

25 51 76

25 51 76

25 51 76

25 51 76

25 51 76

25 51 76

25 51 76

25 51 76

25 51 76

25 51 76

25 51 76

25 51 76

25 51 76

25 51 76

25 51 76

25 51 76

25 51 76

25 51 76

25 51 76

25 51 76

25 51 76

25 51 76

25 51 76

25 51 76

25 51 76

25 51 76

25 51 76

25 51 76

25 51 76

25 51 76

25 51 76

25 51 76

25 51 76

25 51 76

25 51 76

25 51 76

25 51 76

25 51 76

25 51 76

25 51 76

25 51 76

25 51 76

25 51 76

25 51 76

25 51 76

25 51 76

25 51 76

25 51 76

25 51 76

25 51 76

25 51 76

25 51 76

25 51 76

25 51 76

25 51 76

25 51 76

25 51 76

25 51 76

25 51 76

25 51 76

25 51 76

25 51 76

25 51 76

25 51 76

25 51 76

25 51 76

25 51 76

25 51 76

25 51 76

25 51 76

25 51 76

25 51 76

25 51 76

25 51 76

25 51 76

25 51 76

25 51 76

25 51 76

25 51 76

25 51 76

25 51 76

25 51 76

25 51 76

25 51 76

25 51 76

25 51 76

25 51 76

25 51 76

25 51 76

25 51 76

25 51 76

25 51 76

25 51 76

25 51 76

25 51 76

25 51 76

25 51 76

25 51 76

25 51 76

25 51 76

25 51 76

25 51 76

25 51 76

25 51 76

25 51 76

25 51 76

25 51 76

25 51 76

25 51 76

25 51 76

25 51 76

25 51 76

25 51 76

25 51 76

25 51 76

25 51 76

25 51 76

25 51 76

25 51 76

25 51 76

25 51 76

25 51 76

25 51 76

25 51 76

25 51 76

25 51 76

25 51 76

25 51 76

25 51 76

25 51 76

25 51 76

25 51 76

25 51 76

25 51 76

25 51 76

25 51 76

25 51 76

25 51 76

25 51 76

25 51 76

25 51 76

25 51 76

25 51 76

25 51 76

25 51 76

25 51 76

25 51 76

25 51 76

25 51 76

25 51 76

25 51 76

25 51 76

25 51 76

25 51 76

25 51 76

25 51 76

25 51 76

25 51 76

25 51 76

25 51 76

25 51 76

25 51 76

25 51 76

25 51 76

25 51 76

25 51 76

25 51 76

25 51 76

25 51 76

25 51 76

25 51 76

25 51 76

25 51 76

25 51 76

25 51 76

25 51 76

25 51 76

25 51 76

25 51 76

25 51 76

25 51 76

25 51 76

25 51 76

25 51 76

25 51 76

25 51 76

25 51 76

25 51 76

25 51 76

25 51 76

25 51 76

25 51 76

25 51 76

25 51 76

25 51 76

25 51 76

25 51 76

25 51 76

25 51 76

25 51 76

25 51 76

25 51 76

25 51 76

25 51 76

25 51 76

25 51 76

25 51 76

25 51 76

25 51 76

25 51 76

25 51 76

25 51 76

25 51 76

25 51 76

25 51 76

25 51 76

25 51 76

25 51 76

25 51 76

25 51 76

25 51 76

25 51 76

25 51 76

25 51 76

25 51 76

25 51 76

25 51 76

25 51 76

25 51 76

25 51 76

25 51 76

25 51 76

25 51 76

25 51 76

25 51 76

25 51 76

25 51 76

25 51 76

25 51 76

25 51 76

25 51 76

25 51 76

25 51 76

25 51 76

25 51 76

25 51 76

25 51 76

25 51 76

25 51 76

25 51 76

25 51 76

25 51 76

25 51 76

25 51 76

25 51 76

25 51 76

25 51 76

25 51 76

25 51 76

25 51 76

25 51 76

25 51 76

25 51 76

25 51 76

25 51 76

25 51 76

25 51 76

25 51 76

25 51 76

25 51 76

25 51 76

25 51 76

25 51 76

25 51 76

25 51 76

25 51 76

25 51 76

25 51 76

25 51 76

25 51 76

25 51 76

25 51 76

25 51 76

25 51 76

25 51 76

25 51 76

25 51 76

25 51 76

25 51 76

25 51 76

25 51 76

25 51 76

25 51 76

25 51 76

25 51 76

25 51 76

25 51 76

25 51 76

25 51 76

25 51 76

25 51 76

25 51 76

25 51 76

25 51 76

25 51 76

25 51 76

25 51 76

25 51 76

25 51 76

25 51 76

25 51 76

25 51 76

25 51 76

25 51 76

25 51 76

25 51 76

25 51 76

25 51 76

25 51 76

25 51 76

25 51 76

25 51 76

25 51 76

25 51 76

25 51 76

25 51 76

25 51 76

25 51 76

25 51 76

25 51 76

25 51 76

25 51 76

25 51 76

25 51 76

25 51 76

25 51 76

25 51 76

25 51 76

25 51 76

25 51 76

25 51 76

25 51 76

25 51 76

25 51 76

25 51 76

25 51 76

25 51 76

25 51 76

25 51 76

25 51 76

25 51 76

25 51 76

25 51 76

25 51 76

25 51 76

25 51 76

25 51 76

25 51 76

25 51 76

25 51 76

25 51 76

25 51 76

25 51 76

25 51 76

25 51 76

25 51 76

25 51 76

25 51 76

25 51 76

25 51 76

25 51 76

25 51 76

25 51 76

25 51 76

25 51 76

25 51 76

25 51 76

25 51 76

25 51 76

25 51 76

25 51 76

25 51 76

25 51 76

25 51 76

25 51 76

25 51 76

25 51 76

25 51 76

25 51 76

25 51 76

25 51 76

25 51 76

25 51 76

25 51 76

25 51 76

25 51 76

25 51 76

25 51 76

25 51 76

25 51 76

25 51 76

25 51 76

25 51 76

25 51 76

25 51 76

25 51 76

25 51 76

25 51 76

25 51 76

25 51 76

25 51 76

25 51 76

25 51 76

25 51 76

25 51 76

25 51 76

25 51 76

25 51 76

25 51 76

25 51 76

25 51 76

25 51 76

25 51 76

25 51 76

25 51 76

25 51 76

25 51 76

25 51 76

25 51 76

25 51 76

25 51 76

25 51 76

25 51 76

25 51 76

25 51 76

25 51 76

25 51 76

25 51 76

25 51 76

25 51 76

25 51 76

25 51 76

25 51 76

25 51 76

25 51 76

25 51 76

25 51 76

25 51 76

25 51 76

25 51 76

25 51 76

25 51 76

25 51 76

25 51 76

25 51 76

25 51 76

25 51 76

25 51 76

25 51 76

25 51 76

25 51 76

25 51 76

25 51 76

25 51 76

25 51 76

25 51 76

25 51 76

25 51 76

25 51 76

25 51 76

25 51 76

25 51 76

25 51 76

25 51 76

25 51 76

25 51 76

25 51 76

25 51 76

25 51 76

25 51 76

25 51 76

25 51 76

25 51 76

25 51 76

25 51 76

25 51 76

25 51 76

25 51 76

25 51 76

25 51 76

25 51 76

25 51 76

25 51 76

25 51 76

25 51 76

25 51 76

25 51 76

25 51 76

25 51 76

25 51 76

25 51 76

25 51 76

25 51 76

25 51 76

25 51 76

25 51 76

25 51 76

25 51 76

25 51 76

25 51 76

25 51 76

25 51 76

25 51 76

25 51 76

25 51 76

25 51 76

25 51 76

25 51 76

25 51 76

25 51 76

25 51 76

25 51 76

25 51 76

25 51 76

25 51 76

25 51 76

25 51 76

25 51 76

25 51 76

25 51 76

25 51 76

25 51 76

25 51 76

25 51 76

25 51 76

25 51 76

25 51 76

25 51 76

25 51 76

25 51 76

25 51 76

25 51 76

25 51 76

25 51 76

25 51 76

25 51 76

25 51 76

25 51 76

25 51 76

25 51 76

25 51 76

25 51 76

25 51 76

25 51 76

25 51 76

25 51 76

25 51 76

25 51 76

25 51 76

25 51 76

25 51 76

25 51 76

25 51 76

25 51 76

25 51 76

25 51 76

25 51 76

25 51 76

25 51 76

25 51 76

25 51 76

25 51 76

25 51 76

25 51 76

25 51 76

25 51 76

25 51 76

25 51 76

25 51 76

25 51 76

25 51 76

25 51 76

25 51 76

25 51 76

25 51 76

25 51 76

25 51 76

25 51 76

25 51 76

25 51 76

25 51 76

25 51 76

25 51 76

25 51 76

25 51 76

25 51 76

25 51 76

25 51 76

25 51 76

25 51 76

25 51 76

25 51 76

25 51 76

25 51 76

25 51 76

25 51 76

25 51 76

25 51 76

25 51 76

25 51 76

25 51 76

25 51 76

25 51 76

25 51 76

25 51 76

25 51 76

25 51 76

25 51 76

25 51 76

25 51 76

25 51 76

25 51 76

25 51 76

25 51 76

25 51 76

25 51 76

25 51 76

25 51 76

25 51 76

25 51 76

25 51 76

25 51 76

25 51 76

25 51 76

25 51 76

25 51 76

25 51 76

25 51 76

25 51 76

25 51 76

25 51 76

25 51 76

25 51 76

25 51 76

25 51 76

25 51 76

25 51 76

25 51 76

25 51 76

25 51 76

25 51 76

25 51 76

25 51 76

25 51 76

25 51 76

25 51 76

25 51 76

25 51 76

25 51 76

25 51 76

25 51 76

25 51 76

25 51 76

25 51 76

25 51 76

25 51 76

25 51 76

25 51 76

25 51 76

25 51 76

25 51 76

25 51 76

25 51 76

25 51 76

25 51 76

25 51 76

25 51 76

25 51 76

25 51 76

25 51 76

25 51 76

25 51 76

25 51 76

25 51 76

25 51 76

25 51 76

25 51 76

25 51 76

25 51 76

25 51 76

25 51 76

25 51 76

25 51 76

25 51 76

25 51 76

25 51 76

25 51 76

25 51 76

25 51 76

25 51 76

25 51 76

25 51 76

25 51 76

25 51 76

25 51 76

25 51 76

25 51 76

25 51 76

25 51 76

25 51 76

25 51 76

25 51 76

25 51 76

25 51 76

25 51 76

25 51 76

25 51 76

25 51 76

25 51 76

25 51 76

25 51 76

25 51 76

25 51 76

25 51 76

25 51 76

25 51 76

25 51 76

25 51 76

25 51 76

25 51 76

25 51 76

25 51 76

25 51 76

25 51 76

25 51 76

25 51 76

25 51 76

25 51 76

25 51 76

25 51 76

25 51 76

25 51 76

25 51 76

25 51 76

25 51 76

25 51 76

25 51 76

25 51 76

25 51 76

25 51 76

25 51 76

25 51 76

25 51 76

25 51 76

25 51 76

25 51 76

25 51 76

25 51 76

25 51 76

25 51 76

25 51 76

25 51 76

25 51 76

25 51 76

25 51 76

25 51 76

25 51 76

25 51 76

25 51 76

25 51 76

25 51 76

25 51 76

25 51 76

25 51 76

25 51 76

25 51 76

25 51 76

25 51 76

25 51 76

25 51 76

25 51 76

25 51 76

25 51 76

25 51 76

25 51 76

25 51 76

25 51 76

25 51 76

25 51 76

25 51 76

25 51 76

25 51 76

25 51 76

25 51 76

25 51 76

25 51 76

25 51 76

25 51 76

25 51 76

25 51 76

25 51 76

25 51 76

25 51 76

25 51 76

25 51 76

25 51 76

25 51 76

25 51 76

25 51 76

25 51 76

25 51 76

25 51 76

25 51 76

25 51 76

25 51 76

25 51 76

25 51 76

25 51 76

25 51 76

25 51 76

25 51 76

25 51 76

25 51 76

25 51 76

25 51 76

25 51 76

25 51 76

25 51 76

25 51 76

25 51 76

25 51 76

25 51 76

25 51 76

25 51 76

25 51 76

25 51 76

25 51 76

25 51 76

25 51 76

25 51 76

25 51 76

25 51 76

25 51 76

25 51 76

25 51 76

25 51 76

25 51 76

25 51 76

25 51 76

25 51 76

25 51 76

25 51 76

25 51 76

25 51 76

25 51 76

25 51 76

25 51 76

25 51 76

25 51 76

25 51 76

25 51 76

25 51 76

25 51 76

25 51 76

25 51 76

25 51 76

25 51 76

25 51 76

25 51 76

25 51 76

25 51 76

25 51 76

25 51 76

25 51 76

25 51 76

25 51 76

25 51 76

25 51 76

25 51 76

25 51 76

25 51 76

25 51 76

25 51 76

25 51 76

25 51 76

25 51 76

25 51 76

25 51 76

25 51 76

25 51 76

25 51 76

25 51 76

25 51 76

25 51 76

25 51 76

25 51 76

25 51 76

25 51 76

25 51 76

25 51 76

25 51 76

25 51 76

25 51 76

25 51 76

25 51 76

25 51 76

25 51 76

25 51 76

25 51 76

25 51 76

25 51 76

25 51 76

25 51 76

25 51 76

25 51 76

25 51 76

25 51 76

25 51 76

25 51 76

25 51 76

25 51 76

25 51 76

25 51 76

25 51 76

25 51 76

25 51 76

25 51 76

25 51 76

25 51 76

25 51 76

25 51 76

25 51 76

25 51 76

25 51 76

25 51 76

25 51 76

25 51 76

25 51 76

25 51 76

25 51 76

25 51 76

25 51 76

25 51 76

25 51 76

25 51 76

25 51 76

25 51 76

25 51 76

25 51 76

25 51 76

25 51 76

25 51 76

25 51 76

25 51 76

25 51 76

25 51 76

25 51 76

25 51 76

25 51 76

25 51 76

25 51 76

25 51 76

25 51 76

25 51 76

25 51 76

25 51 76

25 51 76

25 51 76

25 51 76

25 51 76

25 51 76

25 51 76

25 51 76

25 51 76

25 51 76

25 51 76

25 51 76

25 51 76

25 51 76

25 51 76

25 51 76

25 51 76

25 51 76

25 51 76

25 51 76

25 51 76

25 51 76

25 51 76

25 51 76

25 51 76

25 51 76

25 51 76

25 51 76

25 51 76

25 51 76

25 51 76

25 51 76

25 51 76

25 51 76

25 51 76

25 51 76

25 51 76

25 51 76

25 51 76

25 51 76

25 51 76

25 51 76

25 51 76

25 51 76

25 51 76

25 51 76

25 51 76

25 51 76

25 51 76

25 51 76

25 51 76

25 51 76

25 51 76

25 51 76

25 51 76

25 51 76

25 51 76

25 51 76

25 51 76

25 51 76

25 51 76

25 51 76

25 51 76

25 51 76

25 51 76

25 51 76

25 51 76

25 51 76

25 51 76

25 51 76

25 51 76

25 51 76

25 51 76

25 51 76

25 51 76

25 51 76

25 51 76

25 51 76

25 51 76

25 51 76

25 51 76

25 51 76

25 51 76

25 51 76

25 51 76

25 51 76

25 51 76

25 51 76

25 51 76

25 51 76

25 51 76

25 51 76

25 51 76

25 51 76

25 51 76

25 51 76

25 51 76

25 51 76

25 51 76

25 51 76

25 51 76

25 51 76

25 51 76

25 51 76

25 51 76

25 51 76

25 51 76

25 51 76

25 51 76

25 51 76

25 51 76

25 51 76

25 51 76

25 51 76

25 51 76

25 51 76

25 51 76

25 51 76

25 51 76

25 51 76

25 51 76

25 51 76

25 51 76

25 51 76

25 51 76

25 51 76

25 51 76

25 51 76

25 51 76

25 51 76

25 51 76

25 51 76

25 51 76

25 51 76

25 51 76

25 51 76

25 51 76

25 51 76

25 51 76

25 51 76

25 51 76

25 51 76

25 51 76

25 51 76

25 51 76

25 51 76

25 51 76

25 51 76

25 51 76

25 51 76

25 51 76

25 51 76

25 51 76

25 51 76

25 51 76

25 51 76

25 51 76

25 51 76

25 51 76

25 51 76

25 51 76

25 51 76

25 51 76

25 51 76

25 51 76

25 51 76

25 51 76

25 51 76

25 51 76

25 51 76

25 51 76

25 51 76

25 51 76

25 51 76

25 51 76

25 51 76

25 51 76

25 51 76

25 51 76

25 51 76

25 51 76

25 51 76

25 51 76

25 51 76

25 51 76

25 51 76

25 51 76

25 51 76

25 51 76

25 51 76

25 51 76

25 51 76

25 51 76

25 51 76

25 51 76

25 51 76

25 51 76

25 51 76

25 51 76

25 51 76

25 51 76

25 51 76

25 51 76

25 51 76

25 51 76

25 51 76

25 51 76

25 51 76

25 51 76

25 51 76

25 51 76

25 51 76

25 51 76

25 51 76

25 51 76

25 51 76

25 51 76

25 51 76

25 51 76

25 51 76

25 51 76

25 51 76

25 51 76

25 51 76

25 51 76

25 51 76

25 51 76

25 51 76

25 51 76

25 51 76

25 51 76

25 51 76

25 51 76

25 51 76

25 51 76

25 51 76

25 51 76

25 51 76

25 51 76

25 51 76

25 51 76

25 51 76

25 51 76

25 51 76

25 51 76

25 51 76

25 51 76

25 51 76

25 51 76

25 51 76

25 51 76

25 51 76

25 51 76

25 51 76

25 51 76

25 51 76

25 51 76

25 51 76

25 51 76

25 51 76

25 51 76

25 51 76

25 51 76

25 51 76

25 51 76

25 51 76

25 51 76

25 51 76

25 51 76

25 51 76

25 51 76

25 51 76

25 51 76

25 51 76

25 51 76

25 51 76

25 51 76

25 51 76

25 51 76

25 51 76

25 51 76

25 51 76

25 51 76

25 51 76

25 51 76

25 51 76

25 51 76

25 51 76

25 51 76

25 51 76

25 51 76

25 51 76

25 51 76

25 51 76

25 51 76

25 51 76

25 51 76

25 51 76

25 51 76

25 51 76

25 51 76

25 51 76

25 51 76

25 51 76

25 51 76

25 51 76

25 51 76

25 51 76

25 51 76

25 51 76

25 51 76

25 51 76

25 51 76

25 51 76

25 51 76

25 51 76

25 51 76

25 51 76

25 51 76

25 51 76

25 51 76

25 51 76

25 51 76

25 51 76

25 51 76

25 51 76

25 51 76

25 51 76

25 51 76

25 51 76

25 51 76

25 51 76

25 51 76

25 51 76

25 51 76

25 51 76

25 51 76

25 51 76

25 51 76

25 51 76

25 51 76

25 51 76

25 51 76

25 51 76

25 51 76

25 51 76

25 51 76

25 51 76

25 51 76

25 51 76

25 51 76

25 51 76

25 51 76

25 51 76

25 51 76

25 51 76

25 51 76

25 51 76

25 51 76

25 51 76

25 51 76

25 51 76

25 51 76

25 51 76

25 51 76

25 51 76

25 51 76

25 51 76

25 51 76

25 51 76

25 51 76

25 51 76

25 51 76

25 51 76

25 51 76

25 51 76

25 51 76

25 51 76

25 51 76

25 51 76

25 51 76

25 51 76

25 51 76

25 51 76

25 51 76

25 51 76

25 51 76

25 51 76

25 51 76

25 51 76

25 51 76

25 51 76

25 51 76

25 51 76

25 51 76

25 51 76

25 51 76

25 51 76

25 51 76

25 51 76

25 51 76

25 51 76

25 51 76

25 51 76

25 51 76

25 51 76

25 51 76

25 51 76

25 51 76

25 51 76

25 51 76

25 51 76

25 51 76

25 51 76

25 51 76

25 51 76

25 51 76

25 51 76

25 51 76

25 51 76

25 51 76

25 51 76

25 51 76

25 51 76

25 51 76

25 51 76

25 51 76

25 51 76

25 51 76

25 51 76

25 51 76

25 51 76

25 51 76

25 51 76

25 51 76

25 51 76

25 51 76

25 51 76

25 51 76

25 51 76

25 51 76

25 51 76

25 51 76

25 51 76

25 51 76

25 51 76

25 51 76

25 51 76

25 51 76

25 51 76

25 51 76

25 51 76

25 51 76

25 51 76

25 51 76

25 51 76

25 51 76

25 51 76

25 51 76

25 51 76

25 51 76

25 51 76

25 51 76

25 51 76

25 51 76

25 51 76

25 51 76

25 51 76

25 51 76

25 51 76

25 51 76

25 51 76

25 51 76

25 51 76

25 51 76

25 51 76

25 51 76

25 51 76

25 51 76

25 51 76

25 51 76

25 51 76

25 51 76

25 51 76

25 51 76

25 51 76

25 51 76

25 51 76

25 51 76

25 51 76

25 51 76

25 51 76

25 51 76

25 51 76

25 51 76

25 51 76

25 51 76

25 51 76

25 51 76

25 51 76

25 51 76

25 51 76

25 51 76

25 51 76

25 51 76

25 51 76

25 51 76

25 51 76

25 51 76

25 51 76

25 51 76

25 51 76

25 51 76

25 51 76

25 51 76

25 51 76

25 51 76

25 51 76

25 51 76

25 51 76

25 51 76

25 51 76

25 51 76

25 51 76

25 51 76

25 51 76

25 51 76

25 51 76

25 51 76

25 51 76

25 51 76

25 51 76

25 51 76

25 51 76

25 51 76

25 51 76

25 51 76

25 51 76

25 51 76

25 51 76

25 51 76

25 51 76

25 51 76

25 51 76

25 51 76

25 51 76

25 51 76

25 51 76

25 51 76

25 51 76

25 51 76

25 51 76

25 51 76

25 51 76

25 51 76

25 51 76

25 51 76

25 51 76

25 51 76

25 51 76

25 51 76

25 51 76

25 51 76

25 51 76

25 51 76

25 51 76

25 51 76

25 51 76

25 51 76

25 51 76

25 51 76

25 51 76

25 51 76

25 51 76

25 51 76

25 51 76

25 51 76

25 51 76

25 51 76

25 51 76

25 51 76

25 51 76

25 51 76

25 51 76

25 51 76

25 51 76

25 51 76

25 51 76

25 51 76

25 51 76

25 51 76

25 51 76

25 51 76

25 51 76

25 51 76

25 51 76

25 51 76

25 51 76

25 51 76

25 51 76

25 51 76

25 51 76

25 51 76

25 51 76

25 51 76

25 51 76

25 51 76

25 51 76

25 51 76

25 51 76

25 51 76

25 51 76

25 51 76

25 51 76

25 51 76

25 51 76

25 51 76

25 51 76

25 51 76

25 51 76

25 51 76

25 51 76

25 51 76

25 51 76

25 51 76

25 51 76

25 51 76

25 51 76

25 51 76

25 51 76

25 51 76

25 51 76

25 51 76

25 51 76

25 51 76

25 51 76

25 51 76

25 51 76

25 51 76

25 51 76

25 51 76

25 51 76

25 51 76

25 51 76

25 51 76

25 51 76

25 51 76

25 51 76

25 51 76

25 51 76

25 51 76

25 51 76

25 51 76

25 51 76

25 51 76

25 51 76

25 51 76

25 51 76

25 51 76

25 51 76

25 51 76

25 51 76

25 51 76

25 51 76

25 51 76

25 51 76

25 51 76

25 51 76

25 51 76

25 51 76

25 51 76

25 51 76

25 51 76

25 51 76

25 51 76

25 51 76

25 51 76

25 51 76

25 51 76

25 51 76

25 51 76

25 51 76

25 51 76

25 51 76

25 51 76

25 51 76

25 51 76

25 51 76

25 51 76

25 51 76

25 51 76

25 51 76

25 51 76

25 51 76

25 51 76

25 51 76

25 51 76

25 51 76

25 51 76

25 51 76

25 51 76

25 51 76

25 51 76

25 51 76

25 51 76

25 51 76

25 51 76

25 51 76

25 51 76

25 51 76

25 51 76

25 51 76

25 51 76

25 51 76

25 51 76

25 51 76

25 51 76

25 51 76

25 51 76

25 51 76

25 51 76

25 51 76

25 51 76

25 51 76

25 51 76

25 51 76

25 51 76

25 51 76

25 51 76

25 51 76

25 51 76

25 51 76

25 51 76

25 51 76

25 51 76

25 51 76

25 51 76

25 51 76

25 51 76

25 51 76

25 51 76

25 51 76

25 51 76

25 51 76

25 51 76

25 51 76

25 51 76

25 51 76

25 51 76

25 51 76

25 51 76

25 51 76

25 51 76

25 51 76

25 51 76

25 51 76

25 51 76

25 51 76

25 51 76

25 51 76

25 51 76

25 51 76

25 51 76

25 51 76

25 51 76

25 51 76

25 51 76

25 51 76

25 51 76

25 51 76

25 51 76

25 51 76

25 51 76

25 51 76

25 51 76

25 51 76

25 51 76

25 51 76

25 51 76

25 51 76

25 51 76

25 51 76

25 51 76

25 51 76

25 51 76

25 51 76

25 51 76

25 51 76

25 51 76

25 51 76

25 51 76

25 51 76

25 51 76

25 51 76

25 51 76

25 51 76

25 51 76

25 51 76

25 51 76

25 51 76

25 51 76

25 51 76

25 51 76

25 51 76

25 51 76

25 51 76

25 51 76

25 51 76

25 51 76

25 51 76

25 51 76

25 51 76

25 51 76

25 51 76

25 51 76

25 51 76

25 51 76

25 51 76

25 51 76

25 51 76

25 51 76

25 51 76

25 51 76

25 51 76

25 51 76

25 51 76

25 51 76

25 51 76

25 51 76

25 51 76

25 51 76

25 51 76

25 51 76

25 51 76

25 51 76

25 51 76

25 51 76

25 51 76

25 51 76

25 51 76

25 51 76

25 51 76

25 51 76

25 51 76

25 51 76

25 51 76

25 51 76

25 51 76

25 51 76

25 51 76

25 51 76

25 51 76

25 51 76

25 51 76

25 51 76

25 51 76

25 51 76

25 51 76

25 51 76

25 51 76

25 51 76

25 51 76

25 51 76

25 51 76

25 51 76

25 51 76

25 51 76

25 51 76

25 51 76

25 51 76

25 51 76

25 51 76

25 51 76

25 51 76

25 51 76

25 51 76

25 51 76

25 51 76

25 51 76

25 51 76

25 51 76

25 51 76

25 51 76

25 51 76

25 51 76

25 51 76

25 51 76

25 51 76

25 51 76

25 51 76

25 51 76

25 51 76

25 51 76

25 51 76

25 51 76

25 51 76

25 51 76

25 51 76

25 51 76

25 51 76

25 51 76

25 51 76

25 51 76

25 51 76

25 51 76

25 51 76

25 51 76

25 51 76

25 51 76

25 51 76

25 51 76

25 51 76

25 51 76

25 51 76

25 51 76

25 51 76

25 51 76

25 51 76

25 51 76

25 51 76

25 51 76

25 51 76

25 51 76

25 51 76

25 51 76

25 51 76

25 51 76

25 51 76

25 51 76

25 51 76

25 51 76

25 51 76

25 51 76

25 51 76

25 51 76

25 51 76

25 51 76

25 51 76

25 51 76

25 51 76

25 51 76

25 51 76

25 51 76

25 51 76

25 51 76

25 51 76

25 51 76

25 51 76

25 51 76

25 51 76

25 51 76

25 51 76

25 51 76

25 51 76

25 51 76

25 51 76

25 51 76

25 51 76

25 51 76

25 51 76

25 51 76

25 51 76

25 51 76

25 51 76

25 51 76

25 51 76

25 51 76

25 51 76

25 51 76

25 51 76

25 51 76

25 51 76

25 51 76

25 51 76

25 51 76

25 51 76

25 51 76

25 51 76

25 51 76

25 51 76

25 51 76

25 51 76

25 51 76

25 51 76

25 51 76

25 51 76

25 51 76

25 51 76

25 51 76

25 51 76

25 51 76

25 51 76

25 51 76

25 51 76

25 51 76

25 51 76

25 51 76

25 51 76

25 51 76

25 51 76

25 51 76

25 51 76

25 51 76

25 51 76

25 51 76

25 51 76

25 51 76

25 51 76

25 51 76

25 51 76

25 51 76

25 51 76

25 51 76

25 51 76

25 51 76

25 51 76

25 51 76

25 51 76

25 51 76

25 51 76

25 51 76

25 51 76

25 51 76

25 51 76

25 51 76

25 51 76

25 51 76

25 51 76

25 51 76

25 51 76

25 51 76

25 51 76

25 51 76

25 51 76

25 51 76

25 51 76

25 51 76

25 51 76

25 51 76

25 51 76

25 51 76

25 51 76

25 51 76

25 51 76

25 51 76

25 51 76

25 51 76

25 51 76

25 51 76

25 51 76

25 51 76

25 51 76

25 51 76

25 51 76

25 51 76

25 51 76

25 51 76

25 51 76

25 51 76

25 51 76

25 51 76

25 51 76

25 51 76

25 51 76

25 51 76

25 51 76

25 51 76

25 51 76

25 51 76

25 51 76

25 51 76

25 51 76

25 51 76

25 51 76

25 51 76

25 51 76

25 51 76

25 51 76

25 51 76

25 51 76

25 51 76

25 51 76

25 51 76

25 51 76

25 51 76

25 51 76

25 51 76

25 51 76

25 51 76

25 51 76

25 51 76

25 51 76

25 51 76

25 51 76

25 51 76

25 51 76

25 51 76

25 51 76

25 51 76

25 51 76

25 51 76

25 51 76

25 51 76

25 51 76

25 51 76

25 51 76

25 51 76

25 51 76

25 51 76

25 51 76

25 51 76

25 51 76

25 51 76

25 51 76

25 51 76

25 51 76

25 51 76

25 51 76

25 51 76

25 51 76

25 51 76

25 51 76

25 51 76

25 51 76

25 51 76

25 51 76

25 51 76

25 51 76

25 51 76

25 51 76

25 51 76

25 51 76

25 51 76

25 51 76

25 51 76

25 51 76

25 51 76

25 51 76

25 51 76

25 51 76

25 51 76

25 51 76

25 51 76

25 51 76

25 51 76

25 51 76

25 51 76

25 51 76

25 51 76

25 51 76

25 51 76

25 51 76

25 51 76

25 51 76

25 51 76

25 51 76

25 51 76

25 51 76

25 51 76

25 51 76

25 51 76

25 51 76

25 51 76

25 51 76

25 51 76

25 51 76

25 51 76

25 51 76

25 51 76

25 51 76

25 51 76

25 51 76

25 51 76

25 51 76

25 51 76

25 51 76

25 51 76

25 51 76

25 51 76

25 51 76

25 51 76

25 51 76

25 51 76

25 51 76

25 51 76

25 51 76

25 51 76

25 51 76

25 51 76

25 51 76

25 51 76

25 51 76

25 51 76

25 51 76

25 51 76

25 51 76

25 51 76

25 51 76

25 51 76

25 51 76

25 51 76

25 51 76

25 51 76

25 51 76

25 51 76

25 51 76

25 51 76

25 51 76

25 51 76

25 51 76

25 51 76

25 51 76

25 51 76

25 51 76

25 51 76

25 51 76

25 51 76

25 51 76

25 51 76

25 51 76

25 51 76

25 51 76

25 51 76

25 51 76

25 51 76

25 51 76

25 51 76

25 51 76

25 51 76

25 51 76

25 51 76

25 51 76

25 51 76

25 51 76

25 51 76

25 51 76

25 51 76

25 51 76

25 51 76

25 51 76

25 51 76

25 51 76

25 51 76

25 51 76

25 51 76

25 51 76

25 51 76

25 51 76

25 51 76

25 51 76

25 51 76

25 51 76

25 51 76

25 51 76

25 51 76

25 51 76

25 51 76

25 51 76

25 51 76

25 51 76

25 51 76

25 51 76

25 51 76

25 51 76

25 51 76

25 51 76

25 51 76

25 51 76

25 51 76

25 51 76

25 51 76

25 51 76

25 51 76

25 51 76

25 51 76

25 51 76

25 51 76

25 51 76

25 51 76

25 51 76

25 51 76

25 51 76

25 51 76

25 51 76

25 51 76

25 51 76

25 51 76

25 51 76

25 51 76

25 51 76

25 51 76

25 51 76

25 51 76

25 51 76

25 51 76

25 51 76

25 51 76

25 51 76

25 51 76

25 51 76

25 51 76

25 51 76

25 51 76

25 51 76

25 51 76

25 51 76

25 51 76

25 51 76

25 51 76

25 51 76

25 51 76

25 51 76

25 51 76

25 51 76

25 51 76

25 51 76

25 51 76

25 51 76

25 51 76

25 51 76

25 51 76

25 51 76

25 51 76

25 51 76

25 51 76

25 51 76

25 51 76

25 51 76

25 51 76

25 51 76

25 51 76

25 51 76

25 51 76

25 51 76

25 51 76

25 51 76

25 51 76

25 51 76

25 51 76

25 51 76

25 51 76

25 51 76

25 51 76

25 51 76

25 51 76

25 51 76

25 51 76

25 51 76

25 51 76

25 51 76

25 51 76

25 51 76

25 51 76

25 51 76

25 51 76

25 51 76

25 51 76

25 51 76

25 51 76

25 51 76

25 51 76

25 51 76

25 51 76

25 51 76

25 51 76

25 51 76

25 51 76

25 51 76

25 51 76

25 51 76

25 51 76

25 51 76

25 51 76

25 51 76

25 51 76

25 51 76

25 51 76

25 51 76

25 51 76

25 51 76

25 51 76

25 51 76

25 51 76

25 51 76

25 51 76

25 51 76

25 51 76

25 51 76

25 51 76

25 51 76

25 51 76

25 51 76

25 51 76

25 51 76

25 51 76

25 51 76

25 51 76

25 51 76

25 51 76

25 51 76

25 51 76

25 51 76

25 51 76

25 51 76

25 51 76

25 51 76

25 51 76

25 51 76

25 51 76

25 51 76

25 51 76

25 51 76

25 51 76

25 51 76

25 51 76

25 51 76

25 51 76

25 51 76

25 51 76

25 51 76

25 51 76

25 51 76

25 51 76

25 51 76

25 51 76

25 51 76

25 51 76

25 51 76

25 51 76

25 51 76

25 51 76

25 51 76

25 51 76

25 51 76

25 51 76

25 51 76

25 51 76

25 51 76

25 51 76

25 51 76

25 51 76

25 51 76

25 51 76

25 51 76

25 51 76

25 51 76

25 51 76

25 51 76

25 51 76

25 51 76

25 51 76

25 51 76

25 51 76

25 51 76

25 51 76

25 51 76

25 51 76

25 51 76

25 51 76

25 51 76

25 51 76

25 51 76

25 51 76

25 51 76

25 51 76

25 51 76

25 51 76

25 51 76

25 51 76

25 51 76

25 51 76

25 51 76

25 51 76

25 51 76

25 51 76

25 51 76

25 51 76

25 51 76

25 51 76

25 51 76

25 51 76

25 51 76

25 51 76

25 51 76

25 51 76

25 51 76

25 51 76

25 51 76

25 51 76

25 51 76

25 51 76

25 51 76

25 51 76

25 51 76

25 51 76

25 51 76

25 51 76

25 51 76

25 51 76

25 51 76

25 51 76

25 51 76

25 51 76

25 51 76

25 51 76

25 51 76

25 51 76

25 51 76

25 51 76

25 51 76

25 51 76

25 51 76

25 51 76

25 51 76

25 51 76

25 51 76

25 51 76

25 51 76

25 51 76

25 51 76

25 51 76

25 51 76

25 51 76

25 51 76

25 51 76

25 51 76

25 51 76

25 51 76

25 51 76

25 51 76

25 51 76

25 51 76

25 51 76

25 51 76

25 51 76

25 51 76

25 51 76

25 51 76

25 51 76

25 51 76

25 51 76

25 51 76

25 51 76

25 51 76

25 51 76

25 51 76

25 51 76

25 51 76

25 51 76

25 51 76

25 51 76

25 51 76

25 51 76

25 51 76

25 51 76

25 51 76

25 51 76

25 51 76

25 51 76

25 51 76

25 51 76

25 51 76

25 51 76

25 51 76

25 51 76

25 51 76

25 51 76

25 51 76

25 51 76

25 51 76

25 51 76

25 51 76

25 51 76

25 51 76

25 51 76

25 51 76

25 51 76

25 51 76

25 51 76

25 51 76

25 51 76

25 51 76

25 51 76

25 51 76

25 51 76

25 51 76

25 51 76

25 51 76

25 51 76

25 51 76

25 51 76

25 51 76

25 51 76

25 51 76

25 51 76

25 51 76

25 51 76

25 51 76

25 51 76

25 51 76

25 51 76

25 51 76

25 51 76

25 51 76

25 51 76

25 51 76

25 51 76

25 51 76

25 51 76

25 51 76

25 51 76

25 51 76

25 51 76

25 51 76

25 51 76

25 51 76

25 51 76

25 51 76

25 51 76

25 51 76

25 51 76

25 51 76

25 51 76

25 51 76

25 51 76

25 51 76

25 51 76

25 51 76

25 51 76

25 51 76

25 51 76

25 51 76

25 51 76

25 51 76

25 51 76

25 51 76

25 51 76

25 51 76

25 51 76

25 51 76

25 51 76

25 51 76

25 51 76

25 51 76

25 51 76

25 51 76

25 51 76

25 51 76

25 51 76

25 51 76

25 51 76

25 51 76

25 51 76

25 51 76

25 51 76

25 51 76

25 51 76

25 51 76

25 51 76

25 51 76

25 51 76

25 51 76

25 51 76

25 51 76

25 51 76

25 51 76

25 51 76

25 51 76

25 51 76

25 51 76

25 51 76

25 51 76

25 51 76

25 51 76

25 51 76

25 51 76

25 51 76

25 51 76

25 51 76

25 51 76

25 51 76

25 51 76

25 51 76

25 51 76

25 51 76

25 51 76

25 51 76

25 51 76

25 51 76

25 51 76

25 51 76

25 51 76

25 51 76

25 51 76

25 51 76

25 51 76

25 51 76

25 51 76

25 51 76

25 51 76

25 51 76

25 51 76

25 51 76

25 51 76

25 51 76

25 51 76

25 51 76

25 51 76

25 51 76

25 51 76

25 51 76

25 51 76

25 51 76

25 51 76

25 51 76

25 51 76

25 51 76

25 51 76

25 51 76

25 51 76

25 51 76

25 51 76

25 51 76

25 51 76

25 51 76

25 51 76

25 51 76

25 51 76

25 51 76

25 51 76

25 51 76

25 51 76

25 51 76

25 51 76

25 51 76

25 51 76

25 51 76

25 51 76

25 51 76

25 51 76

25 51 76

25 51 76

25 51 76

25 51 76

25 51 76

25 51 76

25 51 76

25 51 76

25 51 76

25 51 76

25 51 76

25 51 76

25 51 76

25 51 76

25 51 76

25 51 76

25 51 76

25 51 76

25 51 76

25 51 76

25 51 76

25 51 76

25 51 76

25 51 76

25 51 76

25 51 76

25 51 76

25 51 76

25 51 76

25 51 76

25 51 76

25 51 76

25 51 76

25 51 76

25 51 76

25 51 76

25 51 76

25 51 76

25 51 76

25 51 76

25 51 76

25 51 76

25 51 76

25 51 76

25 51 76

25 51 76

25 51 76

25 51 76

25 51 76

25 51 76

25 51 76

25 51 76

25 51 76

25 51 76

25 51 76

25 51 76

25 51 76

25 51 76

25 51 76

25 51 76

25 51 76

25 51 76

25 51 76

25 51 76

25 51 76

25 51 76

25 51 76

25 51 76

25 51 76

25 51 76

25 51 76

25 51 76

25 51 76

25 51 76

25 51 76

25 51 76

25 51 76

25 51 76

25 51 76

25 51 76

25 51 76

25 51 76

25 51 76

25 51 76

25 51 76

25 51 76

25 51 76

25 51 76

25 51 76

25 51 76

25 51 76

25 51 76

25 51 76

25 51 76

25 51 76

25 51 76

25 51 76

25 51 76

25 51 76

25 51 76

25 51 76

25 51 76

25 51 76

25 51 76

25 51 76

25 51 76

25 51 76

25 51 76

25 51 76

25 51 76

25 51 76

25 51 76

25 51 76

25 51 76

25 51 76

25 51 76

25 51 76

25 51 76

25 51 76

25 51 76

25 51 76

25 51 76

25 51 76

25 51 76

25 51 76

25 51 76

25 51 76

25 51 76

25 51 76

25 51 76

25 51 76

25 51 76

25 51 76

25 51 76

25 51 76

25 51 76

25 51 76

25 51 76

25 51 76

25 51 76

25 51 76

25 51 76

25 51 76

25 51 76

25 51 76

25 51 76

25 51 76

25 51 76

25 51 76

25 51 76

25 51 76

25 51 76

25 51 76

25 51 76

25 51 76

25 51 76

25 51 76

25 51 76

25 51 76

25 51 76

25 51 76

25 51 76

25 51 76

25 51 76

25 51 76

25 51 76

25 51 76

25 51 76

25 51 76

25 51 76

25 51 76

25 51 76

25 51 76

25 51 76

25 51 76

25 51 76

25 51 76

25 51 76

25 51 76

25 51 76

25 51 76

25 51 76

25 51 76

25 51 76

25 51 76

25 51 76

25 51 76

25 51 76

25 51 76

25 51 76

25 51 76

25 51 76

25 51 76

25 51 76

25 51 76

25 51 76

25 51 76

25 51 76

25 51 76

25 51 76

25 51 76

25 51 76

25 51 76

25 51 76

25 51 76

25 51 76

25 51 76

25 51 76

25 51 76

25 51 76

25 51 76

25 51 76

25 51 76

25 51 76

25 51 76

25 51 76

25 51 76

25 51 76

25 51 76

25 51 76

25 51 76

25 51 76

25 51 76

25 51 76

25 51 76

25 51 76

25 51 76

25 51 76

25 51 76

25 51 76

25 51 76

25 51 76

25 51 76

25 51 76

25 51 76

25 51 76

25 51 76

25 51 76

25 51 76

25 51 76

25 51 76

25 51 76

25 51 76

25 51 76

25 51 76

25 51 76

25 51 76

25 51 76

25 51 76

25 51 76

25 51 76

25 51 76

25 51 76

25 51 76

25 51 76

25 51 76

25 51 76

25 51 76

25 51 76

25 51 76

25 51 76

25 51 76

25 51 76

25 51 76

25 51 76

25 51 76

25 51 76

25 51 76

25 51 76

25 51 76

25 51 76

25 51 76

25 51 76

25 51 76

25 51 76

25 51 76

25 51 76

25 51 76

25 51 76

25 51 76

25 51 76

25 51 76

25 51 76

25 51 76

25 51 76

25 51 76

25 51 76

25 51 76

25 51 76

25 51 76

25 51 76

25 51 76

25 51 76

25 51 76

25 51 76

25 51 76

25 51 76

25 51 76

25 51 76

25 51 76

25 51 76

25 51 76

25 51 76

25 51 76

25 51 76

25 51 76

25 51 76

25 51 76

25 51 76

25 51 76

25 51 76

25 51 76

25 51 76

25 51 76

25 51 76

25 51 76

25 51 76

25 51 76

25 51 76

25 51 76

25 51 76

25 51 76

25 51 76

25 51 76

25 51 76

25 51 76

25 51 76

25 51 76

25 51 76

25 51 76

25 51 76

25 51 76

25 51 76

25 51 76

25 51 76

25 51 76

25 51 76

25 51 76

25 51 76

25 51 76

25 51 76

25 51 76

25 51 76

25 51 76

25 51 76

25 51 76

25 51 76

25 51 76

25 51 76

25 51 76

25 51 76

25 51 76

25 51 76

25 51 76

25 51 76

25 51 76

25 51 76

25 51 76

25 51 76

25 51 76

25 51 76

25 51 76

25 51 76

25 51 76

25 51 76

25 51 76

25 51 76

25 51 76

25 51 76

25 51 76

25 51 76

25 51 76

25 51 76

25 51 76

25 51 76

25 51 76

25 51 76

25 51 76

25 51 76

25 51 76

25 51 76

25 51 76

25 51 76

25 51 76

25 51 76

25 51 76

25 51 76

25 51 76

25 51 76

25 51 76

25 51 76

25 51 76

25 51 76

25 51 76

25 51 76

25 51 76

25 51 76

25 51 76

25 51 76

25 51 76

25 51 76

25 51 76

25 51 76

25 51 76

25 51 76

25 51 76

25 51 76

25 51 76

25 51 76

25 51 76

25 51 76

25 51 76

25 51 76

25 51 76

25 51 76

25 51 76

25 51 76

25 51 76

25 51 76

25 51 76

25 51 76

25 51 76

25 51 76

25 51 76

25 51 76

25 51 76

25 51 76

25 51 76

25 51 76

25 51 76

25 51 76

25 51 76

25 51 76

25 51 76

25 51 76

25 51 76

25 51 76

25 51 76

25 51 76

25 51 76

25 51 76

25 51 76

25 51 76

25 51 76

25 51 76

25 51 76

25 51 76

25 51 76

25 51 76

25 51 76

25 51 76

25 51 76

25 51 76

25 51 76

25 51 76

25 51 76

25 51 76

25 51 76

25 51 76

25 51 76

25 51 76

25 51 76

25 51 76

25 51 76

25 51 76

25 51 76

25 51 76

25 51 76

25 51 76

25 51 76

25 51 76

25 51 76

25 51 76

25 51 76

25 51 76

25 51 76

25 51 76

25 51 76

25 51 76

25 51 76

25 51 76

25 51 76

25 51 76

25 51 76

25 51 76

25 51 76

25 51 76

25 51 76

25 51 76

25 51 76

25 51 76

25 51 76

25 51 76

25 51 76

25 51 76

25 51 76

25 51 76

25 51 76

25 51 76

25 51 76

25 51 76

25 51 76

25 51 76

25 51 76

25 51 76

25 51 76

25 51 76

25 51 76

25 51 76

25 51 76

25 51 76

25 51 76

25 51 76

25 51 76

25 51 76

25 51 76

25 51 76

25 51 76

25 51 76

25 51 76

25 51 76

25 51 76

25 51 76

25 51 76

25 51 76

25 51 76

25 51 76

25 51 76

25 51 76

25 51 76

25 51 76

25 51 76

25 51 76

25 51 76

25 51 76

25 51 76

25 51 76

25 51 76

25 51 76

25 51 76

25 51 76

25 51 76

25 51 76

25 51 76

25 51 76

25 51 76

25 51 76

25 51 76

25 51 76

25 51 76

25 51 76

25 51 76

25 51 76

25 51 76

25 51 76

25 51 76

25 51 76

25 51 76

25 51 76

25 51 76

25 51 76

25 51 76

25 51 76

25 51 76

25 51 76

25 51 76

25 51 76

25 51 76

25 51 76

25 51 76

25 51 76

25 51 76

25 51 76

25 51 76

25 51 76

25 51 76

25 51 76

25 51 76

25 51 76

25 51 76

25 51 76

25 51 76

25 51 76

25 51 76

25 51 76

25 51 76

25 51 76

25 51 76

25 51 76

25 51 76

25 51 76

25 51 76

25 51 76

25 51 76

25 51 76

25 51 76

25 51 76

25 51 76

25 51 76

25 51 76

25 51 76

25 51 76

25 51 76

25 51 76

25 51 76

25 51 76

25 51 76

25 51 76

25 51 76

25 51 76

25 51 76

25 51 76

25 51 76

25 51 76

25 51 76

25 51 76

25 51 76

25 51 76

25 51 76

25 51 76

25 51 76

25 51 76

25 51 76

25 51 76

25 51 76

25 51 76

25 51 76

25 51 76

25 51 76

25 51 76

25 51 76

25 51 76

25 51 76

25 51 76

25 51 76

25 51 76

25 51 76

25 51 76

25 51 76

25 51 76

25 51 76

25 51 76

25 51 76

25 51 76

25 51 76

25 51 76

25 51 76

25 51 76

25 51 76

25 51 76

25 51 76

25 51 76

25 51 76

25 51 76

25 51 76

25 51 76

25 51 76

25 51 76

25 51 76

25 51 76

25 51 76

25 51 76

25 51 76

25 51 76

25 51 76

25 51 76

25 51 76

25 51 76

25 51 76

25 51 76

25 51 76

25 51 76

25 51 76

25 51 76

25 51 76

25 51 76

25 51 76

25 51 76

25 51 76

25 51 76

25 51 76

25 51 76

25 51 76

25 51 76

25 51 76

25 51 76

25 51 76

25 51 76

25 51 76

25 51 76

25 51 76

25 51 76

25 51 76

25 51 76

25 51 76

25 51 76

25 51 76

25 51 76

25 51 76

25 51 76

25 51 76

25 51 76

25 51 76

25 51 76

25 51 76

25 51 76

25 51 76

25 51 76

25 51 76

25 51 76

25 51 76

25 51 76

25 51 76

25 51 76

25 51 76

25 51 76

25 51 76

25 51 76

25 51 76

25 51 76

25 51 76

25 51 76

25 51 76

25 51 76

25 51 76

25 51 76

25 51 76

25 51 76

25 51 76

25 51 76

25 51 76

25 51 76

25 51 76

25 51 76

25 51 76

25 51 76

25 51 76

25 51 76

25 51 76

25 51 76

25 51 76

25 51 76

25 51 76

25 51 76

25 51 76

25 51 76

25 51 76

25 51 76

25 51 76

25 51 76

25 51 76

25 51 76

25 51 76

25 51 76

25 51 76

25 51 76

25 51 76

25 51 76

25 51 76

25 51 76

25 51 76

25 51 76

25 51 76

25 51 76

25 51 76

25 51 76

25 51 76

25 51 76

25 51 76

25 51 76

25 51 76

25 51 76

25 51 76

25 51 76

25 51 76

25 51 76

25 51 76

25 51 76

25 51 76

25 51 76

25 51 76

25 51 76

25 51 76

25 51 76

25 51 76

25 51 76

25 51 76

25 51 76

25 51 76

25 51 76

25 51 76

25 51 76

25 51 76

25 51 76

25 51 76

25 51 76

25 51 76

25 51 76

25 51 76

25 51 76

25 51 76

25 51 76

25 51 76

25 51 76

25 51 76

25 51 76

25 51 76

25 51 76

25 51 76

25 51 76

25 51 76

25 51 76

25 51 76

25 51 76

25 51 76

25 51 76

25 51 76

25 51 76

25 51 76

25 51 76

25 51 76

25 51 76

25 51 76

25 51 76

25 51 76

25 51 76

25 51 76

25 51 76

25 51 76

25 51 76

25 51 76

25 51 76

25 51 76

25 51 76

25 51 76

25 51 76

25 51 76

25 51 76

25 51 76

25 51 76

25 51 76

25 51 76

25 51 76

25 51 76

25 51 76

25 51 76

25 51 76

25 51 76

25 51 76

25 51 76

25 51 76

25 51 76

25 51 76

25 51 76

25 51 76

25 51 76

25 51 76

25 51 76

25 51 76

25 51 76

25 51 76

25 51 76

25 51 76

25 51 76

25 51 76

25 51 76

25 51 76

25 51 76

25 51 76

25 51 76

25 51 76

25 51 76

25 51 76

25 51 76

25 51 76

25 51 76

25 51 76

25 51 76

25 51 76

25 51 76

25 51 76

25 51 76

25 51 76

25 51 76

25 51 76

25 51 76

25 51 76

25 51 76

25 51 76

25 51 76

25 51 76

25 51 76

25 51 76

25 51 76

25 51 76

25 51 76

25 51 76

25 51 76

25 51 76

25 51 76

25 51 76

25 51 76

25 51 76

25 51 76

25 51 76

25 51 76

25 51 76

25 51 76

25 51 76

25 51 76

25 51 76

25 51 76

25 51 76

25 51 76

25 51 76

25 51 76

25 51 76

25 51 76

25 51 76

25 51 76

25 51 76

25 51 76

25 51 76

25 51 76

25 51 76

25 51 76

25 51 76

25 51 76

25 51 76

25 51 76

25 51 76

25 51 76

25 51 76

25 51 76

25 51 76

25 51 76

25 51 76

25 51 76

25 51 76

25 51 76

25 51 76

25 51 76

25 51 76

25 51 76

25 51 76

25 51 76

25 51 76

25 51 76

25 51 76

25 51 76

25 51 76

25 51 76

25 51 76

25 51 76

25 51 76

25 51 76

25 51 76

25 51 76

25 51 76

25 51 76

25 51 76

25 51 76

25 51 76

25 51 76

25 51 76

25 51 76

25 51 76

25 51 76

25 51 76

25 51 76

25 51 76

25 51 76

25 51 76

25 51 76

25 51 76

25 51 76

25 51 76

25 51 76

25 51 76

25 51 76

25 51 76

25 51 76

25 51 76

25 51 76

25 51 76

25 51 76

25 51 76

25 51 76

25 51 76

25 51 76

25 51 76

25 51 76

25 51 76

25 51 76

25 51 76

25 51 76

25 51 76

25 51 76

25 51 76

25 51 76

25 51 76

25 51 76

25 51 76

25 51 76

25 51 76

25 51 76

25 51 76

25 51 76

25 51 76

25 51 76

25 51 76

25 51 76

25 51 76

25 51 76

25 51 76

25 51 76

25 51 76

25 51 76

25 51 76

25 51 76

25 51 76

25 51 76

25 51 76

25 51 76

25 51 76

25 51 76

25 51 76

25 51 76

25 51 76

25 51 76

25 51 76

25 51 76

25 51 76

25 51 76

25 51 76

25 51 76

25 51 76

25 51 76

25 51 76

25 51 76

25 51 76

25 51 76

25 51 76

25 51 76

25 51 76

25 51 76

25 51 76

25 51 76

25 51 76

25 51 76

25 51 76

25 51 76

25 51 76

25 51 76

25 51 76

25 51 76

25 51 76

25 51 76

25 51 76

25 51 76

25 51 76

25 51 76

25 51 76

25 51 76

25 51 76

25 51 76

25 51 76

25 51 76

25 51 76

25 51 76

25 51 76

25 51 76

25 51 76

25 51 76

25 51 76

25 51 76

25 51 76

25 51 76

25 51 76

25 51 76

25 51 76

25 51 76

25 51 76

25 51 76

25 51 76

25 51 76

25 51 76

25 51 76

25 51 76

25 51 76

25 51 76

25 51 76

25 51 76

25 51 76

25 51 76

25 51 76

25 51 76

25 51 76

25 51 76

25 51 76

25 51 76

25 51 76

25 51 76

25 51 76

25 51 76

25 51 76

25 51 76

25 51 76

25 51 76

25 51 76

25 51 76

25 51 76

25 51 76

25 51 76

25 51 76

25 51 76

25 51 76

25 51 76

25 51 76

25 51 76

25 51 76

25 51 76

25 51 76

25 51 76

25 51 76

25 51 76

25 51 76

25 51 76

25 51 76

25 51 76

25 51 76

25 51 76

25 51 76

25 51 76

25 51 76

25 51 76

25 51 76

25 51 76

25 51 76

25 51 76

25 51 76

25 51 76

25 51 76

25 51 76

25 51 76

25 51 76

25 51 76

25 51 76

25 51 76

25 51 76

25 51 76

25 51 76

25 51 76

25 51 76

25 51 76

25 51 76

25 51 76

25 51 76

25 51 76

25 51 76

25 51 76

25 51 76

25 51 76

25 51 76

25 51 76

25 51 76

25 51 76

25 51 76

25 51 76

25 51 76

25 51 76

25 51 76

25 51 76

25 51 76

25 51 76

25 51 76

25 51 76

25 51 76

25 51 76

25 51 76

25 51 76

25 51 76

25 51 76

25 51 76

25 51 76

25 51 76

25 51 76

25 51 76

25 51 76

25 51 76

25 51 76

25 51 76

25 51 76

25 51 76

25 51 76

25 51 76

25 51 76

25 51 76

25 51 76

25 51 76

25 51 76

25 51 76

25 51 76

25 51 76

25 51 76

25 51 76

25 51 76

25 51 76

25 51 76

25 51 76

25 51 76

25 51 76

25 51 76

25 51 76

25 51 76

25 51 76

25 51 76

25 51 76

25 51 76

25 51 76

25 51 76

25 51 76

25 51 76

25 51 76

25 51 76

25 51 76

25 51 76

25 51 76

25 51 76

25 51 76

25 51 76

25 51 76

25 51 76

25 51 76

25 51 76

25 51 76

25 51 76

25 51 76

25 51 76

25 51 76

25 51 76

25 51 76

25 51 76

25 51 76

25 51 76

25 51 76

25 51 76

25 51 76

25 51 76

25 51 76

25 51 76

25 51 76

25 51 76

25 51 76

25 51 76

25 51 76

25 51 76

25 51 76

25 51 76

25 51 76

25 51 76

25 51 76

25 51 76

25 51 76

25 51 76

25 51 76

25 51 76

25 51 76

25 51 76

25 51 76

25 51 76

25 51 76

25 51 76

25 51 76

25 51 76

25 51 76

25 51 76

25 51 76

25 51 76

25 51 76

25 51 76

25 51 76

25 51 76

25 51 76

25 51 76

25 51 76

25 51 76

25 51 76

25 51 76

25 51 76

25 51 76

25 51 76

25 51 76

25 51 76

25 51 76

25 51 76

25 51 76

25 51 76

25 51 76

25 51 76

25 51 76

25 51 76

25 51 76

25 51 76

25 51 76

25 51 76

25 51 76

25 51 76

25 51 76

25 51 76

25 51 76

25 51 76

25 51 76

25 51 76

25 51 76

25 51 76

25 51 76

25 51 76

25 51 76

25 51 76

25 51 76

25 51 76

25 51 76

25 51 76

25 51 76

25 51 76

25 51 76

25 51 76

25 51 76

25 51 76

25 51 76

25 51 76

25 51 76

25 51 76

25 51 76

25 51 76

25 51 76

25 51 76

25 51 76

25 51 76

25 51 76

25 51 76

25 51 76

25 51 76

25 51 76

25 51 76

25 51 76

25 51 76

25 51 76

25 51 76

25 51 76

25 51 76

25 51 76

25 51 76

25 51 76

25 51 76

25 51 76

25 51 76

25 51 76

25 51 76

25 51 76

25 51 76

25 51 76

25 51 76

25 51 76

25 51 76

25 51 76

25 51 76

25 51 76

25 51 76

25 51 76

25 51 76

25 51 76

25 51 76

25 51 76

25 51 76

25 51 76

25 51 76

25 51 76

25 51 76

25 51 76

25 51 76

25 51 76

25 51 76

25 51 76

25 51 76

25 51 76

25 51 76

25 51 76

25 51 76

25 51 76

25 51 76

25 51 76

25 51 76

25 51 76

25 51 76

25 51 76

25 51 76

25 51 76

25 51 76

25 51 76

25 51 76

25 51 76

25 51 76

25 51 76

25 51 76

25 51 76

25 51 76

25 51 76

25 51 76

25 51 76

25 51 76

25 51 76

25 51 76

25 51 76

25 51 76

25 51 76

25 51 76

25 51 76

25 51 76

25 51 76

25 51 76

25 51 76

25 51 76

25 51 76

25 51 76

25 51 76

25 51 76

25 51 76

25 51 76

25 51 76

25 51 76

25 51 76

25 51 76

25 51 76

25 51 76

25 51 76

25 51 76

25 51 76

25 51 76

25 51 76

25 51 76

25 51 76

25 51 76

25 51 76

25 51 76

25 51 76

25 51 76

25 51 76

25 51 76

25 51 76

25 51 76

25 51 76

25 51 76

25 51 76

25 51 76

25 51 76

25 51 76

25 51 76

25 51 76

25 51 76

25 51 76

25 51 76

25 51 76

25 51 76

25 51 76

25 51 76

25 51 76

25 51 76

25 51 76

25 51 76

25 51 76

25 51 76

25 51 76

25 51 76

25 51 76

25 51 76

25 51 76

25 51 76

25 51 76

25 51 76

25 51 76

25 51 76

25 51 76

25 51 76

25 51 76

25 51 76

25 51 76

25 51 76

25 51 76

25 51 76

25 51 76

25 51 76

25 51 76

25 51 76

25 51 76

25 51 76

25 51 76

25 51 76

25 51 76

25 51 76

25 51 76

25 51 76

25 51 76

25 51 76

25 51 76

25 51 76

25 51 76

25 51 76

25 51 76

25 51 76

25 51 76

25 51 76

25 51 76

25 51 76

25 51 76

25 51 76

25 51 76

25 51 76

25 51 76

25 51 76

25 51 76

25 51 76

25 51 76

25 51 76

25 51 76

25 51 76

25 51 76

25 51 76

25 51 76

25 51 76

25 51 76

25 51 76

25 51 76

25 51 76

25 51 76

25 51 76

25 51 76

25 51 76

25 51 76

25 51 76

25 51 76

25 51 76

25 51 76

25 51 76

25 51 76

25 51 76

25 51 76

25 51 76

25 51 76

25 51 76

25 51 76

25 51 76

25 51 76

25 51 76

25 51 76

25 51 76

25 51 76

25 51 76

25 51 76

25 51 76

25 51 76

25 51 76

25 51 76

25 51 76

25 51 76

25 51 76

25 51 76

25 51 76

25 51 76

25 51 76

25 51 76

25 51 76

25 51 76

25 51 76

25 51 76

25 51 76

25 51 76

25 51 76

25 51 76

25 51 76

25 51 76

25 51 76

25 51 76

25 51 76

25 51 76

25 51 76

25 51 76

25 51 76

25 51 76

25 51 76

25 51 76

25 51 76

25 51 76

25 51 76

25 51 76

25 51 76

25 51 76

25 51 76

25 51 76

25 51 76

25 51 76

25 51 76

25 51 76

25 51 76

25 51 76

25 51 76

25 51 76

25 51 76

25 51 76

25 51 76

25 51 76

25 51 76

25 51 76

25 51 76

25 51 76

25 51 76

25 51 76

25 51 76

25 51 76

25 51 76

25 51 76

25 51 76

25 51 76

25 51 76

25 51 76

25 51 76

25 51 76

25 51 76

25 51 76

25 51 76

25 51 76

25 51 76

25 51 76

25 51 76

25 51 76

25 51 76

25 51 76

25 51 76

25 51 76

25 51 76

25 51 76

25 51 76

25 51 76

25 51 76

25 51 76

25 51 76

25 51 76

25 51 76

25 51 76

25 51 76

25 51 76

25 51 76

25 51 76

25 51 76

25 51 76

25 51 76

25 51 76

25 51 76

25 51 76

25 51 76

25 51 76

25 51 76

25 51 76

25 51 76

25 51 76

25 51 76

25 51 76

25 51 76

25 51 76

25 51 76

25 51 76

25 51 76

25 51 76

25 51 76

25 51 76

25 51 76

25 51 76

25 51 76

25 51 76

25 51 76

25 51 76

25 51 76

25 51 76

25 51 76

25 51 76

25 51 76

25 51 76

25 51 76

25 51 76

25 51 76

25 51 76

25 51 76

25 51 76

25 51 76

25 51 76

25 51 76

25 51 76

25 51 76

25 51 76

25 51 76

25 51 76

25 51 76

25 51 76

25 51 76

25 51 76

25 51 76

25 51 76

25 51 76

25 51 76

25 51 76

25 51 76

25 51 76

25 51 76

25 51 76

25 51 76

25 51 76

25 51 76

25 51 76

25 51 76

25 51 76

25 51 76

25 51 76

25 51 76

25 51 76

25 51 76

25 51 76

25 51 76

25 51 76

25 51 76

25 51 76

25 51 76

25 51 76

25 51 76

25 51 76

25 51 76

25 51 76

25 51 76

25 51 76

25 51 76

25 51 76

25 51 76

25 51 76

25 51 76

25 51 76

25 51 76

25 51 76

25 51 76

25 51 76

25 51 76

25 51 76

25 51 76

25 51 76

25 51 76

25 51 76

25 51 76

25 51 76

25 51 76

25 51 76

25 51 76

25 51 76

25 51 76

25 51 76

25 51 76

25 51 76

25 51 76

25 51 76

25 51 76

25 51 76

25 51 76

25 51 76

25 51 76

25 51 76

25 51 76

25 51 76

25 51 76

25 51 76

25 51 76

25 51 76

25 51 76

25 51 76

25 51 76

25 51 76

25 51 76

25 51 76

25 51 76

25 51 76

25 51 76

25 51 76

25 51 76

25 51 76

25 51 76

25 51 76

25 51 76

25 51 76

25 51 76

25 51 76

25 51 76

25 51 76

25 51 76

25 51 76

25 51 76

25 51 76

25 51 76

25 51 76

25 51 76

25 51 76

25 51 76

25 51 76

25 51 76

25 51 76

25 51 76

25 51 76

25 51 76

25 51 76

25 51 76

25 51 76

25 51 76

25 51 76

25 51 76

25 51 76

25 51 76

25 51 76

25 51 76

25 51 76

25 51 76

25 51 76

25 51 76

25 51 76

25 51 76

25 51 76

25 51 76

25 51 76

25 51 76

25 51 76

25 51 76

25 51 76

25 51 76

25 51 76

25 51 76

25 51 76

25 51 76

25 51 76

25 51 76

25 51 76

25 51 76

25 51 76

25 51 76

25 51 76

25 51 76

25 51 76

25 51 76

25 51 76

25 51 76

25 51 76

25 51 76

25 51 76

25 51 76

25 51 76

25 51 76

25 51 76

25 51 76

25 51 76

25 51 76

25 51 76

25 51 76

25 51 76

25 51 76

25 51 76

25 51 76

25 51 76

25 51 76

25 51 76

25 51 76

25 51 76

25 51 76

25 51 76

25 51 76

25 51 76

25 51 76

25 51 76

25 51 76

25 51 76

25 51 76

25 51 76

25 51 76

25 51 76

25 51 76

25 51 76

25 51 76

25 51 76

25 51 76

25 51 76

25 51 76

25 51 76

25 51 76

25 51 76

25 51 76

25 51 76

25 51 76

25 51 76

25 51 76

25 51 76

25 51 76

25 51 76

25 51 76

25 51 76

25 51 76

25 51 76

25 51 76

25 51 76

25 51 76

25 51 76

25 51 76

25 51 76

25 51 76

25 51 76

25 51 76

25 51 76

25 51 76

25 51 76

25 51 76

25 51 76

25 51 76

25 51 76

25 51 76

25 51 76

25 51 76

25 51 76

25 51 76

25 51 76

25 51 76

25 51 76

25 51 76

25 51 76

25 51 76

25 51 76

25 51 76

25 51 76

25 51 76

25 51 76

25 51 76

25 51 76

25 51 76

25 51 76

25 51 76

25 51 76

25 51 76

25 51 76

25 51 76

25 51 76

25 51 76

25 51 76

25 51 76

25 51 76

25 51 76

25 51 76

25 51 76

25 51 76

25 51 76

25 51 76

25 51 76

25 51 76

25 51 76

25 51 76

25 51 76

25 51 76

25 51 76

25 51 76

25 51 76

25 51 76

25 51 76

25 51 76

25 51 76

25 51 76

25 51 76

25 51 76

25 51 76

25 51 76

25 51 76

25 51 76

25 51 76

25 51 76

25 51 76

25 51 76

25 51 76

25 51 76

25 51 76

25 51 76

25 51 76

25 51 76

25 51 76

25 51 76

25 51 76

25 51 76

25 51 76

25 51 76

25 51 76

25 51 76

25 51 76

25 51 76

25 51 76

25 51 76

25 51 76

25 51 76

25 51 76

25 51 76

25 51 76

25 51 76

25 51 76

25 51 76

25 51 76

25 51 76

25 51 76

25 51 76

25 51 76

25 51 76

25 51 76

25 51 76

25 51 76

25 51 76

25 51 76

25 51 76

25 51 76

25 51 76

25 51 76

25 51 76

25 51 76

25 51 76

25 51 76

25 51 76

25 51 76

25 51 76

25 51 76

25 51 76

25 51 76

25 51 76

25 51 76

25 51 76

25 51 76

25 51 76

25 51 76

25 51 76

25 51 76

25 51 76

25 51 76

25 51 76

25 51 76

25 51 76

25 51 76

25 51 76

25 51 76

25 51 76

25 51 76

25 51 76

25 51 76

25 51 76

25 51 76

25 51 76

25 51 76

25 51 76

25 51 76

25 51 76

25 51 76

25 51 76

25 51 76

25 51 76

25 51 76

25 51 76

25 51 76

25 51 76

25 51 76

25 51 76

25 51 76

25 51 76

25 51 76

25 51 76

25 51 76

25 51 76

25 51 76

25 51 76

25 51 76

25 51 76

25 51 76

25 51 76

25 51 76

25 51 76

25 51 76

25 51 76

25 51 76

25 51 76

25 51 76

25 51 76

25 51 76

25 51 76

25 51 76

25 51 76

25 51 76

25 51 76

25 51 76

25 51 76

25 51 76

25 51 76

25 51 76

25 51 76

25 51 76

25 51 76

25 51 76

25 51 76

25 51 76

25 51 76

25 51 76

25 51 76

25 51 76

25 51 76

25 51 76

25 51 76

25 51 76

25 51 76

25 51 76

25 51 76

25 51 76

25 51 76

25 51 76

25 51 76

25 51 76

25 51 76

25 51 76

25 51 76

25 51 76

25 51 76

25 51 76

25 51 76

25 51 76

25 51 76

25 51 76

25 51 76

25 51 76

25 51 76

25 51 76

25 51 76

25 51 76

25 51 76

25 51 76

25 51 76

25 51 76

25 51 76

25 51 76

25 51 76

25 51 76

25 51 76

25 51 76

25 51 76

25 51 76

25 51 76

25 51 76

25 51 76

25 51 76

25 51 76

25 51 76

25 51 76

25 51 76

25 51 76

25 51 76

25 51 76

25 51 76

25 51 76

25 51 76

25 51 76

25 51 76

25 51 76

25 51 76

25 51 76

25 51 76

25 51 76

25 51 76

25 51 76

25 51 76

25 51 76

25 51 76

25 51 76

25 51 76

25 51 76

25 51 76

25 51 76

25 51 76

25 51 76

25 51 76

25 51 76

25 51 76

25 51 76

25 51 76

25 51 76

25 51 76

25 51 76

25 51 76

25 51 76

25 51 76

25 51 76

25 51 76

25 51 76

25 51 76

25 51 76

25 51 76

25 51 76

25 51 76

25 51 76

25 51 76

25 51 76

25 51 76

25 51 76

25 51 76

25 51 76

25 51 76

25 51 76

25 51 76

25 51 76

25 51 76

25 51 76

25 51 76

25 51 76

25 51 76

25 51 76

25 51 76

25 51 76

25 51 76

25 51 76

25 51 76

25 51 76

25 51 76

25 51 76

25 51 76

25 51 76

25 51 76

25 51 76

25 51 76

25 51 76

25 51 76

25 51 76

25 51 76

25 51 76

25 51 76

25 51 76

25 51 76

25 51 76

25 51 76

25 51 76

25 51 76

25 51 76

25 51 76

25 51 76

25 51 76

25 51 76

25 51 76

25 51 76

25 51 76

25 51 76

25 51 76

25 51 76

25 51 76

25 51 76

25 51 76

25 51 76

25 51 76

25 51 76

25 51 76

25 51 76

25 51 76

25 51 76

25 51 76

25 51 76

25 51 76

25 51 76

25 51 76

25 51 76

25 51 76

25 51 76

25 51 76

25 51 76

25 51 76

25 51 76

25 51 76

25 51 76

25 51 76

25 51 76

25 51 76

25 51 76

25 51 76

25 51 76

25 51 76

25 51 76

25 51 76

25 51 76

25 51 76

25 51 76

25 51 76

25 51 76

25 51 76

25 51 76

25 51 76

25 51 76

25 51 76

25 51 76

25 51 76

25 51 76

25 51 76

25 51 76

25 51 76

25 51 76

25 51 76

25 51 76

25 51 76

25 51 76

25 51 76

25 51 76

25 51 76

25 51 76

25 51 76

25 51 76

25 51 76

25 51 76

25 51 76

25 51 76

25 51 76

25 51 76

25 51 76

25 51 76

25 51 76

25 51 76

25 51 76

25 51 76

25 51 76

25 51 76

25 51 76

25 51 76

25 51 76

25 51 76

25 51 76

25 51 76

25 51 76

25 51 76

25 51 76

25 51 76

25 51 76

25 51 76

25 51 76

25 51 76

25 51 76

25 51 76

25 51 76

25 51 76

25 51 76

25 51 76

25 51 76

25 51 76

25 51 76

25 51 76

25 51 76

25 51 76

25 51 76

25 51 76

25 51 76

25 51 76

25 51 76

25 51 76

25 51 76

25 51 76

25 51 76

25 51 76

25 51 76

25 51 76

25 51 76

25 51 76

25 51 76

25 51 76

25 51 76

25 51 76

25 51 76

25 51 76

25 51 76

25 51 76

25 51 76

25 51 76

25 51 76

25 51 76

25 51 76

25 51 76

25 51 76

25 51 76

25 51 76

25 51 76

25 51 76

25 51 76

25 51 76

25 51 76

25 51 76

25 51 76

25 51 76

25 51 76

25 51 76

25 51 76

25 51 76

25 51 76

25 51 76

25 51 76

25 51 76

25 51 76

25 51 76

25 51 76

25 51 76

25 51 76

25 51 76

25 51 76

25 51 76

25 51 76

25 51 76

25 51 76

25 51 76

25 51 76

25 51 76

25 51 76

25 51 76

25 51 76

25 51 76

25 51 76

25 51 76

25 51 76

25 51 76

25 51 76

25 51 76

25 51 76

25 51 76

25 51 76

25 51 76

25 51 76

25 51 76

25 51 76

25 51 76

25 51 76

25 51 76

25 51 76

25 51 76

25 51 76

25 51 76

25 51 76

25 51 76

25 51 76

25 51 76

25 51 76

25 51 76

25 51 76

25 51 76

25 51 76

25 51 76

25 51 76

25 51 76

25 51 76

25 51 76

25 51 76

25 51 76

25 51 76

25 51 76

25 51 76

25 51 76

25 51 76

25 51 76

25 51 76

25 51 76

25 51 76

25 51 76

25 51 76

25 51 76

25 51 76

25 51 76

25 51 76

25 51 76

25 51 76

25 51 76

25 51 76

25 51 76

25 51 76

25 51 76

25 51 76

25 51 76

25 51 76

25 51 76

25 51 76

25 51 76

25 51 76

25 51 76

25 51 76

25 51 76

25 51 76

25 51 76

25 51 76

25 51 76

25 51 76

25 51 76

25 51 76

25 51 76

25 51 76

25 51 76

25 51 76

25 51 76

25 51 76

25 51 76

25 51 76

25 51 76

25 51 76

25 51 76

25 51 76

25 51 76

25 51 76

25 51 76

25 51 76

25 51 76

25 51 76

25 51 76

25 51 76

25 51 76

25 51 76

25 51 76

25 51 76

25 51 76

25 51 76

25 51 76

25 51 76

25 51 76

25 51 76

25 51 76

25 51 76

25 51 76

25 51 76

25 51 76

25 51 76

25 51 76

25 51 76

25 51 76

25 51 76

25 51 76

25 51 76

25 51 76

25 51 76

25 51 76

25 51 76

25 51 76

25 51 76

25 51 76

25 51 76

25 51 76

25 51 76

25 51 76

25 51 76

25 51 76

25 51 76

25 51 76

25 51 76

25 51 76

25 51 76

25 51 76

25 51 76

25 51 76

25 51 76

25 51 76

25 51 76

25 51 76

25 51 76

25 51 76

25 51 76

25 51 76

25 51 76

25 51 76

25 51 76

25 51 76

25 51 76

25 51 76

25 51 76

25 51 76

25 51 76

25 51 76

25 51 76

25 51 76

25 51 76

25 51 76

25 51 76

25 51 76

25 51 76

25 51 76

25 51 76

25 51 76

25 51 76

25 51 76

25 51 76

25 51 76

25 51 76

25 51 76

25 51 76

25 51 76

25 51 76

25 51 76

25 51 76

25 51 76

25 51 76

25 51 76

25 51 76

25 51 76

25 51 76

25 51 76

25 51 76

25 51 76

25 51 76

25 51 76

25 51 76

25 51 76

25 51 76

25 51 76

25 51 76

25 51 76

25 51 76

25 51 76

25 51 76

25 51 76

25 51 76

25 51 76

25 51 76

25 51 76

25 51 76

25 51 76

25 51 76

25 51 76

25 51 76

25 51 76

25 51 76

25 51 76

25 51 76

25 51 76

25 51 76

25 51 76

25 51 76

25 51 76

25 51 76

25 51 76

25 51 76

25 51 76

25 51 76

25 51 76

25 51 76

25 51 76

25 51 76

25 51 76

25 51 76

25 51 76

25 51 76

25 51 76

25 51 76

25 51 76

25 51 76

25 51 76

25 51 76

25 51 76

25 51 76

25 51 76

25 51 76

25 51 76

25 51 76

25 51 76

25 51 76

25 51 76

25 51 76

25 51 76

25 51 76

25 51 76

25 51 76

25 51 76

25 51 76

25 51 76

25 51 76

25 51 76

25 51 76

25 51 76

25 51 76

25 51 76

25 51 76

25 51 76

25 51 76

25 51 76

25 51 76

25 51 76

25 51 76

25 51 76

25 51 76

25 51 76

25 51 76

25 51 76

25 51 76

25 51 76

25 51 76

25 51 76

25 51 76

25 51 76

25 51 76

25 51 76

25 51 76

25 51 76

25 51 76

25 51 76

25 51 76

25 51 76

25 51 76

25 51 76

25 51 76

25 51 76

25 51 76

25 51 76

25 51 76

25 51 76

25 51 76

25 51 76

25 51 76

25 51 76

25 51 76

25 51 76

25 51 76

25 51 76

25 51 76

25 51 76

25 51 76

25 51 76

25 51 76

25 51 76

25 51 76

25 51 76

25 51 76

25 51 76

25 51 76

25 51 76

25 51 76

25 51 76

25 51 76

25 51 76

25 51 76

25 51 76

25 51 76

25 51 76

25 51 76

25 51 76

25 51 76

25 51 76

25 51 76

25 51 76

25 51 76

25 51 76

25 51 76

25 51 76

25 51 76

25 51 76

25 51 76

25 51 76

25 51 76

25 51 76

25 51 76

25 51 76

25 51 76

25 51 76

25 51 76

25 51 76

25 51 76

25 51 76

25 51 76

25 51 76

25 51 76

25 51 76

25 51 76

25 51 76

25 51 76

25 51 76

25 51 76

25 51 76

25 51 76

25 51 76

25 51 76

25 51 76

25 51 76

25 51 76

25 51 76

25 51 76

25 51 76

25 51 76

25 51 76

25 51 76

25 51 76

25 51 76

25 51 76

25 51 76

25 51 76

25 51 76

25 51 76

25 51 76

25 51 76

25 51 76

25 51 76

25 51 76

25 51 76

25 51 76

25 51 76

25 51 76

25 51 76

25 51 76

25 51 76

25 51 76

25 51 76

25 51 76

25 51 76

25 51 76

25 51 76

25 51 76

25 51 76

25 51 76

25 51 76

25 51 76

25 51 76

25 51 76

25 51 76

25 51 76

25 51 76

25 51 76

25 51 76

25 51 76

25 51 76

25 51 76

25 51 76

25 51 76

25 51 76

25 51 76

25 51 76

25 51 76

25 51 76

25 51 76

25 51 76

25 51 76

25 51 76

25 51 76

25 51 76

25 51 76

25 51 76

25 51 76

25 51 76

25 51 76

25 51 76

25 51 76

25 51 76

25 51 76

25 51 76

25 51 76

25 51 76

25 51 76

25 51 76

25 51 76

25 51 76

25 51 76

25 51 76

25 51 76

25 51 76

25 51 76

25 51 76

25 51 76

25 51 76

25 51 76

25 51 76

25 51 76

25 51 76

25 51 76

25 51 76

25 51 76

25 51 76

25 51 76

25 51 76

25 51 76

25 51 76

25 51 76

25 51 76

25 51 76

25 51 76

25 51 76

25 51 76

25 51 76

25 51 76

25 51 76

25 51 76

25 51 76

25 51 76

25 51 76

25 51 76

25 51 76

25 51 76

25 51 76

25 51 76

25 51 76

25 51 76

25 51 76

25 51 76

25 51 76

25 51 76

25 51 76

25 51 76

25 51 76

25 51 76

25 51 76

25 51 76

25 51 76

25 51 76

25 51 76

25 51 76

25 51 76

25 51 76

25 51 76

25 51 76

25 51 76

25 51 76

25 51 76

25 51 76

25 51 76

25 51 76

25 51 76

25 51 76

25 51 76

25 51 76

25 51 76

25 51 76

25 51 76

25 51 76

25 51 76

25 51 76

25 51 76

25 51 76

25 51 76

25 51 76

25 51 76

25 51 76

25 51 76

25 51 76

25 51 76

25 51 76

25 51 76

25 51 76

25 51 76

25 51 76

25 51 76

25 51 76

25 51 76

25 51 76

25 51 76

25 51 76

25 51 76

25 51 76

25 51 76

25 51 76

25 51 76

25 51 76

25 51 76

25 51 76

25 51 76

25 51 76

25 51 76

25 51 76

25 51 76

25 51 76

25 51 76

25 51 76

25 51 76

25 51 76

25 51 76

25 51 76

25 51 76

25 51 76

25 51 76

25 51 76

25 51 76

25 51 76

25 51 76

25 51 76

25 51 76

25 51 76

25 51 76

25 51 76

25 51 76

25 51 76

25 51 76

25 51 76

25 51 76

25 51 76

25 51 76

25 51 76

25 51 76

25 51 76

25 51 76

25 51 76

25 51 76

25 51 76

25 51 76

25 51 76

25 51 76

25 51 76

25 51 76

25 51 76

25 51 76

25 51 76

25 51 76

25 51 76

25 51 76

25 51 76

25 51 76

25 51 76

25 51 76

25 51 76

25 51 76

25 51 76

25 51 76

25 51 76

25 51 76

25 51 76

25 51 76

25 51 76

25 51 76

25 51 76

25 51 76

25 51 76

25 51 76

25 51 76

25 51 76

25 51 76

25 51 76

25 51 76

25 51 76

25 51 76

25 51 76

25 51 76

25 51 76

25 51 76

25 51 76

25 51 76

25 51 76

25 51 76

25 51 76

25 51 76

25 51 76

25 51 76

25 51 76

25 51 76

25 51 76

25 51 76

25 51 76

25 51 76

25 51 76

25 51 76

25 51 76

25 51 76

25 51 76

25 51 76

25 51 76

25 51 76

25 51 76

25 51 76

25 51 76

25 51 76

25 51 76

25 51 76

25 51 76

25 51 76

25 51 76

25 51 76

25 51 76

25 51 76

25 51 76

25 51 76

25 51 76

25 51 76

25 51 76

25 51 76

25 51 76

25 51 76

25 51 76

25 51 76

25 51 76

25 51 76

25 51 76

25 51 76

25 51 76

25 51 76

25 51 76

25 51 76

25 51 76

25 51 76

25 51 76

25 51 76

25 51 76

25 51 76

25 51 76

25 51 76

25 51 76

25 51 76

25 51 76

25 51 76

25 51 76

25 51 76

25 51 76

25 51 76

25 51 76

25 51 76

25 51 76

25 51 76

25 51 76

25 51 76

25 51 76

25 51 76

25 51 76

25 51 76

25 51 76

25 51 76

25 51 76

25 51 76

25 51 76

25 51 76

25 51 76

25 51 76

25 51 76

25 51 76

25 51 76

25 51 76

25 51 76

25 51 76

25 51 76

25 51 76

25 51 76

25 51 76

25 51 76

25 51 76

25 51 76

25 51 76

25 51 76

25 51 76

25 51 76

25 51 76

25 51 76

25 51 76

25 51 76

25 51 76

25 51 76

25 51 76

25 51 76

25 51 76

25 51 76

25 51 76

25 51 76

25 51 76

25 51 76

25 51 76

25 51 76

25 51 76

25 51 76

25 51 76

25 51 76

25 51 76

25 51 76

25 51 76

25 51 76

25 51 76

25 51 76

25 51 76

25 51 76

25 51 76

25 51 76

25 51 76

25 51 76

25 51 76

25 51 76

25 51 76

25 51 76

25 51 76

25 51 76

25 51 76

25 51 76

25 51 76

25 51 76

25 51 76

25 51 76

25 51 76

25 51 76

25 51 76

25 51 76

25 51 76

25 51 76

25 51 76

25 51 76

25 51 76

25 51 76

25 51 76

25 51 76

25 51 76

25 51 76

25 51 76

25 51 76

25 51 76

25 51 76

25 51 76

25 51 76

25 51 76

25 51 76

25 51 76

25 51 76

25 51 76

25 51 76

25 51 76

25 51 76

25 51 76

25 51 76

25 51 76

25 51 76

25 51 76

25 51 76

25 51 76

25 51 76

25 51 76

25 51 76

25 51 76

25 51 76

25 51 76

25 51 76

25 51 76

25 51 76

25 51 76

25 51 76

25 51 76

25 51 76

25 51 76

25 51 76

25 51 76

25 51 76

25 51 76

25 51 76

25 51 76

25 51 76

25 51 76

25 51 76

25 51 76

25 51 76

25 51 76

25 51 76

25 51 76

25 51 76

25 51 76

25 51 76

25 51 76

25 51 76

25 51 76

25 51 76

25 51 76

25 51 76

25 51 76

25 51 76

25 51 76

25 51 76

25 51 76

25 51 76

25 51 76

25 51 76

25 51 76

25 51 76

25 51 76

25 51 76

25 51 76

25 51 76

25 51 76

25 51 76

25 51 76

25 51 76

25 51 76

25 51 76

25 51 76

25 51 76

25 51 76

25 51 76

25 51 76

25 51 76

25 51 76

25 51 76

25 51 76

25 51 76

25 51 76

25 51 76

25 51 76

25 51 76

25 51 76

25 51 76

25 51 76

25 51 76

25 51 76

25 51 76

25 51 76

25 51 76

25 51 76

25 51 76

25 51 76

25 51 76

25 51 76

25 51 76

25 51 76

25 51 76

25 51 76

25 51 76

25 51 76

25 51 76

25 51 76

25 51 76

25 51 76

25 51 76

25 51 76

25 51 76

25 51 76

25 51 76

25 51 76

25 51 76

25 51 76

25 51 76

25 51 76

25 51 76

25 51 76

25 51 76

25 51 76

25 51 76

25 51 76

25 51 76

25 51 76

25 51 76

25 51 76

25 51 76

25 51 76

25 51 76

25 51 76

25 51 76

25 51 76

25 51 76

25 51 76

25 51 76

25 51 76

25 51 76

25 51 76

25 51 76

25 51 76

25 51 76

25 51 76

25 51 76

25 51 76

25 51 76

25 51 76

25 51 76

25 51 76

25 51 76

25 51 76

25 51 76

25 51 76

25 51 76

25 51 76

25 51 76

25 51 76

25 51 76

25 51 76

25 51 76

25 51 76

25 51 76

25 51 76

25 51 76

25 51 76

25 51 76

25 51 76

25 51 76

25 51 76

25 51 76

25 51 76

25 51 76

25 51 76

25 51 76

25 51 76

25 51 76

25 51 76

25 51 76

25 51 76

25 51 76

25 51 76

25 51 76

25 51 76

25 51 76

25 51 76

25 51 76

25 51 76

25 51 76

25 51 76

25 51 76

25 51 76

25 51 76

25 51 76

25 51 76

25 51 76

25 51 76

25 51 76

25 51 76

25 51 76

25 51 76

25 51 76

25 51 76

25 51 76

25 51 76

25 51 76

25 51 76

25 51 76

25 51 76

25 51 76

25 51 76

25 51 76

25 51 76

25 51 76

25 51 76

25 51 76

25 51 76

25 51 76

25 51 76

25 51 76

25 51 76

25 51 76

25 51 76

25 51 76

25 51 76

25 51 76

25 51 76

25 51 76

25 51 76

25 51 76

25 51 76

25 51 76

25 51 76

25 51 76

25 51 76

25 51 76

25 51 76

25 51 76

25 51 76

25 51 76

25 51 76

25 51 76

25 51 76

25 51 76

25 51 76

25 51 76

25 51 76

25 51 76

25 51 76

25 51 76

25 51 76

25 51 76

25 51 76

25 51 76

25 51 76

25 51 76

25 51 76

25 51 76

25 51 76

25 51 76

25 51 76

25 51 76

25 51 76

25 51 76

25 51 76

25 51 76

25 51 76

25 51 76

25 51 76

25 51 76

25 51 76

25 51 76

25 51 76

25 51 76

25 51 76

25 51 76

25 51 76

25 51 76

25 51 76

25 51 76

25 51 76

25 51 76

25 51 76

25 51 76

25 51 76

25 51 76

25 51 76

25 51 76

25 51 76

25 51 76

25 51 76

25 51 76

25 51 76

25 51 76

25 51 76

25 51 76

25 51 76

25 51 76

25 51 76

25 51 76

25 51 76

25 51 76

25 51 76

25 51 76

25 51 76

25 51 76

25 51 76

25 51 76

25 51 76

25 51 76

25 51 76

25 51 76

25 51 76

25 51 76

25 51 76

25 51 76

25 51 76

25 51 76

25 51 76

25 51 76

25 51 76

25 51 76

25 51 76

25 51 76

25 51 76

25 51 76

25 51 76

25 51 76

25 51 76

25 51 76

25 51 76

25 51 76

25 51 76

25 51 76

25 51 76

25 51 76

25 51 76

25 51 76

25 51 76

25 51 76

25 51 76

25 51 76

25 51 76

25 51 76

25 51 76

25 51 76

25 51 76

25 51 76

25 51 76

25 51 76

25 51 76

25 51 76

25 51 76

25 51 76

25 51 76

25 51 76

25 51 76

25 51 76

25 51 76

25 51 76

25 51 76

25 51 76

25 51 76

25 51 76

25 51 76

25 51 76

25 51 76

25 51 76

25 51 76

25 51 76

25 51 76

25 51 76

25 51 76

25 51 76

25 51 76

25 51 76

25 51 76

25 51 76

25 51 76

25 51 76

25 51 76

25 51 76

25 51 76

25 51 76

25 51 76

25 51 76

25 51 76

25 51 76

25 51 76

25 51 76

25 51 76

25 51 76

25 51 76

25 51 76

25 51 76

25 51 76

25 51 76

25 51 76

25 51 76

25 51 76

25 51 76

25 51 76

25 51 76

25 51 76

25 51 76

25 51 76

25 51 76

25 51 76

25 51 76

25 51 76

25 51 76

25 51 76

25 51 76

25 51 76

25 51 76

25 51 76

25 51 76

25 51 76

25 51 76

25 51 76

25 51 76

25 51 76

25 51 76

25 51 76

25 51 76

25 51 76

25 51 76

25 51 76

25 51 76

25 51 76

25 51 76

25 51 76

25 51 76

25 51 76

25 51 76

25 51 76

25 51 76

25 51 76

25 51 76

25 51 76

25 51 76

25 51 76

25 51 76

25 51 76

25 51 76

25 51 76

25 51 76

25 51 76

25 51 76

25 51 76

25 51 76

25 51 76

25 51 76

25 51 76

25 51 76

25 51 76

25 51 76

25 51 76

25 51 76

25 51 76

25 51 76

25 51 76

25 51 76

25 51 76

25 51 76

25 51 76

25 51 76

25 51 76

25 51 76

25 51 76

25 51 76

25 51 76

25 51 76

25 51 76

25 51 76

25 51 76

25 51 76

25 51 76

25 51 76

25 51 76

25 51 76

25 51 76

25 51 76

25 51 76

25 51 76

25 51 76

25 51 76

25 51 76

25 51 76

25 51 76

25 51 76

25 51 76

25 51 76

25 51 76

25 51 76

25 51 76

25 51 76

25 51 76

25 51 76

25 51 76

25 51 76

25 51 76

25 51 76

25 51 76

25 51 76

25 51 76

25 51 76

25 51 76

25 51 76

25 51 76

25 51 76

25 51 76

25 51 76

25 51 76

25 51 76

25 51 76

25 51 76

25 51 76

25 51 76

25 51 76

25 51 76

25 51 76

25 51 76

25 51 76

25 51 76

25 51 76

25 51 76

25 51 76

25 51 76

25 51 76

25 51 76

25 51 76

25 51 76

25 51 76

25 51 76

25 51 76

25 51 76

25 51 76

25 51 76

25 51 76

25 51 76

25 51 76

25 51 76

25 51 76

25 51 76

25 51 76

25 51 76

25 51 76

25 51 76

25 51 76

25 51 76

25 51 76

25 51 76

25 51 76

25 51 76

25 51 76

25 51 76

25 51 76

25 51 76

25 51 76

25 51 76

25 51 76

25 51 76

25 51 76

25 51 76

25 51 76

25 51 76

25 51 76

25 51 76

25 51 76

25 51 76

25 51 76

25 51 76

25 51 76

25 51 76

25 51 76

25 51 76

25 51 76

25 51 76

25 51 76

25 51 76

25 51 76

25 51 76

25 51 76

25 51 76

25 51 76

25 51 76

25 51 76

25 51 76

25 51 76

25 51 76

25 51 76

25 51 76

25 51 76

25 51 76

25 51 76

25 51 76

25 51 76

25 51 76

25 51 76

25 51 76

25 51 76

25 51 76

25 51 76

25 51 76

25 51 76

25 51 76

25 51 76

25 51 76

25 51 76

25 51 76

25 51 76

25 51 76

25 51 76

25 51 76

25 51 76

25 51 76

25 51 76

25 51 76

25 51 76

25 51 76

25 51 76

25 51 76

25 51 76

25 51 76

25 51 76

25 51 76

25 51 76

25 51 76

25 51 76

25 51 76

25 51 76

25 51 76

25 51 76

25 51 76

25 51 76

25 51 76

25 51 76

25 51 76

25 51 76

25 51 76

25 51 76

25 51 76

25 51 76

25 51 76

25 51 76

25 51 76

25 51 76

25 51 76

25 51 76

25 51 76

25 51 76

25 51 76

25 51 76

25 51 76

25 51 76

25 51 76

25 51 76

25 51 76

25 51 76

25 51 76

25 51 76

25 51 76

25 51 76

25 51 76

25 51 76

25 51 76

25 51 76

25 51 76

25 51 76

25 51 76

25 51 76

25 51 76

25 51 76

25 51 76

25 51 76

25 51 76

25 51 76

25 51 76

25 51 76

25 51 76

25 51 76

25 51 76

25 51 76

25 51 76

25 51 76

25 51 76

25 51 76

25 51 76

25 51 76

25 51 76

25 51 76

25 51 76

25 51 76

25 51 76

25 51 76

25 51 76

25 51 76

25 51 76

25 51 76

25 51 76

25 51 76

25 51 76

25 51 76

25 51 76

25 51 76

25 51 76

25 51 76

25 51 76

25 51 76

25 51 76

25 51 76

25 51 76

25 51 76

25 51 76

25 51 76

25 51 76

25 51 76

25 51 76

25 51 76

25 51 76

25 51 76

25 51 76

25 51 76

25 51 76

25 51 76

25 51 76

25 51 76

25 51 76

25 51 76

25 51 76

25 51 76

25 51 76

25 51 76

25 51 76

25 51 76

25 51 76

25 51 76

25 51 76

25 51 76

25 51 76

25 51 76

25 51 76

25 51 76

25 51 76

25 51 76

25 51 76

25 51 76

25 51 76

25 51 76

25 51 76

25 51 76

25 51 76

25 51 76

25 51 76

25 51 76

25 51 76

25 51 76

25 51 76

25 51 76

25 51 76

25 51 76

25 51 76

25 51 76

25 51 76

25 51 76

25 51 76

25 51 76

25 51 76

25 51 76

25 51 76

25 51 76

25 51 76

25 51 76

25 51 76

25 51 76

25 51 76

25 51 76

25 51 76

25 51 76

25 51 76

25 51 76

25 51 76

25 51 76

25 51 76

25 51 76

25 51 76

25 51 76

25 51 76

25 51 76

25 51 76

25 51 76

25 51 76

25 51 76

25 51 76

25 51 76

25 51 76

25 51 76

25 51 76

25 51 76

25 51 76

25 51 76

25 51 76

25 51 76

25 51 76

25 51 76

25 51 76

25 51 76

25 51 76

25 51 76

25 51 76

25 51 76

25 51 76

25 51 76

25 51 76

25 51 76

25 51 76

25 51 76

25 51 76

25 51 76

25 51 76

25 51 76

25 51 76

25 51 76

25 51 76

25 51 76

25 51 76

25 51 76

25 51 76

25 51 76

25 51 76

25 51 76

25 51 76

25 51 76

25 51 76

25 51 76

25 51 76

25 51 76

25 51 76

25 51 76

25 51 76

25 51 76

25 51 76

25 51 76

25 51 76

25 51 76

25 51 76

25 51 76

25 51 76

25 51 76

25 51 76

25 51 76

25 51 76

25 51 76

25 51 76

25 51 76

25 51 76

25 51 76

25 51 76

25 51 76

25 51 76

25 51 76

25 51 76

25 51 76

25 51 76

25 51 76

25 51 76

25 51 76

25 51 76

25 51 76

25 51 76

25 51 76

25 51 76

25 51 76

25 51 76

25 51 76

25 51 76

25 51 76

25 51 76

25 51 76

25 51 76

25 51 76

25 51 76

25 51 76

25 51 76

25 51 76

25 51 76

25 51 76

25 51 76

25 51 76

25 51 76

25 51 76

25 51 76

25 51 76

25 51 76

25 51 76

25 51 76

25 51 76

25 51 76

25 51 76

25 51 76

25 51 76

25 51 76

25 51 76

25 51 76

25 51 76

25 51 76

25 51 76

25 51 76

25 51 76

25 51 76

25 51 76

25 51 76

25 51 76

25 51 76

25 51 76

25 51 76

25 51 76

25 51 76

25 51 76

25 51 76

25 51 76

25 51 76

25 51 76

25 51 76

25 51 76

25 51 76

25 51 76

25 51 76

25 51 76

25 51 76

25 51 76

25 51 76

25 51 76

25 51 76

25 51 76

25 51 76

25 51 76

25 51 76

25 51 76

25 51 76

25 51 76

25 51 76

25 51 76

25 51 76

25 51 76

25 51 76

25 51 76

25 51 76

25 51 76

25 51 76

25 51 76

25 51 76

25 51 76

25 51 76

25 51 76

25 51 76

25 51 76

25 51 76

25 51 76

25 51 76

25 51 76

25 51 76

25 51 76

25 51 76

25 51 76

25 51 76

25 51 76

25 51 76

25 51 76

25 51 76

25 51 76

25 51 76

25 51 76

25 51 76

25 51 76

25 51 76

25 51 76

25 51 76

25 51 76

25 51 76

25 51 76

25 51 76

25 51 76

25 51 76

25 51 76

25 51 76

25 51 76

25 51 76

25 51 76

25 51 76

25 51 76

25 51 76

25 51 76

25 51 76

25 51 76

25 51 76

25 51 76

25 51 76

25 51 76

25 51 76

25 51 76

25 51 76

25 51 76

25 51 76

25 51 76

25 51 76

25 51 76

25 51 76

25 51 76

25 51 76

25 51 76

25 51 76

25 51 76

25 51 76

25 51 76

25 51 76

25 51 76

25 51 76

25 51 76

25 51 76

25 51 76

25 51 76

25 51 76

25 51 76

25 51 76

25 51 76

25 51 76

25 51 76

25 51 76

25 51 76

25 51 76

25 51 76

25 51 76

25 51 76

25 51 76

25 51 76

25 51 76

25 51 76

25 51 76

25 51 76

25 51 76

25 51 76

25 51 76

25 51 76

25 51 76

25 51 76

25 51 76

25 51 76

25 51 76

25 51 76

25 51 76

25 51 76

25 51 76

25 51 76

25 51 76

25 51 76

25 51 76

25 51 76

25 51 76

25 51 76

25 51 76

25 51 76

25 51 76

25 51 76

25 51 76

25 51 76

25 51 76

25 51 76

25 51 76

25 51 76

25 51 76

25 51 76

25 51 76

25 51 76

25 51 76

25 51 76

25 51 76

25 51 76

25 51 76

25 51 76

25 51 76

25 51 76

25 51 76

25 51 76

25 51 76

25 51 76

25 51 76

25 51 76

25 51 76

25 51 76

25 51 76

25 51 76

25 51 76

25 51 76

25 51 76

25 51 76

25 51 76

25 51 76

25 51 76

25 51 76

25 51 76

25 51 76

25 51 76

25 51 76

25 51 76

25 51 76

25 51 76

25 51 76

25 51 76

25 51 76

25 51 76

25 51 76

25 51 76

25 51 76

25 51 76

25 51 76

25 51 76

25 51 76

25 51 76

25 51 76

25 51 76

25 51 76

25 51 76

25 51 76

25 51 76

25 51 76

25 51 76

25 51 76

25 51 76

25 51 76

25 51 76

25 51 76

25 51 76

25 51 76

25 51 76

25 51 76

25 51 76

25 51 76

25 51 76

25 51 76

25 51 76

25 51 76

25 51 76

25 51 76

25 51 76

25 51 76

25 51 76

25 51 76

25 51 76

25 51 76

25 51 76

25 51 76

25 51 76

25 51 76

25 51 76

25 51 76

25 51 76

25 51 76

25 51 76

25 51 76

25 51 76

25 51 76

25 51 76

25 51 76

25 51 76

25 51 76

25 51 76

25 51 76

25 51 76

25 51 76

25 51 76

25 51 76

25 51 76

25 51 76

25 51 76

25 51 76

25 51 76

25 51 76

25 51 76

25 51 76

25 51 76

25 51 76

25 51 76

25 51 76

25 51 76

25 51 76

25 51 76

25 51 76

25 51 76

25 51 76

25 51 76

25 51 76

25 51 76

25 51 76

25 51 76

25 51 76

25 51 76

25 51 76

25 51 76

25 51 76

25 51 76

25 51 76

25 51 76

25 51 76

25 51 76

25 51 76

25 51 76

25 51 76

25 51 76

25 51 76

25 51 76

25 51 76

25 51 76

25 51 76

25 51 76

25 51 76

25 51 76

25 51 76

25 51 76

25 51 76

25 51 76

25 51 76

25 51 76

25 51 76

25 51 76

25 51 76

25 51 76

25 51 76

25 51 76

25 51 76

25 51 76

25 51 76

25 51 76

25 51 76

25 51 76

25 51 76

25 51 76

25 51 76

25 51 76

25 51 76

25 51 76

25 51 76

25 51 76

25 51 76

25 51 76

25 51 76

25 51 76

25 51 76

25 51 76

25 51 76

25 51 76

25 51 76

25 51 76

25 51 76

25 51 76

25 51 76

25 51 76

25 51 76

25 51 76

25 51 76

25 51 76

25 51 76

25 51 76

25 51 76

25 51 76

25 51 76

25 51 76

25 51 76

25 51 76

25 51 76

25 51 76

25 51 76

25 51 76

25 51 76

25 51 76

25 51 76

25 51 76

25 51 76

25 51 76

25 51 76

25 51 76

25 51 76

25 51 76

25 51 76

25 51 76

25 51 76

25 51 76

25 51 76

25 51 76

25 51 76

25 51 76

25 51 76

25 51 76

25 51 76

25 51 76

25 51 76

25 51 76

25 51 76

25 51 76

25 51 76

25 51 76

25 51 76

25 51 76

25 51 76

25 51 76

25 51 76

25 51 76

25 51 76

25 51 76

25 51 76

25 51 76

25 51 76

25 51 76

25 51 76

25 51 76

25 51 76

25 51 76

25 51 76

25 51 76

25 51 76

25 51 76

25 51 76

25 51 76

25 51 76

25 51 76

25 51 76

25 51 76

25 51 76

25 51 76

25 51 76

25 51 76

25 51 76

25 51 76

25 51 76

25 51 76

25 51 76

25 51 76

25 51 76

25 51 76

25 51 76

25 51 76

25 51 76

25 51 76

25 51 76

25 51 76

25 51 76

25 51 76

25 51 76

25 51 76

25 51 76

25 51 76

25 51 76

25 51 76

25 51 76

25 51 76

25 51 76

25 51 76

25 51 76

25 51 76

25 51 76

25 51 76

25 51 76

25 51 76

25 51 76

25 51 76

25 51 76

25 51 76

25 51 76

25 51 76

25 51 76

25 51 76

25 51 76

25 51 76

25 51 76

25 51 76

25 51 76

25 51 76

25 51 76

25 51 76

25 51 76

25 51 76

25 51 76

25 51 76

25 51 76

25 51 76

25 51 76

25 51 76

25 51 76

25 51 76

25 51 76

25 51 76

25 51 76

25 51 76

25 51 76

25 51 76

25 51 76

25 51 76

25 51 76

25 51 76

25 51 76

25 51 76

25 51 76

25 51 76

25 51 76

25 51 76

25 51 76

25 51 76

25 51 76

25 51 76

25 51 76

25 51 76

25 51 76

25 51 76

25 51 76

25 51 76

25 51 76

25 51 76

25 51 76

25 51 76

25 51 76

25 51 76

25 51 76

25 51 76

25 51 76

25 51 76

25 51 76

25 51 76

25 51 76

25 51 76

25 51 76

25 51 76

25 51 76

25 51 76

25 51 76

25 51 76

25 51 76

25 51 76

25 51 76

25 51 76

25 51 76

25 51 76

25 51 76

25 51 76

25 51 76

25 51 76

25 51 76

25 51 76

25 51 76

25 51 76

25 51 76

25 51 76

25 51 76

25 51 76

25 51 76

25 51 76

25 51 76

25 51 76

25 51 76

25 51 76

25 51 76

25 51 76

25 51 76

25 51 76

25 51 76

25 51 76

25 51 76

25 51 76

25 51 76

25 51 76

25 51 76

25 51 76

25 51 76

25 51 76

25 51 76

25 51 76

25 51 76

25 51 76

25 51 76

25 51 76

25 51 76

25 51 76

25 51 76

25 51 76

25 51 76

25 51 76

25 51 76

25 51 76

25 51 76

25 51 76

25 51 76

25 51 76

25 51 76

25 51 76

25 51 76

25 51 76

25 51 76

25 51 76

25 51 76

25 51 76

25 51 76

25 51 76

25 51 76

25 51 76

25 51 76

25 51 76

25 51 76

25 51 76

25 51 76

25 51 76

25 51 76

25 51 76

25 51 76

25 51 76

25 51 76

25 51 76

25 51 76

25 51 76

25 51 76

25 51 76

25 51 76

25 51 76

25 51 76

25 51 76

25 51 76

25 51 76

25 51 76

25 51 76

25 51 76

25 51 76

25 51 76

25 51 76

25 51 76

25 51 76

25 51 76

25 51 76

25 51 76

25 51 76

25 51 76

25 51 76

25 51 76

25 51 76

25 51 76

25 51 76

25 51 76

25 51 76

25 51 76

25 51 76

25 51 76

25 51 76

25 51 76

25 51 76

25 51 76

25 51 76

25 51 76

25 51 76

25 51 76

25 51 76

25 51 76

25 51 76

25 51 76

25 51 76

25 51 76

25 51 76

25 51 76

25 51 76

25 51 76

25 51 76

25 51 76

25 51 76

25 51 76

25 51 76

25 51 76

25 51 76

25 51 76

25 51 76

25 51 76

25 51 76

25 51 76

25 51 76

25 51 76

25 51 76

25 51 76

25 51 76

25 51 76

25 51 76

25 51 76

25 51 76

25 51 76

25 51 76

25 51 76

25 51 76

25 51 76

25 51 76

25 51 76

25 51 76

25 51 76

25 51 76

25 51 76

25 51 76

25 51 76

25 51 76

25 51 76

25 51 76

25 51 76

25 51 76

25 51 76

25 51 76

25 51 76

25 51 76

25 51 76

25 51 76

25 51 76

25 51 76

25 51 76

25 51 76

25 51 76

25 51 76

25 51 76

25 51 76

25 51 76

25 51 76

25 51 76

25 51 76

25 51 76

25 51 76

25 51 76

25 51 76

25 51 76

25 51 76

25 51 76

25 51 76

25 51 76

25 51 76

25 51 76

25 51 76

25 51 76

25 51 76

25 51 76

25 51 76

25 51 76

25 51 76

25 51 76

25 51 76

25 51 76

25 51 76

25 51 76

25 51 76

25 51 76

25 51 76

25 51 76

25 51 76

25 51 76

25 51 76

25 51 76

25 51 76

25 51 76

25 51 76

25 51 76

25 51 76

25 51 76

25 51 76

25 51 76

25 51 76

25 51 76

25 51 76

25 51 76

25 51 76

25 51 76

25 51 76

25 51 76

25 51 76

25 51 76

25 51 76

25 51 76

25 51 76

25 51 76

25 51 76

25 51 76

25 51 76

25 51 76

25 51 76

25 51 76

25 51 76

25 51 76

25 51 76

25 51 76

25 51 76

25 51 76

25 51 76

25 51 76

25 51 76

25 51 76

25 51 76

25 51 76

25 51 76

25 51 76

25 51 76

25 51 76

25 51 76

25 51 76

25 51 76

25 51 76

25 51 76

25 51 76

25 51 76

25 51 76

25 51 76

25 51 76

25 51 76

25 51 76

25 51 76

25 51 76

25 51 76

25 51 76

25 51 76

25 51 76

25 51 76

25 51 76

25 51 76

25 51 76

25 51 76

25 51 76

25 51 76

25 51 76

25 51 76

25 51 76

25 51 76

25 51 76

25 51 76

25 51 76

25 51 76

25 51 76

25 51 76

25 51 76

25 51 76

25 51 76

25 51 76

25 51 76

25 51 76

25 51 76

25 51 76

25 51 76

25 51 76

25 51 76

25 51 76

25 51 76

25 51 76

25 51 76

25 51 76

25 51 76

25 51 76

25 51 76

25 51 76

25 51 76

25 51 76

25 51 76

25 51 76

25 51 76

25 51 76

25 51 76

25 51 76

25 51 76

25 51 76

25 51 76

25 51 76

25 51 76

25 51 76

25 51 76

25 51 76

25 51 76

25 51 76

25 51 76

25 51 76

25 51 76

25 51 76

25 51 76

25 51 76

25 51 76

25 51 76

25 51 76

25 51 76

25 51 76

25 51 76

25 51 76

25 51 76

25 51 76

25 51 76

25 51 76

25 51 76

25 51 76

25 51 76

25 51 76

25 51 76

25 51 76

25 51 76

25 51 76

25 51 76

25 51 76

25 51 76

25 51 76

25 51 76

25 51 76

25 51 76

25 51 76

25 51 76

25 51 76

25 51 76

25 51 76

25 51 76

25 51 76

25 51 76

25 51 76

25 51 76

25 51 76

25 51 76

25 51 76

25 51 76

25 51 76

25 51 76

25 51 76

25 51 76

25 51 76

25 51 76

25 51 76

25 51 76

25 51 76

25 51 76

25 51 76

25 51 76

25 51 76

25 51 76

25 51 76

25 51 76

25 51 76

25 51 76

25 51 76

25 51 76

25 51 76

25 51 76

25 51 76

25 51 76

25 51 76

25 51 76

25 51 76

25 51 76

25 51 76

25 51 76

25 51 76

25 51 76

25 51 76

25 51 76

25 51 76

25 51 76

25 51 76

25 51 76

25 51 76

25 51 76

25 51 76

25 51 76

25 51 76

25 51 76

25 51 76

25 51 76

25 51 76

25 51 76

25 51 76

25 51 76

25 51 76

25 51 76

25 51 76

25 51 76

25 51 76

25 51 76

25 51 76

25 51 76

25 51 76

25 51 76

25 51 76

25 51 76

25 51 76

25 51 76

25 51 76

25 51 76

25 51 76

25 51 76

25 51 76

25 51 76

25 51 76

25 51 76

25 51 76

25 51 76

25 51 76

25 51 76

25 51 76

25 51 76

25 51 76

25 51 76

25 51 76

25 51 76

25 51 76

25 51 76

25 51 76

25 51 76

25 51 76

25 51 76

25 51 76

25 51 76

25 51 76

25 51 76

25 51 76

25 51 76

25 51 76

25 51 76

25 51 76

25 51 76

25 51 76

25 51 76

25 51 76

25 51 76

25 51 76

25 51 76

25 51 76

25 51 76

25 51 76

25 51 76

25 51 76

25 51 76

25 51 76

25 51 76

25 51 76

25 51 76

25 51 76

25 51 76

25 51 76

25 51 76

25 51 76

25 51 76

25 51 76

25 51 76

25 51 76

25 51 76

25 51 76

25 51 76

25 51 76

25 51 76

25 51 76

25 51 76

25 51 76

25 51 76

25 51 76

25 51 76

25 51 76

25 51 76

25 51 76

25 51 76

25 51 76

25 51 76

25 51 76

25 51 76

25 51 76

25 51 76

25 51 76

25 51 76

25 51 76

25 51 76

25 51 76

25 51 76

25 51 76

25 51 76

25 51 76

25 51 76

25 51 76

25 51 76

25 51 76

25 51 76

25 51 76

25 51 76

25 51 76

25 51 76

25 51 76

25 51 76

25 51 76

25 51 76

25 51 76

25 51 76

25 51 76

25 51 76

25 51 76

25 51 76

25 51 76

25 51 76

25 51 76

25 51 76

25 51 76

25 51 76

25 51 76

25 51 76

25 51 76

25 51 76

25 51 76

25 51 76

25 51 76

25 51 76

25 51 76

25 51 76

25 51 76

25 51 76

25 51 76

25 51 76

25 51 76

25 51 76

25 51 76

25 51 76

25 51 76

25 51 76

25 51 76

25 51 76

25 51 76

25 51 76

25 51 76

25 51 76

25 51 76

25 51 76

25 51 76

25 51 76

25 51 76

25 51 76

25 51 76

25 51 76

25 51 76

25 51 76

25 51 76

25 51 76

25 51 76

25 51 76

25 51 76

25 51 76

25 51 76

25 51 76

25 51 76

25 51 76

25 51 76

25 51 76

25 51 76

25 51 76

25 51 76

25 51 76

25 51 76

25 51 76

25 51 76

25 51 76

25 51 76

25 51 76

25 51 76

25 51 76

25 51 76

25 51 76

25 51 76

25 51 76

25 51 76

25 51 76

25 51 76

25 51 76

25 51 76

25 51 76

25 51 76

25 51 76

25 51 76

25 51 76

25 51 76

25 51 76

25 51 76

25 51 76

25 51 76

25 51 76

25 51 76

25 51 76

25 51 76

25 51 76

25 51 76

25 51 76

25 51 76

25 51 76

25 51 76

25 51 76

25 51 76

25 51 76

25 51 76

25 51 76

25 51 76

25 51 76

25 51 76

25 51 76

25 51 76

25 51 76

25 51 76

25 51 76

25 51 76

25 51 76

25 51 76

25 51 76

25 51 76

25 51 76

25 51 76

25 51 76

25 51 76

25 51 76

25 51 76

25 51 76

25 51 76

25 51 76

25 51 76

25 51 76

25 51 76

25 51 76

25 51 76

25 51 76

25 51 76

25 51 76

25 51 76

25 51 76

25 51 76

25 51 76

25 51 76

25 51 76

25 51 76

25 51 76

25 51 76

25 51 76

25 51 76

25 51 76

25 51 76

25 51 76

25 51 76

25 51 76

25 51 76

25 51 76

25 51 76

25 51 76

25 51 76

25 51 76

25 51 76

25 51 76

25 51 76

25 51 76

25 51 76

25 51 76

25 51 76

25 51 76

25 51 76

25 51 76

25 51 76

25 51 76

25 51 76

25 51 76

25 51 76

25 51 76

25 51 76

25 51 76

25 51 76

25 51 76

25 51 76

25 51 76

25 51 76

25 51 76

25 51 76

25 51 76

25 51 76

25 51 76

25 51 76

25 51 76

25 51 76

25 51 76

25 51 76

25 51 76

25 51 76

25 51 76

25 51 76

25 51 76

25 51 76

25 51 76

25 51 76

25 51 76

25 51 76

25 51 76

25 51 76

25 51 76

25 51 76

25 51 76

25 51 76

25 51 76

25 51 76

25 51 76

25 51 76

25 51 76

25 51 76

25 51 76

25 51 76

25 51 76

25 51 76

25 51 76

25 51 76

25 51 76

25 51 76

25 51 76

25 51 76

25 51 76

25 51 76

25 51 76

25 51 76

25 51 76

25 51 76

25 51 76

25 51 76

25 51 76

25 51 76

25 51 76

25 51 76

25 51 76

25 51 76

25 51 76

25 51 76

25 51 76

25 51 76

25 51 76

25 51 76

25 51 76

25 51 76

25 51 76

25 51 76

25 51 76

25 51 76

25 51 76

25 51 76

25 51 76

25 51 76

25 51 76

25 51 76

25 51 76

25 51 76

25 51 76

25 51 76

25 51 76

25 51 76

25 51 76

25 51 76

25 51 76

25 51 76

25 51 76

25 51 76

25 51 76

25 51 76

25 51 76

25 51 76

25 51 76

25 51 76

25 51 76

25 51 76

25 51 76

25 51 76

25 51 76

25 51 76

25 51 76

25 51 76

25 51 76

25 51 76

25 51 76

25 51 76

25 51 76

25 51 76

25 51 76

25 51 76

25 51 76

25 51 76

25 51 76

25 51 76

25 51 76

25 51 76

25 51 76

25 51 76

25 51 76

25 51 76

25 51 76

25 51 76

25 51 76

25 51 76

25 51 76

25 51 76

25 51 76

25 51 76

25 51 76

25 51 76

25 51 76

25 51 76

25 51 76

25 51 76

25 51 76

25 51 76

25 51 76

25 51 76

25 51 76

25 51 76

25 51 76

25 51 76

25 51 76

25 51 76

25 51 76

25 51 76

25 51 76

25 51 76

25 51 76

25 51 76

25 51 76

25 51 76

25 51 76

25 51 76

25 51 76

25 51 76

25 51 76

25 51 76

25 51 76

25 51 76

25 51 76

25 51 76

25 51 76

25 51 76

25 51 76

25 51 76

25 51 76

25 51 76

25 51 76

25 51 76

25 51 76

25 51 76

25 51 76

25 51 76

25 51 76

25 51 76

25 51 76

25 51 76

25 51 76

25 51 76

25 51 76

25 51 76

25 51 76

25 51 76

25 51 76

25 51 76

25 51 76

25 51 76

25 51 76

25 51 76

25 51 76

25 51 76

25 51 76

25 51 76

25 51 76

25 51 76

25 51 76

25 51 76

25 51 76

25 51 76

25 51 76

25 51 76

25 51 76

25 51 76

25 51 76

25 51 76

25 51 76

25 51 76

25 51 76

25 51 76

25 51 76

25 51 76

25 51 76

25 51 76

25 51 76

25 51 76

25 51 76

25 51 76

25 51 76

25 51 76

25 51 76

25 51 76

25 51 76

25 51 76

25 51 76

25 51 76

25 51 76

25 51 76

25 51 76

25 51 76

25 51 76

25 51 76

25 51 76

25 51 76

25 51 76

25 51 76

25 51 76

25 51 76

25 51 76

25 51 76

25 51 76

25 51 76

25 51 76

25 51 76

25 51 76

25 51 76

25 51 76

25 51 76

25 51 76

25 51 76

25 51 76

25 51 76

25 51 76

25 51 76

25 51 76

25 51 76

25 51 76

25 51 76

25 51 76

25 51 76

25 51 76

25 51 76

25 51 76

25 51 76

25 51 76

25 51 76

25 51 76

25 51 76

25 51 76

25 51 76

25 51 76

25 51 76

25 51 76

25 51 76

25 51 76

25 51 76

25 51 76

25 51 76

25 51 76

25 51 76

25 51 76

25 51 76

25 51 76

25 51 76

25 51 76

25 51 76

25 51 76

25 51 76

25 51 76

25 51 76

25 51 76

25 51 76

25 51 76

25 51 76

25 51 76

25 51 76

25 51 76

25 51 76

25 51 76

25 51 76

25 51 76

25 51 76

25 51 76

25 51 76

25 51 76

25 51 76

25 51 76

25 51 76

25 51 76

25 51 76

25 51 76

25 51 76

25 51 76

25 51 76

25 51 76

25 51 76

25 51 76

25 51 76

25 51 76

25 51 76

25 51 76

25 51 76

25 51 76

25 51 76

25 51 76

25 51 76

25 51 76

25 51 76

25 51 76

25 51 76

25 51 76

25 51 76

25 51 76

25 51 76

25 51 76

25 51 76

25 51 76

25 51 76

25 51 76

25 51 76

25 51 76

25 51 76

25 51 76

25 51 76

25 51 76

25 51 76

25 51 76

25 51 76

25 51 76

25 51 76

25 51 76

25 51 76

25 51 76

25 51 76

25 51 76

25 51 76

25 51 76

25 51 76

25 51 76

25 51 76

25 51 76

25 51 76

25 51 76

25 51 76

25 51 76

25 51 76

25 51 76

25 51 76

25 51 76

25 51 76

25 51 76

25 51 76

25 51 76

25 51 76

25 51 76

25 51 76

25 51 76

25 51 76

25 51 76

25 51 76

25 51 76

25 51 76

25 51 76

25 51 76

25 51 76

25 51 76

25 51 76

25 51 76

25 51 76

25 51 76

25 51 76

25 51 76

25 51 76

25 51 76

25 51 76

25 51 76

25 51 76

25 51 76

25 51 76

25 51 76

25 51 76

25 51 76

25 51 76

25 51 76

25 51 76

25 51 76

25 51 76

25 51 76

25 51 76

25 51 76

25 51 76

25 51 76

25 51 76

25 51 76

25 51 76

25 51 76

25 51 76

25 51 76

25 51 76

25 51 76

25 51 76

25 51 76

25 51 76

25 51 76

25 51 76

25 51 76

25 51 76

25 51 76

25 51 76

25 51 76

25 51 76

25 51 76

25 51 76

25 51 76

25 51 76

25 51 76

25 51 76

25 51 76

25 51 76

25 51 76

25 51 76

25 51 76

25 51 76

25 51 76

25 51 76

25 51 76

25 51 76

25 51 76

25 51 76

25 51 76

25 51 76

25 51 76

25 51 76

25 51 76

25 51 76

25 51 76

25 51 76

25 51 76

25 51 76

25 51 76

25 51 76

25 51 76

25 51 76

25 51 76

25 51 76

25 51 76

25 51 76

25 51 76

25 51 76

25 51 76

25 51 76

25 51 76

25 51 76

25 51 76

25 51 76

25 51 76

25 51 76

25 51 76

25 51 76

25 51 76

25 51 76

25 51 76

25 51 76

25 51 76

25 51 76

25 51 76

25 51 76

25 51 76

25 51 76

25 51 76

25 51 76

25 51 76

25 51 76

25 51 76

25 51 76

25 51 76

25 51 76

25 51 76

25 51 76

25 51 76

25 51 76

25 51 76

25 51 76

25 51 76

25 51 76

25 51 76

25 51 76

25 51 76

25 51 76

25 51 76

25 51 76

25 51 76

25 51 76

25 51 76

25 51 76

25 51 76

25 51 76

25 51 76

25 51 76

25 51 76

25 51 76

25 51 76

25 51 76

25 51 76

25 51 76

25 51 76

25 51 76

25 51 76

25 51 76

25 51 76

25 51 76

25 51 76

25 51 76

25 51 76

25 51 76

25 51 76

25 51 76

25 51 76

25 51 76

25 51 76

25 51 76

25 51 76

25 51 76

25 51 76

25 51 76

25 51 76

25 51 76

25 51 76

25 51 76

25 51 76

25 51 76

25 51 76

25 51 76

25 51 76

25 51 76

25 51 76

25 51 76

25 51 76

25 51 76

25 51 76

25 51 76

25 51 76

25 51 76

25 51 76

25 51 76

25 51 76

25 51 76

25 51 76

25 51 76

25 51 76

25 51 76

25 51 76

25 51 76

25 51 76

25 51 76

25 51 76

25 51 76

25 51 76

25 51 76

25 51 76

25 51 76

25 51 76

25 51 76

25 51 76

25 51 76

25 51 76

25 51 76

25 51 76

25 51 76

25 51 76

25 51 76

25 51 76

25 51 76

25 51 76

25 51 76

25 51 76

25 51 76

25 51 76

25 51 76

25 51 76

25 51 76

25 51 76

25 51 76

25 51 76

25 51 76

25 51 76

25 51 76

25 51 76

25 51 76

25 51 76

25 51 76

25 51 76

25 51 76

25 51 76

25 51 76

25 51 76

25 51 76

25 51 76

25 51 76

25 51 76

25 51 76

25 51 76

25 51 76

25 51 76

25 51 76

25 51 76

25 51 76

25 51 76

25 51 76

25 51 76

25 51 76

25 51 76

25 51 76

25 51 76

25 51 76

25 51 76

25 51 76

25 51 76

25 51 76

25 51 76

25 51 76

25 51 76

25 51 76

25 51 76

25 51 76

25 51 76

25 51 76

25 51 76

25 51 76

25 51 76

25 51 76

25 51 76

25 51 76

25 51 76

25 51 76

25 51 76

25 51 76

25 51 76

25 51 76

25 51 76

25 51 76

25 51 76

25 51 76

25 51 76

25 51 76

25 51 76

25 51 76

25 51 76

25 51 76

25 51 76

25 51 76

25 51 76

25 51 76

25 51 76

25 51 76

25 51 76

25 51 76

25 51 76

25 51 76

25 51 76

25 51 76

25 51 76

25 51 76

25 51 76

25 51 76

25 51 76

25 51 76

25 51 76

25 51 76

25 51 76

25 51 76

25 51 76

25 51 76

25 51 76

25 51 76

25 51 76

25 51 76

25 51 76

25 51 76

25 51 76

25 51 76

25 51 76

25 51 76

25 51 76

25 51 76

25 51 76

25 51 76

25 51 76

25 51 76

25 51 76

25 51 76

25 51 76

25 51 76

25 51 76

25 51 76

25 51 76

25 51 76

25 51 76

25 51 76

25 51 76

25 51 76

25 51 76

25 51 76

25 51 76

25 51 76

25 51 76

25 51 76

25 51 76

25 51 76

25 51 76

25 51 76

25 51 76

25 51 76

25 51 76

25 51 76

25 51 76

25 51 76

25 51 76

25 51 76

25 51 76

25 51 76

25 51 76

25 51 76

25 51 76

25 51 76

25 51 76

25 51 76

25 51 76

25 51 76

25 51 76

25 51 76

25 51 76

25 51 76

25 51 76

25 51 76

25 51 76

25 51 76

25 51 76

25 51 76

25 51 76

25 51 76

25 51 76

25 51 76

25 51 76

25 51 76

25 51 76

25 51 76

25 51 76

25 51 76

25 51 76

25 51 76

25 51 76

25 51 76

25 51 76

25 51 76

25 51 76

25 51 76

25 51 76

25 51 76

25 51 76

25 51 76

25 51 76

25 51 76

25 51 76

25 51 76

25 51 76

25 51 76

25 51 76

25 51 76

25 51 76

25 51 76

25 51 76

25 51 76

25 51 76

25 51 76

25 51 76

25 51 76

25 51 76

25 51 76

25 51 76

25 51 76

25 51 76

25 51 76

25 51 76

25 51 76

25 51 76

25 51 76

25 51 76

25 51 76

25 51 76

25 51 76

25 51 76

25 51 76

25 51 76

25 51 76

25 51 76

25 51 76

25 51 76

25 51 76

25 51 76

25 51 76

25 51 76

25 51 76

25 51 76

25 51 76

25 51 76

25 51 76

25 51 76

25 51 76

25 51 76

25 51 76

25 51 76

25 51 76

25 51 76

25 51 76

25 51 76

25 51 76

25 51 76

25 51 76

25 51 76

25 51 76

25 51 76

25 51 76

25 51 76

25 51 76

25 51 76

25 51 76

25 51 76

25 51 76

25 51 76

25 51 76

25 51 76

25 51 76

25 51 76

25 51 76

25 51 76

25 51 76

25 51 76

25 51 76

25 51 76

25 51 76

25 51 76

25 51 76

25 51 76

25 51 76

25 51 76

25 51 76

25 51 76

25 51 76

25 51 76

25 51 76

25 51 76

25 51 76

25 51 76

25 51 76

25 51 76

25 51 76

25 51 76

25 51 76

25 51 76

25 51 76

25 51 76

25 51 76

25 51 76

25 51 76

25 51 76

25 51 76

25 51 76

25 51 76

25 51 76

25 51 76

25 51 76

25 51 76

25 51 76

25 51 76

25 51 76

25 51 76

25 51 76

25 51 76

25 51 76

25 51 76

25 51 76

25 51 76

25 51 76

25 51 76

25 51 76

25 51 76

25 51 76

25 51 76

25 51 76

25 51 76

25 51 76

25 51 76

25 51 76

25 51 76

25 51 76

25 51 76

25 51 76

25 51 76

25 51 76

25 51 76

25 51 76

25 51 76

25 51 76

25 51 76

25 51 76

25 51 76

25 51 76

25 51 76

25 51 76

25 51 76

25 51 76

25 51 76

25 51 76

25 51 76

25 51 76

25 51 76

25 51 76

25 51 76

25 51 76

25 51 76

25 51 76

25 51 76

25 51 76

25 51 76

25 51 76

25 51 76

25 51 76

25 51 76

25 51 76

25 51 76

25 51 76

25 51 76

25 51 76

25 51 76

25 51 76

25 51 76

25 51 76

25 51 76

25 51 76

25 51 76

25 51 76

25 51 76

25 51 76

25 51 76

25 51 76

25 51 76

25 51 76

25 51 76

25 51 76

25 51 76

25 51 76

25 51 76

25 51 76

25 51 76

25 51 76

25 51 76

25 51 76

25 51 76

25 51 76

25 51 76

25 51 76

25 51 76

25 51 76

25 51 76

25 51 76

25 51 76

25 51 76

25 51 76

25 51 76

25 51 76

25 51 76

25 51 76

25 51 76

25 51 76

25 51 76

25 51 76

25 51 76

25 51 76

25 51 76

25 51 76

25 51 76

25 51 76

25 51 76

25 51 76

25 51 76

25 51 76

25 51 76

25 51 76

25 51 76

25 51 76

25 51 76

25 51 76

25 51 76

25 51 76

25 51 76

25 51 76

25 51 76

25 51 76

25 51 76

25 51 76

25 51 76

25 51 76

25 51 76

25 51 76

25 51 76

25 51 76

25 51 76

25 51 76

25 51 76

25 51 76

25 51 76

25 51 76

25 51 76

25 51 76

25 51 76

25 51 76

25 51 76

25 51 76

25 51 76

25 51 76

25 51 76

25 51 76

25 51 76

25 51 76

25 51 76

25 51 76

25 51 76

25 51 76

25 51 76

25 51 76

25 51 76

25 51 76

25 51 76

25 51 76

25 51 76

25 51 76

25 51 76

25 51 76

25 51 76

25 51 76

25 51 76

25 51 76

25 51 76

25 51 76

25 51 76

25 51 76

25 51 76

25 51 76

25 51 76

25 51 76

25 51 76

25 51 76

25 51 76

25 51 76

25 51 76

25 51 76

25 51 76

25 51 76

25 51 76

25 51 76

25 51 76

25 51 76

25 51 76

25 51 76

25 51 76

25 51 76

25 51 76

25 51 76

25 51 76

25 51 76

25 51 76

25 51 76

25 51 76

25 51 76

25 51 76

25 51 76

25 51 76

25 51 76

25 51 76

25 51 76

25 51 76

25 51 76

25 51 76

25 51 76

25 51 76

25 51 76

25 51 76

25 51 76

25 51 76

25 51 76

25 51 76

25 51 76

25 51 76

25 51 76

25 51 76

25 51 76

25 51 76

25 51 76

25 51 76

25 51 76

25 51 76

25 51 76

25 51 76

25 51 76

25 51 76

25 51 76

25 51 76

25 51 76

25 51 76

25 51 76

25 51 76

25 51 76

25 51 76

25 51 76

25 51 76

25 51 76

25 51 76

25 51 76

25 51 76

25 51 76

25 51 76

25 51 76

25 51 76

25 51 76

25 51 76

25 51 76

25 51 76

25 51 76

25 51 76

25 51 76

25 51 76

25 51 76

25 51 76

25 51 76

25 51 76

25 51 76

25 51 76

25 51 76

25 51 76

25 51 76

25 51 76

25 51 76

25 51 76

25 51 76

25 51 76

25 51 76

25 51 76

25 51 76

25 51 76

25 51 76

25 51 76

25 51 76

25 51 76

25 51 76

25 51 76

25 51 76

25 51 76

25 51 76

25 51 76

25 51 76

25 51 76

25 51 76

25 51 76

25 51 76

25 51 76

25 51 76

25 51 76

25 51 76

25 51 76

25 51 76

25 51 76

25 51 76

25 51 76

25 51 76

25 51 76

25 51 76

25 51 76

25 51 76

25 51 76

25 51 76

25 51 76

25 51 76

25 51 76

25 51 76

25 51 76

25 51 76

25 51 76

25 51 76

25 51 76

25 51 76

25 51 76

25 51 76

25 51 76

25 51 76

25 51 76

25 51 76

25 51 76

25 51 76

25 51 76

25 51 76

25 51 76

25 51 76

25 51 76

25 51 76

25 51 76

25 51 76

25 51 76

25 51 76

25 51 76

25 51 76

25 51 76

25 51 76

25 51 76

25 51 76

25 51 76

25 51 76

25 51 76

25 51 76

25 51 76

25 51 76

25 51 76

25 51 76

25 51 76

25 51 76

25 51 76

25 51 76

25 51 76

25 51 76

25 51 76

25 51 76

25 51 76

25 51 76

25 51 76

25 51 76

25 51 76

25 51 76

25 51 76

25 51 76

25 51 76

25 51 76

25 51 76

25 51 76

25 51 76

25 51 76

25 51 76

25 51 76

25 51 76

25 51 76

25 51 76

25 51 76

25 51 76

25 51 76

25 51 76

25 51 76

25 51 76

25 51 76

25 51 76

25 51 76

25 51 76

25 51 76

25 51 76

25 51 76

25 51 76

25 51 76

25 51 76

25 51 76

25 51 76

25 51 76

25 51 76

25 51 76

25 51 76

25 51 76

25 51 76

25 51 76

25 51 76

25 51 76

25 51 76

25 51 76

25 51 76

25 51 76

25 51 76

25 51 76

25 51 76

25 51 76

25 51 76

25 51 76

25 51 76

25 51 76

25 51 76

25 51 76

25 51 76

25 51 76

25 51 76

25 51 76

25 51 76

25 51 76

25 51 76

25 51 76

25 51 76

25 51 76

25 51 76

25 51 76

25 51 76

25 51 76

25 51 76

25 51 76

25 51 76

25 51 76

25 51 76

25 51 76

25 51 76

25 51 76

25 51 76

25 51 76

25 51 76

25 51 76

25 51 76

25 51 76

25 51 76

25 51 76

25 51 76

25 51 76

25 51 76

25 51 76

25 51 76

25 51 76

25 51 76

25 51 76

25 51 76

25 51 76

25 51 76

25 51 76

25 51 76

25 51 76

25 51 76

25 51 76

25 51 76

25 51 76

25 51 76

25 51 76

25 51 76

25 51 76

25 51 76

25 51 76

25 51 76

25 51 76

25 51 76

25 51 76

25 51 76

25 51 76

25 51 76

25 51 76

25 51 76

25 51 76

25 51 76

25 51 76

25 51 76

25 51 76

25 51 76

25 51 76

25 51 76

25 51 76

25 51 76

25 51 76

25 51 76

25 51 76

25 51 76

25 51 76

25 51 76

25 51 76

25 51 76

25 51 76

25 51 76

25 51 76

25 51 76

25 51 76

25 51 76

25 51 76

25 51 76

25 51 76

25 51 76

25 51 76

25 51 76

25 51 76

25 51 76

25 51 76

25 51 76

25 51 76

25 51 76

25 51 76

25 51 76

25 51 76

25 51 76

25 51 76

25 51 76

25 51 76

25 51 76

25 51 76

25 51 76

25 51 76

25 51 76

25 51 76

25 51 76

25 51 76

25 51 76

25 51 76

25 51 76

25 51 76

25 51 76

25 51 76

25 51 76

25 51 76

25 51 76

25 51 76

25 51 76

25 51 76

25 51 76

25 51 76

25 51 76

25 51 76

25 51 76

25 51 76

25 51 76

25 51 76

25 51 76

25 51 76

25 51 76

25 51 76

25 51 76

25 51 76

25 51 76

25 51 76

25 51 76

25 51 76

25 51 76

25 51 76

25 51 76

25 51 76

25 51 76

25 51 76

25 51 76

25 51 76

25 51 76

25 51 76

25 51 76

25 51 76

25 51 76

25 51 76

25 51 76

25 51 76

25 51 76

25 51 76

25 51 76

25 51 76

25 51 76

25 51 76

25 51 76

25 51 76

25 51 76

25 51 76

25 51 76

25 51 76

25 51 76

25 51 76

25 51 76

25 51 76

25 51 76

25 51 76

25 51 76

25 51 76

25 51 76

25 51 76

25 51 76

25 51 76

25 51 76

25 51 76

25 51 76

25 51 76

25 51 76

25 51 76

25 51 76

25 51 76

25 51 76

25 51 76

25 51 76

25 51 76

25 51 76

25 51 76

25 51 76

25 51 76

25 51 76

25 51 76

25 51 76

25 51 76

25 51 76

25 51 76

25 51 76

25 51 76

25 51 76

25 51 76

25 51 76

25 51 76

25 51 76

25 51 76

25 51 76

25 51 76

25 51 76

25 51 76

25 51 76

25 51 76

25 51 76

25 51 76

25 51 76

25 51 76

25 51 76

25 51 76

25 51 76

25 51 76

25 51 76

25 51 76

25 51 76

25 51 76

25 51 76

25 51 76

25 51 76

25 51 76

25 51 76

25 51 76

25 51 76

25 51 76

25 51 76

25 51 76

25 51 76

25 51 76

25 51 76

25 51 76

25 51 76

25 51 76

25 51 76

25 51 76

25 51 76

25 51 76

25 51 76

25 51 76

25 51 76

25 51 76

25 51 76

25 51 76

25 51 76

25 51 76

25 51 76

25 51 76

25 51 76

25 51 76

25 51 76

25 51 76

25 51 76

25 51 76

25 51 76

25 51 76

25 51 76

25 51 76

25 51 76

25 51 76

25 51 76

25 51 76

25 51 76

25 51 76

25 51 76

25 51 76

25 51 76

25 51 76

25 51 76

25 51 76

25 51 76

25 51 76

25 51 76

25 51 76

25 51 76

25 51 76

25 51 76

25 51 76

25 51 76

25 51 76

25 51 76

25 51 76

25 51 76

25 51 76

25 51 76

25 51 76

25 51 76

25 51 76

25 51 76

25 51 76

25 51 76

25 51 76

25 51 76

25 51 76

25 51 76

25 51 76

25 51 76

25 51 76

25 51 76

25 51 76

25 51 76

25 51 76

25 51 76

25 51 76

25 51 76

25 51 76

25 51 76

25 51 76

25 51 76

25 51 76

25 51 76

25 51 76

25 51 76

25 51 76

25 51 76

25 51 76

25 51 76

25 51 76

25 51 76

25 51 76

25 51 76

25 51 76

25 51 76

25 51 76

25 51 76

25 51 76

25 51 76

25 51 76

25 51 76

25 51 76

25 51 76

25 51 76

25 51 76

25 51 76

25 51 76

25 51 76

25 51 76

25 51 76

25 51 76

25 51 76

25 51 76

25 51 76

25 51 76

25 51 76

25 51 76

25 51 76

25 51 76

25 51 76

25 51 76

25 51 76

25 51 76

25 51 76

25 51 76

25 51 76

25 51 76

25 51 76

25 51 76

25 51 76

25 51 76

25 51 76

25 51 76

25 51 76

25 51 76

25 51 76

25 51 76

25 51 76

25 51 76

25 51 76

25 51 76

25 51 76

25 51 76

25 51 76

25 51 76

25 51 76

25 51 76

25 51 76

25 51 76

25 51 76

25 51 76

25 51 76

25 51 76

25 51 76

25 51 76

25 51 76

25 51 76

25 51 76

25 51 76

25 51 76

25 51 76

25 51 76

25 51 76

25 51 76

25 51 76

25 51 76

25 51 76

25 51 76

25 51 76

25 51 76

25 51 76

25 51 76

25 51 76

25 51 76

25 51 76

25 51 76

25 51 76

25 51 76

25 51 76

25 51 76

25 51 76

25 51 76

25 51 76

25 51 76

25 51 76

25 51 76

25 51 76

25 51 76

25 51 76

25 51 76

25 51 76

25 51 76

25 51 76

25 51 76

25 51 76

25 51 76

25 51 76

25 51 76

25 51 76

25 51 76

25 51 76

25 51 76

25 51 76

25 51 76

25 51 76

25 51 76

25 51 76

25 51 76

25 51 76

25 51 76

25 51 76

25 51 76

25 51 76

25 51 76

25 51 76

25 51 76

25 51 76

25 51 76

25 51 76

25 51 76

25 51 76

25 51 76

25 51 76

25 51 76

25 51 76

25 51 76

25 51 76

25 51 76

25 51 76

25 51 76

25 51 76

25 51 76

25 51 76

25 51 76

25 51 76

25 51 76

25 51 76

25 51 76

25 51 76

25 51 76

25 51 76

25 51 76

25 51 76

25 51 76

25 51 76

25 51 76

25 51 76

25 51 76

25 51 76

25 51 76

25 51 76

25 51 76

25 51 76

25 51 76

25 51 76

25 51 76

25 51 76

25 51 76

25 51 76

25 51 76

25 51 76

25 51 76

25 51 76

25 51 76

25 51 76

25 51 76

25 51 76

25 51 76

25 51 76

25 51 76

25 51 76

25 51 76

25 51 76

25 51 76

25 51 76

25 51 76

25 51 76

25 51 76

25 51 76

25 51 76

25 51 76

25 51 76

25 51 76

25 51 76

25 51 76

25 51 76

25 51 76

25 51 76

25 51 76

25 51 76

25 51 76

25 51 76

25 51 76

25 51 76

25 51 76

25 51 76

25 51 76

25 51 76

25 51 76

25 51 76

25 51 76

25 51 76

25 51 76

25 51 76

25 51 76

25 51 76

25 51 76

25 51 76

25 51 76

25 51 76

25 51 76

25 51 76

25 51 76

25 51 76

25 51 76

25 51 76

25 51 76

25 51 76

25 51 76

25 51 76

25 51 76

25 51 76

25 51 76

25 51 76

25 51 76

25 51 76

25 51 76

25 51 76

25 51 76

25 51 76

25 51 76

25 51 76

25 51 76

25 51 76

25 51 76

25 51 76

25 51 76

25 51 76

25 51 76

25 51 76

25 51 76

25 51 76

25 51 76

25 51 76

25 51 76

25 51 76

25 51 76

25 51 76

25 51 76

25 51 76

25 51 76

25 51 76

25 51 76

25 51 76

25 51 76

25 51 76

25 51 76

25 51 76

25 51 76

25 51 76

25 51 76

25 51 76

25 51 76

25 51 76

25 51 76

25 51 76

25 51 76

25 51 76

25 51 76

25 51 76

25 51 76

25 51 76

25 51 76

25 51 76

25 51 76

25 51 76

25 51 76

25 51 76

25 51 76

25 51 76

25 51 76

25 51 76

25 51 76

25 51 76

25 51 76

25 51 76

25 51 76

25 51 76

25 51 76

25 51 76

25 51 76

25 51 76

25 51 76

25 51 76

25 51 76

25 51 76

25 51 76

25 51 76

25 51 76

25 51 76

25 51 76

25 51 76

25 51 76

25 51 76

25 51 76

25 51 76

25 51 76

25 51 76

25 51 76

25 51 76

25 51 76

25 51 76

25 51 76

25 51 76

25 51 76

25 51 76

25 51 76

25 51 76

25 51 76

25 51 76

25 51 76

25 51 76

25 51 76

25 51 76

25 51 76

25 51 76

25 51 76

25 51 76

25 51 76

25 51 76

25 51 76

25 51 76

25 51 76

25 51 76

25 51 76

25 51 76

25 51 76

25 51 76

25 51 76

25 51 76

25 51 76

25 51 76

25 51 76

25 51 76

25 51 76

25 51 76

25 51 76

25 51 76

25 51 76

25 51 76

25 51 76

25 51 76

25 51 76

25 51 76

25 51 76

25 51 76

25 51 76

25 51 76

25 51 76

25 51 76

25 51 76

25 51 76

25 51 76

25 51 76

25 51 76

25 51 76

25 51 76

25 51 76

25 51 76

25 51 76

25 51 76

25 51 76

25 51 76

25 51 76

25 51 76

25 51 76

25 51 76

25 51 76

25 51 76

25 51 76

25 51 76

25 51 76

25 51 76

25 51 76

25 51 76

25 51 76

25 51 76

25 51 76

25 51 76

25 51 76

25 51 76

25 51 76

25 51 76

25 51 76

25 51 76

25 51 76

25 51 76

25 51 76

25 51 76

25 51 76

25 51 76

25 51 76

25 51 76

25 51 76

25 51 76

25 51 76

25 51 76

25 51 76

25 51 76

25 51 76

25 51 76

25 51 76

25 51 76

25 51 76

25 51 76

25 51 76

25 51 76

25 51 76

25 51 76

25 51 76

25 51 76

25 51 76

25 51 76

25 51 76

25 51 76

25 51 76

25 51 76

25 51 76

25 51 76

25 51 76

25 51 76

25 51 76

25 51 76

25 51 76

25 51 76

25 51 76

25 51 76

25 51 76

25 51 76

25 51 76

25 51 76

25 51 76

25 51 76

25 51 76

25 51 76

25 51 76

25 51 76

25 51 76

25 51 76

25 51 76

25 51 76

25 51 76

25 51 76

25 51 76

25 51 76

25 51 76

25 51 76

25 51 76

25 51 76

25 51 76

25 51 76

25 51 76

25 51 76

25 51 76

25 51 76

25 51 76

25 51 76

25 51 76

25 51 76

25 51 76

25 51 76

25 51 76

25 51 76

25 51 76

25 51 76

25 51 76

25 51 76

25 51 76

25 51 76

25 51 76

25 51 76

25 51 76

25 51 76

25 51 76

25 51 76

25 51 76

25 51 76

25 51 76

25 51 76

25 51 76

25 51 76

25 51 76

25 51 76

25 51 76

25 51 76

25 51 76

25 51 76

25 51 76

25 51 76

25 51 76

25 51 76

25 51 76

25 51 76

25 51 76

25 51 76

25 51 76

25 51 76

25 51 76

25 51 76

25 51 76

25 51 76

25 51 76

25 51 76

25 51 76

25 51 76

25 51 76

25 51 76

25 51 76

25 51 76

25 51 76

25 51 76

25 51 76

25 51 76

25 51 76

25 51 76

25 51 76

25 51 76

25 51 76

25 51 76

25 51 76

25 51 76

25 51 76

25 51 76

25 51 76

25 51 76

25 51 76

25 51 76

25 51 76

25 51 76

25 51 76

25 51 76

25 51 76

25 51 76

25 51 76

25 51 76

25 51 76

25 51 76

25 51 76

25 51 76

25 51 76

25 51 76

25 51 76

25 51 76

25 51 76

25 51 76

25 51 76

25 51 76

25 51 76

25 51 76

25 51 76

25 51 76

25 51 76

25 51 76

25 51 76

25 51 76

25 51 76

25 51 76

25 51 76

25 51 76

25 51 76

25 51 76

25 51 76

25 51 76

25 51 76

25 51 76

25 51 76

25 51 76

25 51 76

25 51 76

25 51 76

25 51 76

25 51 76

25 51 76

25 51 76

25 51 76

25 51 76

25 51 76

25 51 76

25 51 76

25 51 76

25 51 76

25 51 76

25 51 76

25 51 76

25 51 76

25 51 76

25 51 76

25 51 76

25 51 76

25 51 76

25 51 76

25 51 76

25 51 76

25 51 76

25 51 76

25 51 76

25 51 76

25 51 76

25 51 76

25 51 76

25 51 76

25 51 76

25 51 76

25 51 76

25 51 76

25 51 76

25 51 76

25 51 76

25 51 76

25 51 76

25 51 76

25 51 76

25 51 76

25 51 76

25 51 76

25 51 76

25 51 76

25 51 76

25 51 76

25 51 76

25 51 76

25 51 76

25 51 76

25 51 76

25 51 76

25 51 76

25 51 76

25 51 76

25 51 76

25 51 76

25 51 76

25 51 76

25 51 76

25 51 76

25 51 76

25 51 76

25 51 76

25 51 76

25 51 76

25 51 76

25 51 76

25 51 76

25 51 76

25 51 76

25 51 76

25 51 76

25 51 76

25 51 76

25 51 76

25 51 76

25 51 76

25 51 76

25 51 76

25 51 76

25 51 76

25 51 76

25 51 76

25 51 76

25 51 76

25 51 76

25 51 76

25 51 76

25 51 76

25 51 76

25 51 76

25 51 76

25 51 76

25 51 76

25 51 76

25 51 76

25 51 76

25 51 76

25 51 76

25 51 76

25 51 76

25 51 76

25 51 76

25 51 76

25 51 76

25 51 76

25 51 76

25 51 76

25 51 76

25 51 76

25 51 76

25 51 76

25 51 76

25 51 76

25 51 76

25 51 76

25 51 76

25 51 76

25 51 76

25 51 76

25 51 76

25 51 76

25 51 76

25 51 76

25 51 76

25 51 76

25 51 76

25 51 76

25 51 76

25 51 76

25 51 76

25 51 76

25 51 76

25 51 76

25 51 76

25 51 76

25 51 76

25 51 76

25 51 76

25 51 76

25 51 76

25 51 76

25 51 76

25 51 76

25 51 76

25 51 76

25 51 76

25 51 76

25 51 76

25 51 76

25 51 76

25 51 76

25 51 76

25 51 76

25 51 76

25 51 76

25 51 76

25 51 76

25 51 76

25 51 76

25 51 76

25 51 76

25 51 76

25 51 76

25 51 76

25 51 76

25 51 76

25 51 76

25 51 76

25 51 76

25 51 76

25 51 76

25 51 76

25 51 76

25 51 76

25 51 76

25 51 76

25 51 76

25 51 76

25 51 76

25 51 76

25 51 76

25 51 76

25 51 76

25 51 76

25 51 76

25 51 76

25 51 76

25 51 76

25 51 76

25 51 76

25 51 76

25 51 76

25 51 76

25 51 76

25 51 76

25 51 76

25 51 76

25 51 76

25 51 76

25 51 76

25 51 76

25 51 76

25 51 76

25 51 76

25 51 76

25 51 76

25 51 76

25 51 76

25 51 76

25 51 76

25 51 76

25 51 76

25 51 76

25 51 76

25 51 76

25 51 76

25 51 76

25 51 76

25 51 76

25 51 76

25 51 76

25 51 76

25 51 76

25 51 76

25 51 76

25 51 76

25 51 76

25 51 76

25 51 76

25 51 76

25 51 76

25 51 76

25 51 76

25 51 76

25 51 76

25 51 76

25 51 76

25 51 76

25 51 76

25 51 76

25 51 76

25 51 76

25 51 76

25 51 76

25 51 76

25 51 76

25 51 76

25 51 76

25 51 76

25 51 76

25 51 76

25 51 76

25 51 76

25 51 76

25 51 76

25 51 76

25 51 76

25 51 76

25 51 76

25 51 76

25 51 76

25 51 76

25 51 76

25 51 76

25 51 76

25 51 76

25 51 76

25 51 76

25 51 76

25 51 76

25 51 76

25 51 76

25 51 76

25 51 76

25 51 76

25 51 76

25 51 76

25 51 76

25 51 76

25 51 76

25 51 76

25 51 76

25 51 76

25 51 76

25 51 76

25 51 76

25 51 76

25 51 76

25 51 76

25 51 76

25 51 76

25 51 76

25 51 76

25 51 76

25 51 76

25 51 76

25 51 76

25 51 76

25 51 76

25 51 76

25 51 76

25 51 76

25 51 76

25 51 76

25 51 76

25 51 76

25 51 76

25 51 76

25 51 76

25 51 76

25 51 76

25 51 76

25 51 76

25 51 76

25 51 76

25 51 76

25 51 76

25 51 76

25 51 76

25 51 76

25 51 76

25 51 76

25 51 76

25 51 76

25 51 76

25 51 76

25 51 76

25 51 76

25 51 76

25 51 76

25 51 76

25 51 76

25 51 76

25 51 76

25 51 76

25 51 76

25 51 76

25 51 76

25 51 76

25 51 76

25 51 76

25 51 76

25 51 76

25 51 76

25 51 76

25 51 76

25 51 76

25 51 76

25 51 76

25 51 76

25 51 76

25 51 76

25 51 76

25 51 76

25 51 76

25 51 76

25 51 76

25 51 76

25 51 76

25 51 76

25 51 76

25 51 76

25 51 76

25 51 76

25 51 76

25 51 76

25 51 76

25 51 76

25 51 76

25 51 76

25 51 76

25 51 76

25 51 76

25 51 76

25 51 76

25 51 76

25 51 76

25 51 76

25 51 76

25 51 76

25 51 76

25 51 76

25 51 76

25 51 76

25 51 76

25 51 76

25 51 76

25 51 76

25 51 76

25 51 76

25 51 76

25 51 76

25 51 76

25 51 76

25 51 76

25 51 76

25 51 76

25 51 76

25 51 76

25 51 76

25 51 76

25 51 76

25 51 76

25 51 76

25 51 76

25 51 76

25 51 76

25 51 76

25 51 76

25 51 76

25 51 76

25 51 76

25 51 76

25 51 76

25 51 76

25 51 76

25 51 76

25 51 76

25 51 76

25 51 76

25 51 76

25 51 76

25 51 76

25 51 76

25 51 76

25 51 76

25 51 76

25 51 76

25 51 76

25 51 76

25 51 76

25 51 76

25 51 76

25 51 76

25 51 76

25 51 76

25 51 76

25 51 76

25 51 76

25 51 76

25 51 76

25 51 76

25 51 76

25 51 76

25 51 76

25 51 76

25 51 76

25 51 76

25 51 76

25 51 76

25 51 76

25 51 76

25 51 76

25 51 76

25 51 76

25 51 76

25 51 76

25 51 76

25 51 76

25 51 76

25 51 76

25 51 76

25 51 76

25 51 76

25 51 76

25 51 76

25 51 76

25 51 76

25 51 76

25 51 76

25 51 76

25 51 76

25 51 76

25 51 76

25 51 76

25 51 76

25 51 76

25 51 76

25 51 76

25 51 76

25 51 76

25 51 76

25 51 76

25 51 76

25 51 76

25 51 76

25 51 76

25 51 76

25 51 76

25 51 76

25 51 76

25 51 76

25 51 76

25 51 76

25 51 76

25 51 76

25 51 76

25 51 76

25 51 76

25 51 76

25 51 76

25 51 76

25 51 76

25 51 76

25 51 76

25 51 76

25 51 76

25 51 76

25 51 76

25 51 76

25 51 76

25 51 76

25 51 76

25 51 76

25 51 76

25 51 76

25 51 76

25 51 76

25 51 76

25 51 76

25 51 76

25 51 76

25 51 76

25 51 76

25 51 76

25 51 76

25 51 76

25 51 76

25 51 76

25 51 76

25 51 76

25 51 76

25 51 76

25 51 76

25 51 76

25 51 76

25 51 76

25 51 76

25 51 76

25 51 76

25 51 76

25 51 76

25 51 76

25 51 76

25 51 76

25 51 76

25 51 76

25 51 76

25 51 76

25 51 76

25 51 76

25 51 76

25 51 76

25 51 76

25 51 76

25 51 76

25 51 76

25 51 76

25 51 76

25 51 76

25 51 76

25 51 76

25 51 76

25 51 76

25 51 76

25 51 76

25 51 76

25 51 76

25 51 76

25 51 76

25 51 76

25 51 76

25 51 76

25 51 76

25 51 76

25 51 76

25 51 76

25 51 76

25 51 76

25 51 76

25 51 76

25 51 76

25 51 76

25 51 76

25 51 76

25 51 76

25 51 76

25 51 76

25 51 76

25 51 76

25 51 76

25 51 76

25 51 76

25 51 76

25 51 76

25 51 76

25 51 76

25 51 76

25 51 76

25 51 76

25 51 76

25 51 76

25 51 76

25 51 76

25 51 76

25 51 76

25 51 76

25 51 76

25 51 76

25 51 76

25 51 76

25 51 76

25 51 76

25 51 76

25 51 76

25 51 76

25 51 76

25 51 76

25 51 76

25 51 76

25 51 76

25 51 76

25 51 76

25 51 76

25 51 76

25 51 76

25 51 76

25 51 76

25 51 76

25 51 76

25 51 76

25 51 76

25 51 76

25 51 76

25 51 76

25 51 76

25 51 76

25 51 76

25 51 76

25 51 76

25 51 76

25 51 76

25 51 76

25 51 76

25 51 76

25 51 76

25 51 76

25 51 76

25 51 76

25 51 76

25 51 76

25 51 76

25 51 76

25 51 76

25 51 76

25 51 76

25 51 76

25 51 76

25 51 76

25 51 76

25 51 76

25 51 76

25 51 76

25 51 76

25 51 76

25 51 76

25 51 76

25 51 76

25 51 76

25 51 76

25 51 76

25 51 76

25 51 76

25 51 76

25 51 76

25 51 76

25 51 76

25 51 76

25 51 76

25 51 76

25 51 76

25 51 76

25 51 76

25 51 76

25 51 76

25 51 76

25 51 76

25 51 76

25 51 76

25 51 76

25 51 76

25 51 76

25 51 76

25 51 76

25 51 76

25 51 76

25 51 76

25 51 76

25 51 76

25 51 76

25 51 76

25 51 76

25 51 76

25 51 76

25 51 76

25 51 76

25 51 76

25 51 76

25 51 76

25 51 76

25 51 76

25 51 76

25 51 76

25 51 76

25 51 76

25 51 76

25 51 76

25 51 76

25 51 76

25 51 76

25 51 76

25 51 76

25 51 76

25 51 76

25 51 76

25 51 76

25 51 76

25 51 76

25 51 76

25 51 76

25 51 76

25 51 76

25 51 76

25 51 76

25 51 76

25 51 76

25 51 76

25 51 76

25 51 76

25 51 76

25 51 76

25 51 76

25 51 76

25 51 76

25 51 76

25 51 76

25 51 76

25 51 76

25 51 76

25 51 76

25 51 76

25 51 76

25 51 76

25 51 76

25 51 76

25 51 76

25 51 76

25 51 76

25 51 76

25 51 76

25 51 76

25 51 76

25 51 76

25 51 76

25 51 76

25 51 76

25 51 76

25 51 76

25 51 76

25 51 76

25 51 76

25 51 76

25 51 76

25 51 76

25 51 76

25 51 76

25 51 76

25 51 76

25 51 76

25 51 76

25 51 76

25 51 76

25 51 76

25 51 76

25 51 76

25 51 76

25 51 76

25 51 76

25 51 76

25 51 76

25 51 76

25 51 76

25 51 76

25 51 76

25 51 76

25 51 76

25 51 76

25 51 76

25 51 76

25 51 76

25 51 76

25 51 76

25 51 76

25 51 76

25 51 76

25 51 76

25 51 76

25 51 76

25 51 76

25 51 76

25 51 76

25 51 76

25 51 76

25 51 76

25 51 76

25 51 76

25 51 76

25 51 76

25 51 76

25 51 76

25 51 76

25 51 76

25 51 76

25 51 76

25 51 76

25 51 76

25 51 76

25 51 76

25 51 76

25 51 76

25 51 76

25 51 76

25 51 76

25 51 76

25 51 76

25 51 76

25 51 76

25 51 76

25 51 76

25 51 76

25 51 76

25 51 76

25 51 76

25 51 76

25 51 76

25 51 76

25 51 76

25 51 76

25 51 76

25 51 76

25 51 76

25 51 76

25 51 76

25 51 76

25 51 76

25 51 76

25 51 76

25 51 76

25 51 76

25 51 76

25 51 76

25 51 76

25 51 76

25 51 76

25 51 76

25 51 76

25 51 76

25 51 76

25 51 76

25 51 76

25 51 76

25 51 76

25 51 76

25 51 76

25 51 76

25 51 76

25 51 76

25 51 76

25 51 76

25 51 76

25 51 76

25 51 76

25 51 76

25 51 76

25 51 76

25 51 76

25 51 76

25 51 76

25 51 76

25 51 76

25 51 76

25 51 76

25 51 76

25 51 76

25 51 76

25 51 76

25 51 76

25 51 76

25 51 76

25 51 76

25 51 76

25 51 76

25 51 76

25 51 76

25 51 76

25 51 76

25 51 76

25 51 76

25 51 76

25 51 76

25 51 76

25 51 76

25 51 76

25 51 76

25 51 76

25 51 76

25 51 76

25 51 76

25 51 76

25 51 76

25 51 76

25 51 76

25 51 76

25 51 76

25 51 76

25 51 76

25 51 76

25 51 76

25 51 76

25 51 76

25 51 76

25 51 76

25 51 76

25 51 76

25 51 76

25 51 76

25 51 76

25 51 76

25 51 76

25 51 76

25 51 76

25 51 76

25 51 76

25 51 76

25 51 76

25 51 76

25 51 76

25 51 76

25 51 76

25 51 76

25 51 76

25 51 76

25 51 76

25 51 76

25 51 76

25 51 76

25 51 76

25 51 76

25 51 76

25 51 76

25 51 76

25 51 76

25 51 76

25 51 76

25 51 76

25 51 76

25 51 76

25 51 76

25 51 76

25 51 76

25 51 76

25 51 76

25 51 76

25 51 76

25 51 76

25 51 76

25 51 76

25 51 76

25 51 76

25 51 76

25 51 76

25 51 76

25 51 76

25 51 76

25 51 76

25 51 76

25 51 76

25 51 76

25 51 76

25 51 76

25 51 76

25 51 76

25 51 76

25 51 76

25 51 76

25 51 76

25 51 76

25 51 76

25 51 76

25 51 76

25 51 76

25 51 76

25 51 76

25 51 76

25 51 76

25 51 76

25 51 76

25 51 76

25 51 76

25 51 76

25 51 76

25 51 76

25 51 76

25 51 76

25 51 76

25 51 76

25 51 76

25 51 76

25 51 76

25 51 76

25 51 76

25 51 76

25 51 76

25 51 76

25 51 76

25 51 76

25 51 76

25 51 76

25 51 76

25 51 76

25 51 76

25 51 76

25 51 76

25 51 76

25 51 76

25 51 76

25 51 76

25 51 76

25 51 76

25 51 76

25 51 76

25 51 76

25 51 76

25 51 76

25 51 76

25 51 76

25 51 76

25 51 76

25 51 76

25 51 76

25 51 76

25 51 76

25 51 76

25 51 76

25 51 76

25 51 76

25 51 76

25 51 76

25 51 76

25 51 76

25 51 76

25 51 76

25 51 76

25 51 76

25 51 76

25 51 76

25 51 76

25 51 76

25 51 76

25 51 76

25 51 76

25 51 76

25 51 76

25 51 76

25 51 76

25 51 76

25 51 76

25 51 76

25 51 76

25 51 76

25 51 76

25 51 76

25 51 76

25 51 76

25 51 76

25 51 76

25 51 76

25 51 76

25 51 76

25 51 76

25 51 76

25 51 76

25 51 76

25 51 76

25 51 76

25 51 76

25 51 76

25 51 76

25 51 76

25 51 76

25 51 76

25 51 76

25 51 76

25 51 76

25 51 76

25 51 76

25 51 76

25 51 76

25 51 76

25 51 76

25 51 76

25 51 76

25 51 76

25 51 76

25 51 76

25 51 76

25 51 76

25 51 76

25 51 76

25 51 76

25 51 76

25 51 76

25 51 76

25 51 76

25 51 76

25 51 76

25 51 76

25 51 76

25 51 76

25 51 76

25 51 76

25 51 76

25 51 76

25 51 76

25 51 76

25 51 76

25 51 76

25 51 76

25 51 76

25 51 76

25 51 76

25 51 76

25 51 76

25 51 76

25 51 76

25 51 76

25 51 76

25 51 76

25 51 76

25 51 76

25 51 76

25 51 76

25 51 76

25 51 76

25 51 76

25 51 76

25 51 76

25 51 76

25 51 76

25 51 76

25 51 76

25 51 76

25 51 76

25 51 76

25 51 76

25 51 76

25 51 76

25 51 76

25 51 76

25 51 76

25 51 76

25 51 76

25 51 76

25 51 76

25 51 76

25 51 76

25 51 76

25 51 76

25 51 76

25 51 76

25 51 76

25 51 76

25 51 76

25 51 76

25 51 76

25 51 76

25 51 76

25 51 76

25 51 76

25 51 76

25 51 76

25 51 76

25 51 76

25 51 76

25 51 76

25 51 76

25 51 76

25 51 76

25 51 76

25 51 76

25 51 76

25 51 76

25 51 76

25 51 76

25 51 76

25 51 76

25 51 76

25 51 76

25 51 76

25 51 76

25 51 76

25 51 76

25 51 76

25 51 76

25 51 76

25 51 76

25 51 76

25 51 76

25 51 76

25 51 76

25 51 76

25 51 76

25 51 76

25 51 76

25 51 76

25 51 76

25 51 76

25 51 76

25 51 76

25 51 76

25 51 76

25 51 76

25 51 76

25 51 76

25 51 76

25 51 76

25 51 76

25 51 76

25 51 76

25 51 76

25 51 76

25 51 76

25 51 76

25 51 76

25 51 76

25 51 76

25 51 76

25 51 76

25 51 76

25 51 76

25 51 76

25 51 76

25 51 76

25 51 76

25 51 76

25 51 76

25 51 76

25 51 76

25 51 76

25 51 76

25 51 76

25 51 76

25 51 76

25 51 76

25 51 76

25 51 76

25 51 76

25 51 76

25 51 76

25 51 76

25 51 76

25 51 76

25 51 76

25 51 76

25 51 76

25 51 76

25 51 76

25 51 76

25 51 76

25 51 76

25 51 76

25 51 76

25 51 76

25 51 76

25 51 76

25 51 76

25 51 76

25 51 76

25 51 76

25 51 76

25 51 76

25 51 76

25 51 76

25 51 76

25 51 76

25 51 76

25 51 76

25 51 76

25 51 76

25 51 76

25 51 76

25 51 76

25 51 76

25 51 76

25 51 76

25 51 76

25 51 76

25 51 76

25 51 76

25 51 76

25 51 76

25 51 76

25 51 76

25 51 76

25 51 76

25 51 76

25 51 76

25 51 76

25 51 76

25 51 76

25 51 76

25 51 76

25 51 76

25 51 76

25 51 76

25 51 76

25 51 76

25 51 76

25 51 76

25 51 76

25 51 76

25 51 76

25 51 76

25 51 76

25 51 76

25 51 76

25 51 76

25 51 76

25 51 76

25 51 76

25 51 76

25 51 76

25 51 76

25 51 76

25 51 76

25 51 76

25 51 76

25 51 76

25 51 76

25 51 76

25 51 76

25 51 76

25 51 76

25 51 76

25 51 76

25 51 76

25 51 76

25 51 76

25 51 76

25 51 76

25 51 76

25 51 76

25 51 76

25 51 76

25 51 76

25 51 76

25 51 76

25 51 76

25 51 76

25 51 76

25 51 76

25 51 76

25 51 76

25 51 76

25 51 76

25 51 76

25 51 76

25 51 76

25 51 76

25 51 76

25 51 76

25 51 76

25 51 76

25 51 76

25 51 76

25 51 76

25 51 76

25 51 76

25 51 76

25 51 76

25 51 76

25 51 76

25 51 76

25 51 76

25 51 76

25 51 76

25 51 76

25 51 76

25 51 76

25 51 76

25 51 76

25 51 76

25 51 76

25 51 76

25 51 76

25 51 76

25 51 76

25 51 76

25 51 76

25 51 76

25 51 76

25 51 76

25 51 76

25 51 76

25 51 76

25 51 76

25 51 76

25 51 76

25 51 76

25 51 76

25 51 76

25 51 76

25 51 76

25 51 76

25 51 76

25 51 76

25 51 76

25 51 76

25 51 76

25 51 76

25 51 76

25 51 76

25 51 76

25 51 76

25 51 76

25 51 76

25 51 76

25 51 76

25 51 76

25 51 76

25 51 76

25 51 76

25 51 76

25 51 76

25 51 76

25 51 76

25 51 76

25 51 76

25 51 76

25 51 76

25 51 76

25 51 76

25 51 76

25 51 76

25 51 76

25 51 76

25 51 76

25 51 76

25 51 76

25 51 76

25 51 76

25 51 76

25 51 76

25 51 76

25 51 76

25 51 76

25 51 76

25 51 76

25 51 76

25 51 76

25 51 76

25 51 76

25 51 76

25 51 76

25 51 76

25 51 76

25 51 76

25 51 76

25 51 76

25 51 76

25 51 76

25 51 76

25 51 76

25 51 76

25 51 76

25 51 76

25 51 76

25 51 76

25 51 76

25 51 76

25 51 76

25 51 76

25 51 76

25 51 76

25 51 76

25 51 76

25 51 76

25 51 76

25 51 76

25 51 76

25 51 76

25 51 76

25 51 76

25 51 76

25 51 76

25 51 76

25 51 76

25 51 76

25 51 76

25 51 76

25 51 76

25 51 76

25 51 76

25 51 76

25 51 76

25 51 76

25 51 76

25 51 76

25 51 76

25 51 76

25 51 76

25 51 76

25 51 76

25 51 76

25 51 76

25 51 76

25 51 76

25 51 76

25 51 76

25 51 76

25 51 76

25 51 76

25 51 76

25 51 76

25 51 76

25 51 76

25 51 76

25 51 76

25 51 76

25 51 76

25 51 76

25 51 76

25 51 76

25 51 76

25 51 76

25 51 76

25 51 76

25 51 76

25 51 76

25 51 76

25 51 76

25 51 76

25 51 76

25 51 76

25 51 76

25 51 76

25 51 76

25 51 76

25 51 76

25 51 76

25 51 76

25 51 76

25 51 76

25 51 76

25 51 76

25 51 76

25 51 76

25 51 76

25 51 76

25 51 76

25 51 76

25 51 76

25 51 76

25 51 76

25 51 76

25 51 76

25 51 76

25 51 76

25 51 76

25 51 76

25 51 76

25 51 76

25 51 76

25 51 76

25 51 76

25 51 76

25 51 76

25 51 76

25 51 76

25 51 76

25 51 76

25 51 76

25 51 76

25 51 76

25 51 76

25 51 76

25 51 76

25 51 76

25 51 76

25 51 76

25 51 76

25 51 76

25 51 76

25 51 76

25 51 76

25 51 76

25 51 76

25 51 76

25 51 76

25 51 76

25 51 76

25 51 76

25 51 76

25 51 76

25 51 76

25 51 76

25 51 76

25 51 76

25 51 76

25 51 76

25 51 76

25 51 76

25 51 76

25 51 76

25 51 76

25 51 76

25 51 76

25 51 76

25 51 76

25 51 76

25 51 76

25 51 76

25 51 76

25 51 76

25 51 76

25 51 76

25 51 76

25 51 76

25 51 76

25 51 76

25 51 76

25 51 76

25 51 76

25 51 76

25 51 76

25 51 76

25 51 76

25 51 76

25 51 76

25 51 76

25 51 76

25 51 76

25 51 76

25 51 76

25 51 76

25 51 76

25 51 76

25 51 76

25 51 76

25 51 76

25 51 76

25 51 76

25 51 76

25 51 76

25 51 76

25 51 76

25 51 76

25 51 76

25 51 76

25 51 76

25 51 76

25 51 76

25 51 76

25 51 76

25 51 76

25 51 76

25 51 76

25 51 76

25 51 76

25 51 76

25 51 76

25 51 76

25 51 76

25 51 76

25 51 76

25 51 76

25 51 76

25 51 76

25 51 76

25 51 76

25 51 76

25 51 76

25 51 76

25 51 76

25 51 76

25 51 76

25 51 76

25 51 76

25 51 76

25 51 76

25 51 76

25 51 76

25 51 76

25 51 76

25 51 76

25 51 76

25 51 76

25 51 76

25 51 76

25 51 76

25 51 76

25 51 76

25 51 76

25 51 76

25 51 76

25 51 76

25 51 76

25 51 76

25 51 76

25 51 76

25 51 76

25 51 76

25 51 76

25 51 76

25 51 76

25 51 76

25 51 76

25 51 76

25 51 76

25 51 76

25 51 76

25 51 76

25 51 76

25 51 76

25 51 76

25 51 76

25 51 76

25 51 76

25 51 76

25 51 76

25 51 76

25 51 76

25 51 76

25 51 76

25 51 76

25 51 76

25 51 76

25 51 76

25 51 76

25 51 76

25 51 76

25 51 76

25 51 76

25 51 76

25 51 76

25 51 76

25 51 76

25 51 76

25 51 76

25 51 76

25 51 76

25 51 76

25 51 76

25 51 76

25 51 76

25 51 76

25 51 76

25 51 76

25 51 76

25 51 76

25 51 76

25 51 76

25 51 76

25 51 76

25 51 76

25 51 76

25 51 76

25 51 76

25 51 76

25 51 76

25 51 76

25 51 76

25 51 76

25 51 76

25 51 76

25 51 76

25 51 76

25 51 76

25 51 76

25 51 76

25 51 76

25 51 76

25 51 76

25 51 76

25 51 76

25 51 76

25 51 76

25 51 76

25 51 76

25 51 76

25 51 76

25 51 76

25 51 76

25 51 76

25 51 76

25 51 76

25 51 76

25 51 76

25 51 76

25 51 76

25 51 76

25 51 76

25 51 76

25 51 76

25 51 76

25 51 76

25 51 76

25 51 76

25 51 76

25 51 76

25 51 76

25 51 76

25 51 76

25 51 76

25 51 76

25 51 76

25 51 76

25 51 76

25 51 76

25 51 76

25 51 76

25 51 76

25 51 76

25 51 76

25 51 76

25 51 76

25 51 76

25 51 76

25 51 76

25 51 76

25 51 76

25 51 76

25 51 76

25 51 76

25 51 76

25 51 76

25 51 76

25 51 76

25 51 76

25 51 76

25 51 76

25 51 76

25 51 76

25 51 76

25 51 76

25 51 76

25 51 76

25 51 76

25 51 76

25 51 76

25 51 76

25 51 76

25 51 76

25 51 76

25 51 76

25 51 76

25 51 76

25 51 76

25 51 76

25 51 76

25 51 76

25 51 76

25 51 76

25 51 76

25 51 76

25 51 76

25 51 76

25 51 76

25 51 76

25 51 76

25 51 76

25 51 76

25 51 76

25 51 76

25 51 76

25 51 76

25 51 76

25 51 76

25 51 76

25 51 76

25 51 76

25 51 76

25 51 76

25 51 76

25 51 76

25 51 76

25 51 76

25 51 76

25 51 76

25 51 76

25 51 76

25 51 76

25 51 76

25 51 76

25 51 76

25 51 76

25 51 76

25 51 76

25 51 76

25 51 76

25 51 76

25 51 76

25 51 76

25 51 76

25 51 76

25 51 76

25 51 76

25 51 76

25 51 76

25 51 76

25 51 76

25 51 76

25 51 76

25 51 76

25 51 76

25 51 76

25 51 76

25 51 76

25 51 76

25 51 76

25 51 76

25 51 76

25 51 76

25 51 76

25 51 76

25 51 76

25 51 76

25 51 76

25 51 76

25 51 76

25 51 76

25 51 76

25 51 76

25 51 76

25 51 76

25 51 76

25 51 76

25 51 76

25 51 76

25 51 76

25 51 76

25 51 76

25 51 76

25 51 76

25 51 76

25 51 76

25 51 76

25 51 76

25 51 76

25 51 76

25 51 76

25 51 76

25 51 76

25 51 76

25 51 76

25 51 76

25 51 76

25 51 76

25 51 76

25 51 76

25 51 76

25 51 76

25 51 76

25 51 76

25 51 76

25 51 76

25 51 76

25 51 76

25 51 76

25 51 76

25 51 76

25 51 76

25 51 76

25 51 76

25 51 76

25 51 76

25 51 76

25 51 76

25 51 76

25 51 76

25 51 76

25 51 76

25 51 76

25 51 76

25 51 76

25 51 76

25 51 76

25 51 76

25 51 76

25 51 76

25 51 76

25 51 76

25 51 76

25 51 76

25 51 76

25 51 76

25 51 76

25 51 76

25 51 76

25 51 76

25 51 76

25 51 76

25 51 76

25 51 76

25 51 76

25 51 76

25 51 76

25 51 76

25 51 76

25 51 76

25 51 76

25 51 76

25 51 76

25 51 76

25 51 76

25 51 76

25 51 76

25 51 76

25 51 76

25 51 76

25 51 76

25 51 76

25 51 76

25 51 76

25 51 76

25 51 76

25 51 76

25 51 76

25 51 76

25 51 76

25 51 76

25 51 76

25 51 76

25 51 76

25 51 76

25 51 76

25 51 76

25 51 76

25 51 76

25 51 76

25 51 76

25 51 76

25 51 76

25 51 76

25 51 76

25 51 76

25 51 76

25 51 76

25 51 76

25 51 76

25 51 76

25 51 76

25 51 76

25 51 76

25 51 76

25 51 76

25 51 76

25 51 76

25 51 76

25 51 76

25 51 76

25 51 76

25 51 76

25 51 76

25 51 76

25 51 76

25 51 76

25 51 76

25 51 76

25 51 76

25 51 76

25 51 76

25 51 76

25 51 76

25 51 76

25 51 76

25 51 76

25 51 76

25 51 76

25 51 76

25 51 76

25 51 76

25 51 76

25 51 76

25 51 76

25 51 76

25 51 76

25 51 76

25 51 76

25 51 76

25 51 76

25 51 76

25 51 76

25 51 76

25 51 76

25 51 76

25 51 76

25 51 76

25 51 76

25 51 76

25 51 76

25 51 76

25 51 76

25 51 76

25 51 76

25 51 76

25 51 76

25 51 76

25 51 76

25 51 76

25 51 76

25 51 76

25 51 76

25 51 76

25 51 76

25 51 76

25 51 76

25 51 76

25 51 76

25 51 76

25 51 76

25 51 76

25 51 76

25 51 76

25 51 76

25 51 76

25 51 76

25 51 76

25 51 76

25 51 76

25 51 76

25 51 76

25 51 76

25 51 76

25 51 76

25 51 76

25 51 76

25 51 76

25 51 76

25 51 76

25 51 76

25 51 76

25 51 76

25 51 76

25 51 76

25 51 76

25 51 76

25 51 76

25 51 76

25 51 76

25 51 76

25 51 76

25 51 76

25 51 76

25 51 76

25 51 76

25 51 76

25 51 76

25 51 76

25 51 76

25 51 76

25 51 76

25 51 76

25 51 76

25 51 76

25 51 76

25 51 76

25 51 76

25 51 76

25 51 76

25 51 76

25 51 76

25 51 76

25 51 76

25 51 76

25 51 76

25 51 76

25 51 76

25 51 76

25 51 76

25 51 76

25 51 76

25 51 76

25 51 76

25 51 76

25 51 76

25 51 76

25 51 76

25 51 76

25 51 76

25 51 76

25 51 76

25 51 76

25 51 76

25 51 76

25 51 76

25 51 76

25 51 76

25 51 76

25 51 76

25 51 76

25 51 76

25 51 76

25 51 76

25 51 76

25 51 76

25 51 76

25 51 76

25 51 76

25 51 76

25 51 76

25 51 76

25 51 76

25 51 76

25 51 76

25 51 76

25 51 76

25 51 76

25 51 76

25 51 76

25 51 76

25 51 76

25 51 76

25 51 76

25 51 76

25 51 76

25 51 76

25 51 76

25 51 76

25 51 76

25 51 76

25 51 76

25 51 76

25 51 76

25 51 76

25 51 76

25 51 76

25 51 76

25 51 76

25 51 76

25 51 76

25 51 76

25 51 76

25 51 76

25 51 76

25 51 76

25 51 76

25 51 76

25 51 76

25 51 76

25 51 76

25 51 76

25 51 76

25 51 76

25 51 76

25 51 76

25 51 76

25 51 76

25 51 76

25 51 76

25 51 76

25 51 76

25 51 76

25 51 76

25 51 76

25 51 76

25 51 76

25 51 76

25 51 76

25 51 76

25 51 76

25 51 76

25 51 76

25 51 76

25 51 76

25 51 76

25 51 76

25 51 76

25 51 76

25 51 76

25 51 76

25 51 76

25 51 76

25 51 76

25 51 76

25 51 76

25 51 76

25 51 76

25 51 76

25 51 76

25 51 76

25 51 76

25 51 76

25 51 76

25 51 76

25 51 76

25 51 76

25 51 76

25 51 76

25 51 76

25 51 76

25 51 76

25 51 76

25 51 76

25 51 76

25 51 76

25 51 76

25 51 76

25 51 76

25 51 76

25 51 76

25 51 76

25 51 76

25 51 76

25 51 76

25 51 76

25 51 76

25 51 76

25 51 76

25 51 76

25 51 76

25 51 76

25 51 76

25 51 76

25 51 76

25 51 76

25 51 76

25 51 76

25 51 76

25 51 76

25 51 76

25 51 76

25 51 76

25 51 76

25 51 76

25 51 76

25 51 76

25 51 76

25 51 76

25 51 76

25 51 76

25 51 76

25 51 76

25 51 76

25 51 76

25 51 76

25 51 76

25 51 76

25 51 76

25 51 76

25 51 76

25 51 76

25 51 76

25 51 76

25 51 76

25 51 76

25 51 76

25 51 76

25 51 76

25 51 76

25 51 76

25 51 76

25 51 76

25 51 76

25 51 76

25 51 76

25 51 76

25 51 76

25 51 76

25 51 76

25 51 76

25 51 76

25 51 76

25 51 76

25 51 76

25 51 76

25 51 76

25 51 76

25 51 76

25 51 76

25 51 76

25 51 76

25 51 76

25 51 76

25 51 76

25 51 76

25 51 76

25 51 76

25 51 76

25 51 76

25 51 76

25 51 76

25 51 76

25 51 76

25 51 76

25 51 76

25 51 76

25 51 76

25 51 76

25 51 76

25 51 76

25 51 76

25 51 76

25 51 76

25 51 76

25 51 76

25 51 76

25 51 76

25 51 76

25 51 76

25 51 76

25 51 76

25 51 76

25 51 76

25 51 76

25 51 76

25 51 76

25 51 76

25 51 76

25 51 76

25 51 76

25 51 76

25 51 76

25 51 76

25 51 76

25 51 76

25 51 76

25 51 76

25 51 76

25 51 76

25 51 76

25 51 76

25 51 76

25 51 76

25 51 76

25 51 76

25 51 76

25 51 76

25 51 76

25 51 76

25 51 76

25 51 76

25 51 76

25 51 76

25 51 76

25 51 76

25 51 76

25 51 76

25 51 76

25 51 76

25 51 76

25 51 76

25 51 76

25 51 76

25 51 76

25 51 76

25 51 76

25 51 76

25 51 76

25 51 76

25 51 76

25 51 76

25 51 76

25 51 76

25 51 76

25 51 76

25 51 76

25 51 76

25 51 76

25 51 76

25 51 76

25 51 76

25 51 76

25 51 76

25 51 76

25 51 76

25 51 76

25 51 76

25 51 76

25 51 76

25 51 76

25 51 76

25 51 76

25 51 76

25 51 76

25 51 76

25 51 76

25 51 76

25 51 76

25 51 76

25 51 76

25 51 76

25 51 76

25 51 76

25 51 76

25 51 76

25 51 76

25 51 76

25 51 76

25 51 76

25 51 76

25 51 76

25 51 76

25 51 76

25 51 76

25 51 76

25 51 76

25 51 76

25 51 76

25 51 76

25 51 76

25 51 76

25 51 76

25 51 76

25 51 76

25 51 76

25 51 76

25 51 76

25 51 76

25 51 76

25 51 76

25 51 76

25 51 76

25 51 76

25 51 76

25 51 76

25 51 76

25 51 76

25 51 76

25 51 76

25 51 76

25 51 76

25 51 76

25 51 76

25 51 76

25 51 76

25 51 76

25 51 76

25 51 76

25 51 76

25 51 76

25 51 76

25 51 76

25 51 76

25 51 76

25 51 76

25 51 76

25 51 76

25 51 76

25 51 76

25 51 76

25 51 76

25 51 76

25 51 76

25 51 76

25 51 76

25 51 76

25 51 76

25 51 76

25 51 76

25 51 76

25 51 76

25 51 76

25 51 76

25 51 76

25 51 76

25 51 76

25 51 76

25 51 76

25 51 76

25 51 76

25 51 76

25 51 76

25 51 76

25 51 76

25 51 76

25 51 76

25 51 76

25 51 76

25 51 76

25 51 76

25 51 76

25 51 76

25 51 76

25 51 76

25 51 76

25 51 76

25 51 76

25 51 76

25 51 76

25 51 76

25 51 76

25 51 76

25 51 76

25 51 76

25 51 76

25 51 76

25 51 76

25 51 76

25 51 76

25 51 76

25 51 76

25 51 76

25 51 76

25 51 76

25 51 76

25 51 76

25 51 76

25 51 76

25 51 76

25 51 76

25 51 76

25 51 76

25 51 76

25 51 76

25 51 76

25 51 76

25 51 76

25 51 76

25 51 76

25 51 76

25 51 76

25 51 76

25 51 76

25 51 76

25 51 76

25 51 76

25 51 76

25 51 76

25 51 76

25 51 76

25 51 76

25 51 76

25 51 76

25 51 76

25 51 76

25 51 76

25 51 76

25 51 76

25 51 76

25 51 76

25 51 76

25 51 76

25 51 76

25 51 76

25 51 76

25 51 76

25 51 76

25 51 76

25 51 76

25 51 76

25 51 76

25 51 76

25 51 76

25 51 76

25 51 76

25 51 76

25 51 76

25 51 76

25 51 76

25 51 76

25 51 76

25 51 76

25 51 76

25 51 76

25 51 76

25 51 76

25 51 76

25 51 76

25 51 76

25 51 76

25 51 76

25 51 76

25 51 76

25 51 76

25 51 76

25 51 76

25 51 76

25 51 76

25 51 76

25 51 76

25 51 76

25 51 76

25 51 76

25 51 76

25 51 76

25 51 76

25 51 76

25 51 76

25 51 76

25 51 76

25 51 76

25 51 76

25 51 76

25 51 76

25 51 76

25 51 76

25 51 76

25 51 76

25 51 76

25 51 76

25 51 76

25 51 76

25 51 76

25 51 76

25 51 76

25 51 76

25 51 76

25 51 76

25 51 76

25 51 76

25 51 76

25 51 76

25 51 76

25 51 76

25 51 76

25 51 76

25 51 76

25 51 76

25 51 76

25 51 76

25 51 76

25 51 76

25 51 76

25 51 76

25 51 76

25 51 76

25 51 76

25 51 76

25 51 76

25 51 76

25 51 76

25 51 76

25 51 76

25 51 76

25 51 76

25 51 76

25 51 76

25 51 76

25 51 76

25 51 76

25 51 76

25 51 76

25 51 76

25 51 76

25 51 76

25 51 76

25 51 76

25 51 76

25 51 76

25 51 76

25 51 76

25 51 76

25 51 76

25 51 76

25 51 76

25 51 76

25 51 76

25 51 76

25 51 76

25 51 76

25 51 76

25 51 76

25 51 76

25 51 76

25 51 76

25 51 76

25 51 76

25 51 76

25 51 76

25 51 76

25 51 76

25 51 76

25 51 76

25 51 76

25 51 76

25 51 76

25 51 76

25 51 76

25 51 76

25 51 76

25 51 76

25 51 76

25 51 76

25 51 76

25 51 76

25 51 76

25 51 76

25 51 76

25 51 76

25 51 76

25 51 76

25 51 76

25 51 76

25 51 76

25 51 76

25 51 76

25 51 76

25 51 76

25 51 76

25 51 76

25 51 76

25 51 76

25 51 76

25 51 76

25 51 76

25 51 76

25 51 76

25 51 76

25 51 76

25 51 76

25 51 76

25 51 76

25 51 76

25 51 76

25 51 76

25 51 76

25 51 76

25 51 76

25 51 76

25 51 76

25 51 76

25 51 76

25 51 76

25 51 76

25 51 76

25 51 76

25 51 76

25 51 76

25 51 76

25 51 76

25 51 76

25 51 76

25 51 76

25 51 76

25 51 76

25 51 76

25 51 76

25 51 76

25 51 76

25 51 76

25 51 76

25 51 76

25 51 76

25 51 76

25 51 76

25 51 76

25 51 76

25 51 76

25 51 76

25 51 76

25 51 76

25 51 76

25 51 76

25 51 76

25 51 76

25 51 76

25 51 76

25 51 76

25 51 76

25 51 76

25 51 76

25 51 76

25 51 76

25 51 76

25 51 76

25 51 76

25 51 76

25 51 76

25 51 76

25 51 76

25 51 76

25 51 76

25 51 76

25 51 76

25 51 76

25 51 76

25 51 76

25 51 76

25 51 76

25 51 76

25 51 76

25 51 76

25 51 76

25 51 76

25 51 76

25 51 76

25 51 76

25 51 76

25 51 76

25 51 76

25 51 76

25 51 76

25 51 76

25 51 76

25 51 76

25 51 76

25 51 76

25 51 76

25 51 76

25 51 76

25 51 76

25 51 76

25 51 76

25 51 76

25 51 76

25 51 76

25 51 76

25 51 76

25 51 76

25 51 76

25 51 76

25 51 76

25 51 76

25 51 76

25 51 76

25 51 76

25 51 76

25 51 76

25 51 76

25 51 76

25 51 76

25 51 76

25 51 76

25 51 76

25 51 76

25 51 76

25 51 76

25 51 76

25 51 76

25 51 76

25 51 76

25 51 76

25 51 76

25 51 76

25 51 76

25 51 76

25 51 76

25 51 76

25 51 76

25 51 76

25 51 76

25 51 76

25 51 76

25 51 76

25 51 76

25 51 76

25 51 76

25 51 76

25 51 76

25 51 76

25 51 76

25 51 76

25 51 76

25 51 76

25 51 76

25 51 76

25 51 76

25 51 76

25 51 76

25 51 76

25 51 76

25 51 76

25 51 76

25 51 76

25 51 76

25 51 76

25 51 76

25 51 76

25 51 76

25 51 76

25 51 76

25 51 76

25 51 76

25 51 76

25 51 76

25 51 76

25 51 76

25 51 76

25 51 76

25 51 76

25 51 76

25 51 76

25 51 76

25 51 76

25 51 76

25 51 76

25 51 76

25 51 76

25 51 76

25 51 76

25 51 76

25 51 76

25 51 76

25 51 76

25 51 76

25 51 76

25 51 76

25 51 76

25 51 76

25 51 76

25 51 76

25 51 76

25 51 76

25 51 76

25 51 76

25 51 76

25 51 76

25 51 76

25 51 76

25 51 76

25 51 76

25 51 76

25 51 76

25 51 76

25 51 76

25 51 76

25 51 76

25 51 76

25 51 76

25 51 76

25 51 76

25 51 76

25 51 76

25 51 76

25 51 76

25 51 76

25 51 76

25 51 76

25 51 76

25 51 76

25 51 76

25 51 76

25 51 76

25 51 76

25 51 76

25 51 76

25 51 76

25 51 76

25 51 76

25 51 76

25 51 76

25 51 76

25 51 76

25 51 76

25 51 76

25 51 76

25 51 76

25 51 76

25 51 76

25 51 76

25 51 76

25 51 76

25 51 76

25 51 76

25 51 76

25 51 76

25 51 76

25 51 76

25 51 76

25 51 76

25 51 76

25 51 76

25 51 76

25 51 76

25 51 76

25 51 76

25 51 76

25 51 76

25 51 76

25 51 76

25 51 76

25 51 76

25 51 76

25 51 76

25 51 76

25 51 76

25 51 76

25 51 76

25 51 76

25 51 76

25 51 76

25 51 76

25 51 76

25 51 76

25 51 76

25 51 76

25 51 76

25 51 76

25 51 76

25 51 76

25 51 76

25 51 76

25 51 76

25 51 76

25 51 76

25 51 76

25 51 76

25 51 76

25 51 76

25 51 76

25 51 76

25 51 76

25 51 76

25 51 76

25 51 76

25 51 76

25 51 76

25 51 76

25 51 76

25 51 76

25 51 76

25 51 76

25 51 76

25 51 76

25 51 76

25 51 76

25 51 76

25 51 76

25 51 76

25 51 76

25 51 76

25 51 76

25 51 76

25 51 76

25 51 76

25 51 76

25 51 76

25 51 76

25 51 76

25 51 76

25 51 76

25 51 76

25 51 76

25 51 76

25 51 76

25 51 76

25 51 76

25 51 76

25 51 76

25 51 76

25 51 76

25 51 76

25 51 76

25 51 76

25 51 76

25 51 76

25 51 76

25 51 76

25 51 76

25 51 76

25 51 76

25 51 76

25 51 76

25 51 76

25 51 76

25 51 76

25 51 76

25 51 76

25 51 76

25 51 76

25 51 76

25 51 76

25 51 76

25 51 76

25 51 76

25 51 76

25 51 76

25 51 76

25 51 76

25 51 76

25 51 76

25 51 76

25 51 76

25 51 76

25 51 76

25 51 76

25 51 76

25 51 76

25 51 76

25 51 76

25 51 76

25 51 76

25 51 76

25 51 76

25 51 76

25 51 76

25 51 76

25 51 76

25 51 76

25 51 76

25 51 76

25 51 76

25 51 76

25 51 76

25 51 76

25 51 76

25 51 76

25 51 76

25 51 76

25 51 76

25 51 76

25 51 76

25 51 76

25 51 76

25 51 76

25 51 76

25 51 76

25 51 76

25 51 76

25 51 76

25 51 76

25 51 76

25 51 76

25 51 76

25 51 76

25 51 76

25 51 76

25 51 76

25 51 76

25 51 76

25 51 76

25 51 76

25 51 76

25 51 76

25 51 76

25 51 76

25 51 76

25 51 76

25 51 76

25 51 76

25 51 76

25 51 76

25 51 76

25 51 76

25 51 76

25 51 76

25 51 76

25 51 76

25 51 76

25 51 76

25 51 76

25 51 76

25 51 76

25 51 76

25 51 76

25 51 76

25 51 76

25 51 76

25 51 76

25 51 76

25 51 76

25 51 76

25 51 76

25 51 76

25 51 76

25 51 76

25 51 76

25 51 76

25 51 76

25 51 76

25 51 76

25 51 76

25 51 76

25 51 76

25 51 76

25 51 76

25 51 76

25 51 76

25 51 76

25 51 76

25 51 76

25 51 76

25 51 76

25 51 76

25 51 76

25 51 76

25 51 76

25 51 76

25 51 76

25 51 76

25 51 76

25 51 76

25 51 76

25 51 76

25 51 76

25 51 76

25 51 76

25 51 76

25 51 76

25 51 76

25 51 76

25 51 76

25 51 76

25 51 76

25 51 76

25 51 76

25 51 76

25 51 76

25 51 76

25 51 76

25 51 76

25 51 76

25 51 76

25 51 76

25 51 76

25 51 76

25 51 76

25 51 76

25 51 76

25 51 76

25 51 76

25 51 76

25 51 76

25 51 76

25 51 76

25 51 76

25 51 76

25 51 76

25 51 76

25 51 76

25 51 76

25 51 76

25 51 76

25 51 76

25 51 76

25 51 76

25 51 76

25 51 76

25 51 76

25 51 76

25 51 76

25 51 76

25 51 76

25 51 76

25 51 76

25 51 76

25 51 76

25 51 76

25 51 76

25 51 76

25 51 76

25 51 76

25 51 76

25 51 76

25 51 76

25 51 76

25 51 76

25 51 76

25 51 76

25 51 76

25 51 76

25 51 76

25 51 76

25 51 76

25 51 76

25 51 76

25 51 76

25 51 76

25 51 76

25 51 76

25 51 76

25 51 76

25 51 76

25 51 76

25 51 76

25 51 76

25 51 76

25 51 76

25 51 76

25 51 76

25 51 76

25 51 76

25 51 76

25 51 76

25 51 76

25 51 76

25 51 76

25 51 76

25 51 76

25 51 76

25 51 76

25 51 76

25 51 76

25 51 76

25 51 76

25 51 76

25 51 76

25 51 76

25 51 76

25 51 76

25 51 76

25 51 76

25 51 76

25 51 76

25 51 76

25 51 76

25 51 76

25 51 76

25 51 76

25 51 76

25 51 76

25 51 76

25 51 76

25 51 76

25 51 76

25 51 76

25 51 76

25 51 76

25 51 76

25 51 76

25 51 76

25 51 76

25 51 76

25 51 76

25 51 76

25 51 76

25 51 76

25 51 76

25 51 76

25 51 76

25 51 76

25 51 76

25 51 76

25 51 76

25 51 76

25 51 76

25 51 76

25 51 76

25 51 76

25 51 76

25 51 76

25 51 76

25 51 76

25 51 76

25 51 76

25 51 76

25 51 76

25 51 76

25 51 76

25 51 76

25 51 76

25 51 76

25 51 76

25 51 76

25 51 76

25 51 76

25 51 76

25 51 76

25 51 76

25 51 76

25 51 76

25 51 76

25 51 76

25 51 76

25 51 76

25 51 76

25 51 76

25 51 76

25 51 76

25 51 76

25 51 76

25 51 76

25 51 76

25 51 76

25 51 76

25 51 76

25 51 76

25 51 76

25 51 76

25 51 76

25 51 76

25 51 76

25 51 76

25 51 76

25 51 76

25 51 76

25 51 76

25 51 76

25 51 76

25 51 76

25 51 76

25 51 76

25 51 76

25 51 76

25 51 76

25 51 76

25 51 76

25 51 76

25 51 76

25 51 76

25 51 76

25 51 76

25 51 76

25 51 76

25 51 76

25 51 76

25 51 76

25 51 76

25 51 76

25 51 76

25 51 76

25 51 76

25 51 76

25 51 76

25 51 76

25 51 76

25 51 76

25 51 76

25 51 76

25 51 76

25 51 76

25 51 76

25 51 76

25 51 76

25 51 76

25 51 76

25 51 76

25 51 76

25 51 76

25 51 76

25 51 76

25 51 76

25 51 76

25 51 76

25 51 76

25 51 76

25 51 76

25 51 76

25 51 76

25 51 76

25 51 76

25 51 76

25 51 76

25 51 76

25 51 76

25 51 76

25 51 76

25 51 76

25 51 76

25 51 76

25 51 76

25 51 76

25 51 76

25 51 76

25 51 76

25 51 76

25 51 76

25 51 76

25 51 76

25 51 76

25 51 76

25 51 76

25 51 76

25 51 76

25 51 76

25 51 76

25 51 76

25 51 76

25 51 76

25 51 76

25 51 76

25 51 76

25 51 76

25 51 76

25 51 76

25 51 76

25 51 76

25 51 76

25 51 76

25 51 76

25 51 76

25 51 76

25 51 76

25 51 76

25 51 76

25 51 76

25 51 76

25 51 76

25 51 76

25 51 76

25 51 76

25 51 76

25 51 76

25 51 76

25 51 76

25 51 76

25 51 76

25 51 76

25 51 76

25 51 76

25 51 76

25 51 76

25 51 76

25 51 76

25 51 76

25 51 76

25 51 76

25 51 76

25 51 76

25 51 76

25 51 76

25 51 76

25 51 76

25 51 76

25 51 76

25 51 76

25 51 76

25 51 76

25 51 76

25 51 76

25 51 76

25 51 76

25 51 76

25 51 76

25 51 76

25 51 76

25 51 76

25 51 76

25 51 76

25 51 76

25 51 76

25 51 76

25 51 76

25 51 76

25 51 76

25 51 76

25 51 76

25 51 76

25 51 76

25 51 76

25 51 76

25 51 76

25 51 76

25 51 76

25 51 76

25 51 76

25 51 76

25 51 76

25 51 76

25 51 76

25 51 76

25 51 76

25 51 76

25 51 76

25 51 76

25 51 76

25 51 76

25 51 76

25 51 76

25 51 76

25 51 76

25 51 76

25 51 76

25 51 76

25 51 76

25 51 76

25 51 76

25 51 76

25 51 76

25 51 76

25 51 76

25 51 76

25 51 76

25 51 76

25 51 76

25 51 76

25 51 76

25 51 76

25 51 76

25 51 76

25 51 76

25 51 76

25 51 76

25 51 76

25 51 76

25 51 76

25 51 76

25 51 76

25 51 76

25 51 76

25 51 76

25 51 76

25 51 76

25 51 76

25 51 76

25 51 76

25 51 76

25 51 76

25 51 76

25 51 76

25 51 76

25 51 76

25 51 76

25 51 76

25 51 76

25 51 76

25 51 76

25 51 76

25 51 76

25 51 76

25 51 76

25 51 76

25 51 76

25 51 76

25 51 76

25 51 76

25 51 76

25 51 76

25 51 76

25 51 76

25 51 76

25 51 76

25 51 76

25 51 76

25 51 76

25 51 76

25 51 76

25 51 76

25 51 76

25 51 76

25 51 76

25 51 76

25 51 76

25 51 76

25 51 76

25 51 76

25 51 76

25 51 76

25 51 76

25 51 76

25 51 76

25 51 76

25 51 76

25 51 76

25 51 76

25 51 76

25 51 76

25 51 76

25 51 76

25 51 76

25 51 76

25 51 76

25 51 76

25 51 76

25 51 76

25 51 76

25 51 76

25 51 76

25 51 76

25 51 76

25 51 76

25 51 76

25 51 76

25 51 76

25 51 76

25 51 76

25 51 76

25 51 76

25 51 76

25 51 76

25 51 76

25 51 76

25 51 76

25 51 76

25 51 76

25 51 76

25 51 76

25 51 76

25 51 76

25 51 76

25 51 76

25 51 76

25 51 76

25 51 76

25 51 76

25 51 76

25 51 76

25 51 76

25 51 76

25 51 76

25 51 76

25 51 76

25 51 76

25 51 76

25 51 76

25 51 76

25 51 76

25 51 76

25 51 76

25 51 76

25 51 76

25 51 76

25 51 76

25 51 76

25 51 76

25 51 76

25 51 76

25 51 76

25 51 76

25 51 76

25 51 76

25 51 76

25 51 76

25 51 76

25 51 76

25 51 76

25 51 76

25 51 76

25 51 76

25 51 76

25 51 76

25 51 76

25 51 76

25 51 76

25 51 76

25 51 76

25 51 76

25 51 76

25 51 76

25 51 76

25 51 76

25 51 76

25 51 76

25 51 76

25 51 76

25 51 76

25 51 76

25 51 76

25 51 76

25 51 76

25 51 76

25 51 76

25 51 76

25 51 76

25 51 76

25 51 76

25 51 76

25 51 76

25 51 76

25 51 76

25 51 76

25 51 76

25 51 76

25 51 76

25 51 76

25 51 76

25 51 76

25 51 76

25 51 76

25 51 76

25 51 76

25 51 76

25 51 76

25 51 76

25 51 76

25 51 76

25 51 76

25 51 76

25 51 76

25 51 76

25 51 76

25 51 76

25 51 76

25 51 76

25 51 76

25 51 76

25 51 76

25 51 76

25 51 76

25 51 76

25 51 76

25 51 76

25 51 76

25 51 76

25 51 76

25 51 76

25 51 76

25 51 76

25 51 76

25 51 76

25 51 76

25 51 76

25 51 76

25 51 76

25 51 76

25 51 76

25 51 76

25 51 76

25 51 76

25 51 76

25 51 76

25 51 76

25 51 76

25 51 76

25 51 76

25 51 76

25 51 76

25 51 76

25 51 76

25 51 76

25 51 76

25 51 76

25 51 76

25 51 76

25 51 76

25 51 76

25 51 76

25 51 76

25 51 76

25 51 76

25 51 76

25 51 76

25 51 76

25 51 76

25 51 76

25 51 76

25 51 76

25 51 76

25 51 76

25 51 76

25 51 76

25 51 76

25 51 76

25 51 76

25 51 76

25 51 76

25 51 76

25 51 76

25 51 76

25 51 76

25 51 76

25 51 76

25 51 76

25 51 76

25 51 76

25 51 76

25 51 76

25 51 76

25 51 76

25 51 76

25 51 76

25 51 76

25 51 76

25 51 76

25 51 76

25 51 76

25 51 76

25 51 76

25 51 76

25 51 76

25 51 76

25 51 76

25 51 76

25 51 76

25 51 76

25 51 76

25 51 76

25 51 76

25 51 76

25 51 76

25 51 76

25 51 76

25 51 76

25 51 76

25 51 76

25 51 76

25 51 76

25 51 76

25 51 76

25 51 76

25 51 76

25 51 76

25 51 76

25 51 76

25 51 76

25 51 76

25 51 76

25 51 76

25 51 76

25 51 76

25 51 76

25 51 76

25 51 76

25 51 76

25 51 76

25 51 76

25 51 76

25 51 76

25 51 76

25 51 76

25 51 76

25 51 76

25 51 76

25 51 76

25 51 76

25 51 76

25 51 76

25 51 76

25 51 76

25 51 76

25 51 76

25 51 76

25 51 76

25 51 76

25 51 76

25 51 76

25 51 76

25 51 76

25 51 76

25 51 76

25 51 76

25 51 76

25 51 76

25 51 76

25 51 76

25 51 76

25 51 76

25 51 76

25 51 76

25 51 76

25 51 76

25 51 76

25 51 76

25 51 76

25 51 76

25 51 76

25 51 76

25 51 76

25 51 76

25 51 76

25 51 76

25 51 76

25 51 76

25 51 76

25 51 76

25 51 76

25 51 76

25 51 76

25 51 76

25 51 76

25 51 76

25 51 76

25 51 76

25 51 76

25 51 76

25 51 76

25 51 76

25 51 76

25 51 76

25 51 76

25 51 76

25 51 76

25 51 76

25 51 76

25 51 76

25 51 76

25 51 76

25 51 76

25 51 76

25 51 76

25 51 76

25 51 76

25 51 76

25 51 76

25 51 76

25 51 76

25 51 76

25 51 76

25 51 76

25 51 76

25 51 76

25 51 76

25 51 76

25 51 76

25 51 76

25 51 76

25 51 76

25 51 76

25 51 76

25 51 76

25 51 76

25 51 76

25 51 76

25 51 76

25 51 76

25 51 76

25 51 76

25 51 76

25 51 76

25 51 76

25 51 76

25 51 76

25 51 76

25 51 76

25 51 76

25 51 76

25 51 76

25 51 76

25 51 76

25 51 76

25 51 76

25 51 76

25 51 76

25 51 76

25 51 76

25 51 76

25 51 76

25 51 76

25 51 76

25 51 76

25 51 76

25 51 76

25 51 76

25 51 76

25 51 76

25 51 76

25 51 76

25 51 76

25 51 76

25 51 76

25 51 76

25 51 76

25 51 76

25 51 76

25 51 76

25 51 76

25 51 76

25 51 76

25 51 76

25 51 76

25 51 76

25 51 76

25 51 76

25 51 76

25 51 76

25 51 76

25 51 76

25 51 76

25 51 76

25 51 76

25 51 76

25 51 76

25 51 76

25 51 76

25 51 76

25 51 76

25 51 76

25 51 76

25 51 76

25 51 76

25 51 76

25 51 76

25 51 76

25 51 76

25 51 76

25 51 76

25 51 76

25 51 76

25 51 76

25 51 76

25 51 76

25 51 76

25 51 76

25 51 76

25 51 76

25 51 76

25 51 76

25 51 76

25 51 76

25 51 76

25 51 76

25 51 76

25 51 76

25 51 76

25 51 76

25 51 76

25 51 76

25 51 76

25 51 76

25 51 76

25 51 76

25 51 76

25 51 76

25 51 76

25 51 76

25 51 76

25 51 76

25 51 76

25 51 76

25 51 76

25 51 76

25 51 76

25 51 76

25 51 76

25 51 76

25 51 76

25 51 76

25 51 76

25 51 76

25 51 76

25 51 76

25 51 76

25 51 76

25 51 76

25 51 76

25 51 76

25 51 76

25 51 76

25 51 76

25 51 76

25 51 76

25 51 76

25 51 76

25 51 76

25 51 76

25 51 76

25 51 76

25 51 76

25 51 76

25 51 76

25 51 76

25 51 76

25 51 76

25 51 76

25 51 76

25 51 76

25 51 76

25 51 76

25 51 76

25 51 76

25 51 76

25 51 76

25 51 76

25 51 76

25 51 76

25 51 76

25 51 76

25 51 76

25 51 76

25 51 76

25 51 76

25 51 76

25 51 76

25 51 76

25 51 76

25 51 76

25 51 76

25 51 76

25 51 76

25 51 76

25 51 76

25 51 76

25 51 76

25 51 76

25 51 76

25 51 76

25 51 76

25 51 76

25 51 76

25 51 76

25 51 76

25 51 76

25 51 76

25 51 76

25 51 76

25 51 76

25 51 76

25 51 76

25 51 76

25 51 76

25 51 76

25 51 76

25 51 76

25 51 76

25 51 76

25 51 76

25 51 76

25 51 76

25 51 76

25 51 76

25 51 76

25 51 76

25 51 76

25 51 76

25 51 76

25 51 76

25 51 76

25 51 76

25 51 76

25 51 76

25 51 76

25 51 76

25 51 76

25 51 76

25 51 76

25 51 76

25 51 76

25 51 76

25 51 76

25 51 76

25 51 76

25 51 76

25 51 76

25 51 76

25 51 76

25 51 76

25 51 76

25 51 76

25 51 76

25 51 76

25 51 76

25 51 76

25 51 76

25 51 76

25 51 76

25 51 76

25 51 76

25 51 76

25 51 76

25 51 76

25 51 76

25 51 76

25 51 76

25 51 76

25 51 76

25 51 76

25 51 76

25 51 76

25 51 76

25 51 76

25 51 76

25 51 76

25 51 76

25 51 76

25 51 76

25 51 76

25 51 76

25 51 76

25 51 76

25 51 76

25 51 76

25 51 76

25 51 76

25 51 76

25 51 76

25 51 76

25 51 76

25 51 76

25 51 76

25 51 76

25 51 76

25 51 76

25 51 76

25 51 76

25 51 76

25 51 76

25 51 76

25 51 76

25 51 76

25 51 76

25 51 76

25 51 76

25 51 76

25 51 76

25 51 76

25 51 76

25 51 76

25 51 76

25 51 76

25 51 76

25 51 76

25 51 76

25 51 76

25 51 76

25 51 76

25 51 76

25 51 76

25 51 76

25 51 76

25 51 76

25 51 76

25 51 76

25 51 76

25 51 76

25 51 76

25 51 76

25 51 76

25 51 76

25 51 76

25 51 76

25 51 76

25 51 76

25 51 76

25 51 76

25 51 76

25 51 76

25 51 76

25 51 76

25 51 76

25 51 76

25 51 76

25 51 76

25 51 76

25 51 76

25 51 76

25 51 76

25 51 76

25 51 76

25 51 76

25 51 76

25 51 76

25 51 76

25 51 76

25 51 76

25 51 76

25 51 76

25 51 76

25 51 76

25 51 76

25 51 76

25 51 76

25 51 76

25 51 76

25 51 76

25 51 76

25 51 76

25 51 76

25 51 76

25 51 76

25 51 76

25 51 76

25 51 76

25 51 76

25 51 76

25 51 76

25 51 76

25 51 76

25 51 76

25 51 76

25 51 76

25 51 76

25 51 76

25 51 76

25 51 76

25 51 76

25 51 76

25 51 76

25 51 76

25 51 76

25 51 76

25 51 76

25 51 76

25 51 76

25 51 76

25 51 76

25 51 76

25 51 76

25 51 76

25 51 76

25 51 76

25 51 76

25 51 76

25 51 76

25 51 76

25 51 76

25 51 76

25 51 76

25 51 76

25 51 76

25 51 76

25 51 76

25 51 76

25 51 76

25 51 76

25 51 76

25 51 76

25 51 76

25 51 76

25 51 76

25 51 76

25 51 76

25 51 76

25 51 76

25 51 76

25 51 76

25 51 76

25 51 76

25 51 76

25 51 76

25 51 76

25 51 76

25 51 76

25 51 76

25 51 76

25 51 76

25 51 76

25 51 76

25 51 76

25 51 76

25 51 76

25 51 76

25 51 76

25 51 76

25 51 76

25 51 76

25 51 76

25 51 76

25 51 76

25 51 76

25 51 76

25 51 76

25 51 76

25 51 76

25 51 76

25 51 76

25 51 76

25 51 76

25 51 76

25 51 76

25 51 76

25 51 76

25 51 76

25 51 76

25 51 76

25 51 76

25 51 76

25 51 76

25 51 76

25 51 76

25 51 76

25 51 76

25 51 76

25 51 76

25 51 76

25 51 76

25 51 76

25 51 76

25 51 76

25 51 76

25 51 76

25 51 76

25 51 76

25 51 76

25 51 76

25 51 76

25 51 76

25 51 76

25 51 76

25 51 76

25 51 76

25 51 76

25 51 76

25 51 76

25 51 76

25 51 76

25 51 76

25 51 76

25 51 76

25 51 76

25 51 76

25 51 76

25 51 76

25 51 76

25 51 76

25 51 76

25 51 76

25 51 76

25 51 76

25 51 76

25 51 76

25 51 76

25 51 76

25 51 76

25 51 76

25 51 76

25 51 76

25 51 76

25 51 76

25 51 76

25 51 76

25 51 76

25 51 76

25 51 76

25 51 76

25 51 76

25 51 76

25 51 76

25 51 76

25 51 76

25 51 76

25 51 76

25 51 76

25 51 76

25 51 76

25 51 76

25 51 76

25 51 76

25 51 76

25 51 76

25 51 76

25 51 76

25 51 76

25 51 76

25 51 76

25 51 76

25 51 76

25 51 76

25 51 76

25 51 76

25 51 76

25 51 76

25 51 76

25 51 76

25 51 76

25 51 76

25 51 76

25 51 76

25 51 76

25 51 76

25 51 76

25 51 76

25 51 76

25 51 76

25 51 76

25 51 76

25 51 76

25 51 76

25 51 76

25 51 76

25 51 76

25 51 76

25 51 76

25 51 76

25 51 76

25 51 76

25 51 76

25 51 76

25 51 76

25 51 76

25 51 76

25 51 76

25 51 76

25 51 76

25 51 76

25 51 76

25 51 76

25 51 76

25 51 76

25 51 76

25 51 76

25 51 76

25 51 76

25 51 76

25 51 76

25 51 76

25 51 76

25 51 76

25 51 76

25 51 76

25 51 76

25 51 76

25 51 76

25 51 76

25 51 76

25 51 76

25 51 76

25 51 76

25 51 76

25 51 76

25 51 76

25 51 76

25 51 76

25 51 76

25 51 76

25 51 76

25 51 76

25 51 76

25 51 76

25 51 76

25 51 76

25 51 76

25 51 76

25 51 76

25 51 76

25 51 76

25 51 76

25 51 76

25 51 76

25 51 76

25 51 76

25 51 76

25 51 76

25 51 76

25 51 76

25 51 76

25 51 76

25 51 76

25 51 76

25 51 76

25 51 76

25 51 76

25 51 76

25 51 76

25 51 76

25 51 76

25 51 76

25 51 76

25 51 76

25 51 76

25 51 76

25 51 76

25 51 76

25 51 76

25 51 76

25 51 76

25 51 76

25 51 76

25 51 76

25 51 76

25 51 76

25 51 76

25 51 76

25 51 76

25 51 76

25 51 76

25 51 76

25 51 76

25 51 76

25 51 76

25 51 76

25 51 76

25 51 76

25 51 76

25 51 76

25 51 76

25 51 76

25 51 76

25 51 76

25 51 76

25 51 76

25 51 76

25 51 76

25 51 76

25 51 76

25 51 76

25 51 76

25 51 76

25 51 76

25 51 76

25 51 76

25 51 76

25 51 76

25 51 76

25 51 76

25 51 76

25 51 76

25 51 76

25 51 76

25 51 76

25 51 76

25 51 76

25 51 76

25 51 76

25 51 76

25 51 76

25 51 76

25 51 76

25 51 76

25 51 76

25 51 76

25 51 76

25 51 76

25 51 76

25 51 76

25 51 76

25 51 76

25 51 76

25 51 76

25 51 76

25 51 76

25 51 76

25 51 76

25 51 76

25 51 76

25 51 76

25 51 76

25 51 76

25 51 76

25 51 76

25 51 76

25 51 76

25 51 76

25 51 76

25 51 76

25 51 76

25 51 76

25 51 76

25 51 76

25 51 76

25 51 76

25 51 76

25 51 76

25 51 76

25 51 76

25 51 76

25 51 76

25 51 76

25 51 76

25 51 76

25 51 76

25 51 76

25 51 76

25 51 76

25 51 76

25 51 76

25 51 76

25 51 76

25 51 76

25 51 76

25 51 76

25 51 76

25 51 76

25 51 76

25 51 76

25 51 76

25 51 76

25 51 76

25 51 76

25 51 76

25 51 76

25 51 76

25 51 76

25 51 76

25 51 76

25 51 76

25 51 76

25 51 76

25 51 76

25 51 76

25 51 76

25 51 76

25 51 76

25 51 76

25 51 76

25 51 76

25 51 76

25 51 76

25 51 76

25 51 76

25 51 76

25 51 76

25 51 76

25 51 76

25 51 76

25 51 76

25 51 76

25 51 76

25 51 76

25 51 76

25 51 76

25 51 76

25 51 76

25 51 76

25 51 76

25 51 76

25 51 76

25 51 76

25 51 76

25 51 76

25 51 76

25 51 76

25 51 76

25 51 76

25 51 76

25 51 76

25 51 76

25 51 76

25 51 76

25 51 76

25 51 76

25 51 76

25 51 76

25 51 76

25 51 76

25 51 76

25 51 76

25 51 76

25 51 76

25 51 76

25 51 76

25 51 76

25 51 76

25 51 76

25 51 76

25 51 76

25 51 76

25 51 76

25 51 76

25 51 76

25 51 76

25 51 76

25 51 76

25 51 76

25 51 76

25 51 76

25 51 76

25 51 76

25 51 76

25 51 76

25 51 76

25 51 76

25 51 76

25 51 76

25 51 76

25 51 76

25 51 76

25 51 76

25 51 76

25 51 76

25 51 76

25 51 76

25 51 76

25 51 76

25 51 76

25 51 76

25 51 76

25 51 76

25 51 76

25 51 76

25 51 76

25 51 76

25 51 76

25 51 76

25 51 76

25 51 76

25 51 76

25 51 76

25 51 76

25 51 76

25 51 76

25 51 76

25 51 76

25 51 76

25 51 76

25 51 76

25 51 76

25 51 76

25 51 76

25 51 76

25 51 76

25 51 76

25 51 76

25 51 76

25 51 76

25 51 76

25 51 76

25 51 76

25 51 76

25 51 76

25 51 76

25 51 76

25 51 76

25 51 76

25 51 76

25 51 76

25 51 76

25 51 76

25 51 76

25 51 76

25 51 76

25 51 76

25 51 76

25 51 76

25 51 76

25 51 76

25 51 76

25 51 76

25 51 76

25 51 76

25 51 76

25 51 76

25 51 76

25 51 76

25 51 76

25 51 76

25 51 76

25 51 76

25 51 76

25 51 76

25 51 76

25 51 76

25 51 76

25 51 76

25 51 76

25 51 76

25 51 76

25 51 76

25 51 76

25 51 76

25 51 76

25 51 76

25 51 76

25 51 76

25 51 76

25 51 76

25 51 76

25 51 76

25 51 76

25 51 76

25 51 76

25 51 76

25 51 76

25 51 76

25 51 76

25 51 76

25 51 76

25 51 76

25 51 76

25 51 76

25 51 76

25 51 76

25 51 76

25 51 76

25 51 76

25 51 76

25 51 76

25 51 76

25 51 76

25 51 76

25 51 76

25 51 76

25 51 76

25 51 76

25 51 76

25 51 76

25 51 76

25 51 76

25 51 76

25 51 76

25 51 76

25 51 76

25 51 76

25 51 76

25 51 76

25 51 76

25 51 76

25 51 76

25 51 76

25 51 76

25 51 76

25 51 76

25 51 76

25 51 76

25 51 76

25 51 76

25 51 76

25 51 76

25 51 76

25 51 76

25 51 76

25 51 76

25 51 76

25 51 76

25 51 76

25 51 76

25 51 76

25 51 76

25 51 76

25 51 76

25 51 76

25 51 76

25 51 76

25 51 76

25 51 76

25 51 76

25 51 76

25 51 76

25 51 76

25 51 76

25 51 76

25 51 76

25 51 76

25 51 76

25 51 76

25 51 76

25 51 76

25 51 76

25 51 76

25 51 76

25 51 76

25 51 76

25 51 76

25 51 76

25 51 76

25 51 76

25 51 76

25 51 76

25 51 76

25 51 76

25 51 76

25 51 76

25 51 76

25 51 76

25 51 76

25 51 76

25 51 76

25 51 76

25 51 76

25 51 76

25 51 76

25 51 76

25 51 76

25 51 76

25 51 76

25 51 76

25 51 76

25 51 76

25 51 76

25 51 76

25 51 76

25 51 76

25 51 76

25 51 76

25 51 76

25 51 76

25 51 76

25 51 76

25 51 76

25 51 76

25 51 76

25 51 76

25 51 76

25 51 76

25 51 76

25 51 76

25 51 76

25 51 76

25 51 76

25 51 76

25 51 76

25 51 76

25 51 76

25 51 76

25 51 76

25 51 76

25 51 76

25 51 76

25 51 76

25 51 76

25 51 76

25 51 76

25 51 76

25 51 76

25 51 76

25 51 76

25 51 76

25 51 76

25 51 76

25 51 76

25 51 76

25 51 76

25 51 76

25 51 76

25 51 76

25 51 76

25 51 76

25 51 76

25 51 76

25 51 76

25 51 76

25 51 76

25 51 76

25 51 76

25 51 76

25 51 76

25 51 76

25 51 76

25 51 76

25 51 76

25 51 76

25 51 76

25 51 76

25 51 76

25 51 76

25 51 76

25 51 76

25 51 76

25 51 76

25 51 76

25 51 76

25 51 76

25 51 76

25 51 76

25 51 76

25 51 76

25 51 76

25 51 76

25 51 76

25 51 76

25 51 76

25 51 76

25 51 76

25 51 76

25 51 76

25 51 76

25 51 76

25 51 76

25 51 76

25 51 76

25 51 76

25 51 76

25 51 76

25 51 76

25 51 76

25 51 76

25 51 76

25 51 76

25 51 76

25 51 76

25 51 76

25 51 76

25 51 76

25 51 76

25 51 76

25 51 76

25 51 76

25 51 76

25 51 76

25 51 76

25 51 76

25 51 76

25 51 76

25 51 76

25 51 76

25 51 76

25 51 76

25 51 76

25 51 76

25 51 76

25 51 76

25 51 76

25 51 76

25 51 76

25 51 76

25 51 76

25 51 76

25 51 76

25 51 76

25 51 76

25 51 76

25 51 76

25 51 76

25 51 76

25 51 76

25 51 76

25 51 76

25 51 76

25 51 76

25 51 76

25 51 76

25 51 76

25 51 76

25 51 76

25 51 76

25 51 76

25 51 76

25 51 76

25 51 76

25 51 76

25 51 76

25 51 76

25 51 76

25 51 76

25 51 76

25 51 76

25 51 76

25 51 76

25 51 76

25 51 76

25 51 76

25 51 76

25 51 76

25 51 76

25 51 76

25 51 76

25 51 76

25 51 76

25 51 76

25 51 76

25 51 76

25 51 76

25 51 76

25 51 76

25 51 76

25 51 76

25 51 76

25 51 76

25 51 76

25 51 76

25 51 76

25 51 76

25 51 76

25 51 76

25 51 76

25 51 76

25 51 76

25 51 76

25 51 76

25 51 76

25 51 76

25 51 76

25 51 76

25 51 76

25 51 76

25 51 76

25 51 76

25 51 76

25 51 76

25 51 76

25 51 76

25 51 76

25 51 76

25 51 76

25 51 76

25 51 76

25 51 76

25 51 76

25 51 76

25 51 76

25 51 76

25 51 76

25 51 76

25 51 76

25 51 76

25 51 76

25 51 76

25 51 76

25 51 76

25 51 76

25 51 76

25 51 76

25 51 76

25 51 76

25 51 76

25 51 76

25 51 76

25 51 76

25 51 76

25 51 76

25 51 76

25 51 76

25 51 76

25 51 76

25 51 76

25 51 76

25 51 76

25 51 76

25 51 76

25 51 76

25 51 76

25 51 76

25 51 76

25 51 76

25 51 76

25 51 76

25 51 76

25 51 76

25 51 76

25 51 76

25 51 76

25 51 76

25 51 76

25 51 76

25 51 76

25 51 76

25 51 76

25 51 76

25 51 76

25 51 76

25 51 76

25 51 76

25 51 76

25 51 76

25 51 76

25 51 76

25 51 76

25 51 76

25 51 76

25 51 76

25 51 76

25 51 76

25 51 76

25 51 76

25 51 76

25 51 76

25 51 76

25 51 76

25 51 76

25 51 76

25 51 76

25 51 76

25 51 76

25 51 76

25 51 76

25 51 76

25 51 76

25 51 76

25 51 76

25 51 76

25 51 76

25 51 76

25 51 76

25 51 76

25 51 76

25 51 76

25 51 76

25 51 76

25 51 76

25 51 76

25 51 76

25 51 76

25 51 76

25 51 76

25 51 76

25 51 76

25 51 76

25 51 76

25 51 76

25 51 76

25 51 76

25 51 76

25 51 76

25 51 76

25 51 76

25 51 76

25 51 76

25 51 76

25 51 76

25 51 76

25 51 76

25 51 76

25 51 76

25 51 76

25 51 76

25 51 76

25 51 76

25 51 76

25 51 76

25 51 76

25 51 76

25 51 76

25 51 76

25 51 76

25 51 76

25 51 76

25 51 76

25 51 76

25 51 76

25 51 76

25 51 76

25 51 76

25 51 76

25 51 76

25 51 76

25 51 76

25 51 76

25 51 76

25 51 76

25 51 76

25 51 76

25 51 76

25 51 76

25 51 76

25 51 76

25 51 76

25 51 76

25 51 76

25 51 76

25 51 76

25 51 76

25 51 76

25 51 76

25 51 76

25 51 76

25 51 76

25 51 76

25 51 76

25 51 76

25 51 76

25 51 76

25 51 76

25 51 76

25 51 76

25 51 76

25 51 76

25 51 76

25 51 76

25 51 76

25 51 76

25 51 76

25 51 76

25 51 76

25 51 76

25 51 76

25 51 76

25 51 76

25 51 76

25 51 76

25 51 76

25 51 76

25 51 76

25 51 76

25 51 76

25 51 76

25 51 76

25 51 76

25 51 76

25 51 76

25 51 76

25 51 76

25 51 76

25 51 76

25 51 76

25 51 76

25 51 76

25 51 76

25 51 76

25 51 76

25 51 76

25 51 76

25 51 76

25 51 76

25 51 76

25 51 76

25 51 76

25 51 76

25 51 76

25 51 76

25 51 76

25 51 76

25 51 76

25 51 76

25 51 76

25 51 76

25 51 76

25 51 76

25 51 76

25 51 76

25 51 76

25 51 76

25 51 76

25 51 76

25 51 76

25 51 76

25 51 76

25 51 76

25 51 76

25 51 76

25 51 76

25 51 76

25 51 76

25 51 76

25 51 76

25 51 76

25 51 76

25 51 76

25 51 76

25 51 76

25 51 76

25 51 76

25 51 76

25 51 76

25 51 76

25 51 76

25 51 76

25 51 76

25 51 76

25 51 76

25 51 76

25 51 76

25 51 76

25 51 76

25 51 76

25 51 76

25 51 76

25 51 76

25 51 76

25 51 76

25 51 76

25 51 76

25 51 76

25 51 76

25 51 76

25 51 76

25 51 76

25 51 76

25 51 76

25 51 76

25 51 76

25 51 76

25 51 76

25 51 76

25 51 76

25 51 76

25 51 76

25 51 76

25 51 76

25 51 76

25 51 76

25 51 76

25 51 76

25 51 76

25 51 76

25 51 76

25 51 76

25 51 76

25 51 76

25 51 76

25 51 76

25 51 76

25 51 76

25 51 76

25 51 76

25 51 76

25 51 76

25 51 76

25 51 76

25 51 76

25 51 76

25 51 76

25 51 76

25 51 76

25 51 76

25 51 76

25 51 76

25 51 76

25 51 76

25 51 76

25 51 76

25 51 76

25 51 76

25 51 76

25 51 76

25 51 76

25 51 76

25 51 76

25 51 76

25 51 76

25 51 76

25 51 76

25 51 76

25 51 76

25 51 76

25 51 76

25 51 76

25 51 76

25 51 76

25 51 76

25 51 76

25 51 76

25 51 76

25 51 76

25 51 76

25 51 76

25 51 76

25 51 76

25 51 76

25 51 76

25 51 76

25 51 76

25 51 76

25 51 76

25 51 76

25 51 76

25 51 76

25 51 76

25 51 76

25 51 76

25 51 76

25 51 76

25 51 76

25 51 76

25 51 76

25 51 76

25 51 76

25 51 76

25 51 76

25 51 76

25 51 76

25 51 76

25 51 76

25 51 76

25 51 76

25 51 76

25 51 76

25 51 76

25 51 76

25 51 76

25 51 76

25 51 76

25 51 76

25 51 76

25 51 76

25 51 76

25 51 76

25 51 76

25 51 76

25 51 76

25 51 76

25 51 76

25 51 76

25 51 76

25 51 76

25 51 76

25 51 76

25 51 76

25 51 76

25 51 76

25 51 76

25 51 76

25 51 76

25 51 76

25 51 76

25 51 76

25 51 76

25 51 76

25 51 76

25 51 76

25 51 76

25 51 76

25 51 76

25 51 76

25 51 76

25 51 76

25 51 76

25 51 76

25 51 76

25 51 76

25 51 76

25 51 76

25 51 76

25 51 76

25 51 76

25 51 76

25 51 76

25 51 76

25 51 76

25 51 76

25 51 76

25 51 76

25 51 76

25 51 76

25 51 76

25 51 76

25 51 76

25 51 76

25 51 76

25 51 76

25 51 76

25 51 76

25 51 76

25 51 76

25 51 76

25 51 76

25 51 76

25 51 76

25 51 76

25 51 76

25 51 76

25 51 76

25 51 76

25 51 76

25 51 76

25 51 76

25 51 76

25 51 76

25 51 76

25 51 76

25 51 76

25 51 76

25 51 76

25 51 76

25 51 76

25 51 76

25 51 76

25 51 76

25 51 76

25 51 76

25 51 76

25 51 76

25 51 76

25 51 76

25 51 76

25 51 76

25 51 76

25 51 76

25 51 76

25 51 76

25 51 76

25 51 76

25 51 76

25 51 76

25 51 76

25 51 76

25 51 76

25 51 76

25 51 76

25 51 76

25 51 76

25 51 76

25 51 76

25 51 76

25 51 76

25 51 76

25 51 76

25 51 76

25 51 76

25 51 76

25 51 76

25 51 76

25 51 76

25 51 76

25 51 76

25 51 76

25 51 76

25 51 76

25 51 76

25 51 76

25 51 76

25 51 76

25 51 76

25 51 76

25 51 76

25 51 76

25 51 76

25 51 76

25 51 76

25 51 76

25 51 76

25 51 76

25 51 76

25 51 76

25 51 76

25 51 76

25 51 76

25 51 76

25 51 76

25 51 76

25 51 76

25 51 76

25 51 76

25 51 76

25 51 76

25 51 76

25 51 76

25 51 76

25 51 76

25 51 76

25 51 76

25 51 76

25 51 76

25 51 76

25 51 76

25 51 76

25 51 76

25 51 76

25 51 76

25 51 76

25 51 76

25 51 76

25 51 76

25 51 76

25 51 76

25 51 76

25 51 76

25 51 76

25 51 76

25 51 76

25 51 76

25 51 76

25 51 76

25 51 76

25 51 76

25 51 76

25 51 76

25 51 76

25 51 76

25 51 76

25 51 76

25 51 76

25 51 76

25 51 76

25 51 76

25 51 76

25 51 76

25 51 76

25 51 76

25 51 76

25 51 76

25 51 76

25 51 76

25 51 76

25 51 76

25 51 76

25 51 76

25 51 76

25 51 76

25 51 76

25 51 76

25 51 76

25 51 76

25 51 76

25 51 76

25 51 76

25 51 76

25 51 76

25 51 76

25 51 76

25 51 76

25 51 76

25 51 76

25 51 76

25 51 76

25 51 76

25 51 76

25 51 76

25 51 76

25 51 76

25 51 76

25 51 76

25 51 76

25 51 76

25 51 76

25 51 76

25 51 76

25 51 76

25 51 76

25 51 76

25 51 76

25 51 76

25 51 76

25 51 76

25 51 76

25 51 76

25 51 76

25 51 76

25 51 76

25 51 76

25 51 76

25 51 76

25 51 76

25 51 76

25 51 76

25 51 76

25 51 76

25 51 76

25 51 76

25 51 76

25 51 76

25 51 76

25 51 76

25 51 76

25 51 76

25 51 76

25 51 76

25 51 76

25 51 76

25 51 76

25 51 76

25 51 76

25 51 76

25 51 76

25 51 76

25 51 76

25 51 76

25 51 76

25 51 76

25 51 76

25 51 76

25 51 76

25 51 76

25 51 76

25 51 76

25 51 76

25 51 76

25 51 76

25 51 76

25 51 76

25 51 76

25 51 76

25 51 76

25 51 76

25 51 76

25 51 76

25 51 76

25 51 76

25 51 76

25 51 76

25 51 76

25 51 76

25 51 76

25 51 76

25 51 76

25 51 76

25 51 76

25 51 76

25 51 76

25 51 76

25 51 76

25 51 76

25 51 76

25 51 76

25 51 76

25 51 76

25 51 76

25 51 76

25 51 76

25 51 76

25 51 76

25 51 76

25 51 76

25 51 76

25 51 76

25 51 76

25 51 76

25 51 76

25 51 76

25 51 76

25 51 76

25 51 76

25 51 76

25 51 76

25 51 76

25 51 76

25 51 76

25 51 76

25 51 76

25 51 76

25 51 76

25 51 76

25 51 76

25 51 76

25 51 76

25 51 76

25 51 76

25 51 76

25 51 76

25 51 76

25 51 76

25 51 76

25 51 76

25 51 76

25 51 76

25 51 76

25 51 76

25 51 76

25 51 76

25 51 76

25 51 76

25 51 76

25 51 76

25 51 76

25 51 76

25 51 76

25 51 76

25 51 76

25 51 76

25 51 76

25 51 76

25 51 76

25 51 76

25 51 76

25 51 76

25 51 76

25 51 76

25 51 76

25 51 76

25 51 76

25 51 76

25 51 76

25 51 76

25 51 76

25 51 76

25 51 76

25 51 76

25 51 76

25 51 76

25 51 76

25 51 76

25 51 76

25 51 76

25 51 76

25 51 76

25 51 76

25 51 76

25 51 76

25 51 76

25 51 76

25 51 76

25 51 76

25 51 76

25 51 76

25 51 76

25 51 76

25 51 76

25 51 76

25 51 76

25 51 76

25 51 76

25 51 76

25 51 76

25 51 76

25 51 76

25 51 76

25 51 76

25 51 76

25 51 76

25 51 76

25 51 76

25 51 76

25 51 76

25 51 76

25 51 76

25 51 76

25 51 76

25 51 76

25 51 76

25 51 76

25 51 76

25 51 76

25 51 76

25 51 76

25 51 76

25 51 76

25 51 76

25 51 76

25 51 76

25 51 76

25 51 76

25 51 76

25 51 76

25 51 76

25 51 76

25 51 76

25 51 76

25 51 76

25 51 76

25 51 76

25 51 76

25 51 76

25 51 76

25 51 76

25 51 76

25 51 76

25 51 76

25 51 76

25 51 76

25 51 76

25 51 76

25 51 76

25 51 76

25 51 76

25 51 76

25 51 76

25 51 76

25 51 76

25 51 76

25 51 76

25 51 76

25 51 76

25 51 76

25 51 76

25 51 76

25 51 76

25 51 76

25 51 76

25 51 76

25 51 76

25 51 76

25 51 76

25 51 76

25 51 76

25 51 76

25 51 76

25 51 76

25 51 76

25 51 76

25 51 76

25 51 76

25 51 76

25 51 76

25 51 76

25 51 76

25 51 76

25 51 76

25 51 76

25 51 76

25 51 76

25 51 76

25 51 76

25 51 76

25 51 76

25 51 76

25 51 76

25 51 76

25 51 76

25 51 76

25 51 76

25 51 76

25 51 76

25 51 76

25 51 76

25 51 76

25 51 76

25 51 76

25 51 76

25 51 76

25 51 76

25 51 76

25 51 76

25 51 76

25 51 76

25 51 76

25 51 76

25 51 76

25 51 76

25 51 76

25 51 76

25 51 76

25 51 76

25 51 76

25 51 76

25 51 76

25 51 76

25 51 76

25 51 76

25 51 76

25 51 76

25 51 76

25 51 76

25 51 76

25 51 76

25 51 76

25 51 76

25 51 76

25 51 76

25 51 76

25 51 76

25 51 76

25 51 76

25 51 76

25 51 76

25 51 76

25 51 76

25 51 76

25 51 76

25 51 76

25 51 76

25 51 76

25 51 76

25 51 76

25 51 76

25 51 76

25 51 76

25 51 76

25 51 76

25 51 76

25 51 76

25 51 76

25 51 76

25 51 76

25 51 76

25 51 76

25 51 76

25 51 76

25 51 76

25 51 76

25 51 76

25 51 76

25 51 76

25 51 76

25 51 76

25 51 76

25 51 76

25 51 76

25 51 76

25 51 76

25 51 76

25 51 76

25 51 76

25 51 76

25 51 76

25 51 76

25 51 76

25 51 76

25 51 76

25 51 76

25 51 76

25 51 76

25 51 76

25 51 76

25 51 76

25 51 76

25 51 76

25 51 76

25 51 76

25 51 76

25 51 76

25 51 76

25 51 76

25 51 76

25 51 76

25 51 76

25 51 76

25 51 76

25 51 76

25 51 76

25 51 76

25 51 76

25 51 76

25 51 76

25 51 76

25 51 76

25 51 76

25 51 76

25 51 76

25 51 76

25 51 76

25 51 76

25 51 76

25 51 76

25 51 76

25 51 76

25 51 76

25 51 76

25 51 76

25 51 76

25 51 76

25 51 76

25 51 76

25 51 76

25 51 76

25 51 76

25 51 76

25 51 76

25 51 76

25 51 76

25 51 76

25 51 76

25 51 76

25 51 76

25 51 76

25 51 76

25 51 76

25 51 76

25 51 76

25 51 76

25 51 76

25 51 76

25 51 76

25 51 76

25 51 76

25 51 76

25 51 76

25 51 76

25 51 76

25 51 76

25 51 76

25 51 76

25 51 76

25 51 76

25 51 76

25 51 76

25 51 76

25 51 76

25 51 76

25 51 76

25 51 76

25 51 76

25 51 76

25 51 76

25 51 76

25 51 76

25 51 76

25 51 76

25 51 76

25 51 76

25 51 76

25 51 76

25 51 76

25 51 76

25 51 76

25 51 76

25 51 76

25 51 76

25 51 76

25 51 76

25 51 76

25 51 76

25 51 76

25 51 76

25 51 76

25 51 76

25 51 76

25 51 76

25 51 76

25 51 76

25 51 76

25 51 76

25 51 76

25 51 76

25 51 76

25 51 76

25 51 76

25 51 76

25 51 76

25 51 76

25 51 76

25 51 76

25 51 76

25 51 76

25 51 76

25 51 76

25 51 76

25 51 76

25 51 76

25 51 76

25 51 76

25 51 76

25 51 76

25 51 76

25 51 76

25 51 76

25 51 76

25 51 76

25 51 76

25 51 76

25 51 76

25 51 76

25 51 76

25 51 76

25 51 76

25 51 76

25 51 76

25 51 76

25 51 76

25 51 76

25 51 76

25 51 76

25 51 76

25 51 76

25 51 76

25 51 76

25 51 76

25 51 76

25 51 76

25 51 76

25 51 76

25 51 76

25 51 76

25 51 76

25 51 76

25 51 76

25 51 76

25 51 76

25 51 76

25 51 76

25 51 76

25 51 76

25 51 76

25 51 76

25 51 76

25 51 76

25 51 76

25 51 76

25 51 76

25 51 76

25 51 76

25 51 76

25 51 76

25 51 76

25 51 76

25 51 76

25 51 76

25 51 76

25 51 76

25 51 76

25 51 76

25 51 76

25 51 76

25 51 76

25 51 76

25 51 76

25 51 76

25 51 76

25 51 76

25 51 76

25 51 76

25 51 76

25 51 76

25 51 76

25 51 76

25 51 76

25 51 76

25 51 76

25 51 76

25 51 76

25 51 76

25 51 76

25 51 76

25 51 76

25 51 76

25 51 76

25 51 76

25 51 76

25 51 76

25 51 76

25 51 76

25 51 76

25 51 76

25 51 76

25 51 76

25 51 76

25 51 76

25 51 76

25 51 76

25 51 76

25 51 76

25 51 76

25 51 76

25 51 76

25 51 76

25 51 76

25 51 76

25 51 76

25 51 76

25 51 76

25 51 76

25 51 76

25 51 76

25 51 76

25 51 76

25 51 76

25 51 76

25 51 76

25 51 76

25 51 76

25 51 76

25 51 76

25 51 76

25 51 76

25 51 76

25 51 76

25 51 76

25 51 76

25 51 76

25 51 76

25 51 76

25 51 76

25 51 76

25 51 76

25 51 76

25 51 76

25 51 76

25 51 76

25 51 76

25 51 76

25 51 76

25 51 76

25 51 76

25 51 76

25 51 76

25 51 76

25 51 76

25 51 76

25 51 76

25 51 76

25 51 76

25 51 76

25 51 76

25 51 76

25 51 76

25 51 76

25 51 76

25 51 76

25 51 76

25 51 76

25 51 76

25 51 76

25 51 76

25 51 76

25 51 76

25 51 76

25 51 76

25 51 76

25 51 76

25 51 76

25 51 76

25 51 76

25 51 76

25 51 76

25 51 76

25 51 76

25 51 76

25 51 76

25 51 76

25 51 76

25 51 76

25 51 76

25 51 76

25 51 76

25 51 76

25 51 76

25 51 76

25 51 76

25 51 76

25 51 76

25 51 76

25 51 76

25 51 76

25 51 76

25 51 76

25 51 76

25 51 76

25 51 76

25 51 76

25 51 76

25 51 76

25 51 76

25 51 76

25 51 76

25 51 76

25 51 76

25 51 76

25 51 76

25 51 76

25 51 76

25 51 76

25 51 76

25 51 76

25 51 76

25 51 76

25 51 76

25 51 76

25 51 76

25 51 76

25 51 76

25 51 76

25 51 76

25 51 76

25 51 76

25 51 76

25 51 76

25 51 76

25 51 76

25 51 76

25 51 76

25 51 76

25 51 76

25 51 76

25 51 76

25 51 76

25 51 76

25 51 76

25 51 76

25 51 76

25 51 76

25 51 76

25 51 76

25 51 76

25 51 76

25 51 76

25 51 76

25 51 76

25 51 76

25 51 76

25 51 76

25 51 76

25 51 76

25 51 76

25 51 76

25 51 76

25 51 76

25 51 76

25 51 76

25 51 76

25 51 76

25 51 76

25 51 76

25 51 76

25 51 76

25 51 76

25 51 76

25 51 76

25 51 76

25 51 76

25 51 76

25 51 76

25 51 76

25 51 76

25 51 76

25 51 76

25 51 76

25 51 76

25 51 76

25 51 76

25 51 76

25 51 76

25 51 76

25 51 76

25 51 76

25 51 76

25 51 76

25 51 76

25 51 76

25 51 76

25 51 76

25 51 76

25 51 76

25 51 76

25 51 76

25 51 76

25 51 76

25 51 76

25 51 76

25 51 76

25 51 76

25 51 76

25 51 76

25 51 76

25 51 76

25 51 76

25 51 76

25 51 76

25 51 76

25 51 76

25 51 76

25 51 76

25 51 76

25 51 76

25 51 76

25 51 76

25 51 76

25 51 76

25 51 76

25 51 76

25 51 76

25 51 76

25 51 76

25 51 76

25 51 76

25 51 76

25 51 76

25 51 76

25 51 76

25 51 76

25 51 76

25 51 76

25 51 76

25 51 76

25 51 76

25 51 76

25 51 76

25 51 76

25 51 76

25 51 76

25 51 76

25 51 76

25 51 76

25 51 76

25 51 76

25 51 76

25 51 76

25 51 76

25 51 76

25 51 76

25 51 76

25 51 76

25 51 76

25 51 76

25 51 76

25 51 76

25 51 76

25 51 76

25 51 76

25 51 76

25 51 76

25 51 76

25 51 76

25 51 76

25 51 76

25 51 76

25 51 76

25 51 76

25 51 76

25 51 76

25 51 76

25 51 76

25 51 76

25 51 76

25 51 76

25 51 76

25 51 76

25 51 76

25 51 76

25 51 76

25 51 76

25 51 76

25 51 76

25 51 76

25 51 76

25 51 76

25 51 76

25 51 76

25 51 76

25 51 76

25 51 76

25 51 76

25 51 76

25 51 76

25 51 76

25 51 76

25 51 76

25 51 76

25 51 76

25 51 76

25 51 76

25 51 76

25 51 76

25 51 76

25 51 76

25 51 76

25 51 76

25 51 76

25 51 76

25 51 76

25 51 76

25 51 76

25 51 76

25 51 76

25 51 76

25 51 76

25 51 76

25 51 76

25 51 76

25 51 76

25 51 76

25 51 76

25 51 76

25 51 76

25 51 76

25 51 76

25 51 76

25 51 76

25 51 76

25 51 76

25 51 76

25 51 76

25 51 76

25 51 76

25 51 76

25 51 76

25 51 76

25 51 76

25 51 76

25 51 76

25 51 76

25 51 76

25 51 76

25 51 76

25 51 76

25 51 76

25 51 76

25 51 76

25 51 76

25 51 76

25 51 76

25 51 76

25 51 76

25 51 76

25 51 76

25 51 76

25 51 76

25 51 76

25 51 76

25 51 76

25 51 76

25 51 76

25 51 76

25 51 76

25 51 76

25 51 76

25 51 76

25 51 76

25 51 76

25 51 76

25 51 76

25 51 76

25 51 76

25 51 76

25 51 76

25 51 76

25 51 76

25 51 76

25 51 76

25 51 76

25 51 76

25 51 76

25 51 76

25 51 76

25 51 76

25 51 76

25 51 76

25 51 76

25 51 76

25 51 76

25 51 76

25 51 76

25 51 76

25 51 76

25 51 76

25 51 76

25 51 76

25 51 76

25 51 76

25 51 76

25 51 76

25 51 76

25 51 76

25 51 76

25 51 76

25 51 76

25 51 76

25 51 76

25 51 76

25 51 76

25 51 76

25 51 76

25 51 76

25 51 76

25 51 76

25 51 76

25 51 76

25 51 76

25 51 76

25 51 76

25 51 76

25 51 76

25 51 76

25 51 76

25 51 76

25 51 76

25 51 76

25 51 76

25 51 76

25 51 76

25 51 76

25 51 76

25 51 76

25 51 76

25 51 76

25 51 76

25 51 76

25 51 76

25 51 76

25 51 76

25 51 76

25 51 76

25 51 76

25 51 76

25 51 76

25 51 76

25 51 76

25 51 76

25 51 76

25 51 76

25 51 76

25 51 76

25 51 76

25 51 76

25 51 76

25 51 76

25 51 76

25 51 76

25 51 76

25 51 76

25 51 76

25 51 76

25 51 76

25 51 76

25 51 76

25 51 76

25 51 76

25 51 76

25 51 76

25 51 76

25 51 76

25 51 76

25 51 76

25 51 76

25 51 76

25 51 76

25 51 76

25 51 76

25 51 76

25 51 76

25 51 76

25 51 76

25 51 76

25 51 76

25 51 76

25 51 76

25 51 76

25 51 76

25 51 76

25 51 76

25 51 76

25 51 76

25 51 76

25 51 76

25 51 76

25 51 76

25 51 76

25 51 76

25 51 76

25 51 76

25 51 76

25 51 76

25 51 76

25 51 76

25 51 76

25 51 76

25 51 76

25 51 76

25 51 76

25 51 76

25 51 76

25 51 76

25 51 76

25 51 76

25 51 76

25 51 76

25 51 76

25 51 76

25 51 76

25 51 76

25 51 76

25 51 76

25 51 76

25 51 76

25 51 76

25 51 76

25 51 76

25 51 76

25 51 76

25 51 76

25 51 76

25 51 76

25 51 76

25 51 76

25 51 76

25 51 76

25 51 76

25 51 76

25 51 76

25 51 76

25 51 76

25 51 76

25 51 76

25 51 76

25 51 76

25 51 76

25 51 76

25 51 76

25 51 76

25 51 76

25 51 76

25 51 76

25 51 76

25 51 76

25 51 76

25 51 76

25 51 76

25 51 76

25 51 76

25 51 76

25 51 76

25 51 76

25 51 76

25 51 76

25 51 76

25 51 76

25 51 76

25 51 76

25 51 76

25 51 76

25 51 76

25 51 76

25 51 76

25 51 76

25 51 76

25 51 76

25 51 76

25 51 76

25 51 76

25 51 76

25 51 76

25 51 76

25 51 76

25 51 76

25 51 76

25 51 76

25 51 76

25 51 76

25 51 76

25 51 76

25 51 76

25 51 76

25 51 76

25 51 76

25 51 76

25 51 76

25 51 76

25 51 76

25 51 76

25 51 76

25 51 76

25 51 76

25 51 76

25 51 76

25 51 76

25 51 76

25 51 76

25 51 76

25 51 76

25 51 76

25 51 76

25 51 76

25 51 76

25 51 76

25 51 76

25 51 76

25 51 76

25 51 76

25 51 76

25 51 76

25 51 76

25 51 76

25 51 76

25 51 76

25 51 76

25 51 76

25 51 76

25 51 76

25 51 76

25 51 76

25 51 76

25 51 76

25 51 76

25 51 76

25 51 76

25 51 76

25 51 76

25 51 76

25 51 76

25 51 76

25 51 76

25 51 76

25 51 76

25 51 76

25 51 76

25 51 76

25 51 76

25 51 76

25 51 76

25 51 76

25 51 76

25 51 76

25 51 76

25 51 76

25 51 76

25 51 76

25 51 76

25 51 76

25 51 76

25 51 76

25 51 76

25 51 76

25 51 76

25 51 76

25 51 76

25 51 76

25 51 76

25 51 76

25 51 76

25 51 76

25 51 76

25 51 76

25 51 76

25 51 76

25 51 76

25 51 76

25 51 76

25 51 76

25 51 76

25 51 76

25 51 76

25 51 76

25 51 76

25 51 76

25 51 76

25 51 76

25 51 76

25 51 76

25 51 76

25 51 76

25 51 76

25 51 76

25 51 76

25 51 76

25 51 76

25 51 76

25 51 76

25 51 76

25 51 76

25 51 76

25 51 76

25 51 76

25 51 76

25 51 76

25 51 76

25 51 76

25 51 76

25 51 76

25 51 76

25 51 76

25 51 76

25 51 76

25 51 76

25 51 76

25 51 76

25 51 76

25 51 76

25 51 76

25 51 76

25 51 76

25 51 76

25 51 76

25 51 76

25 51 76

25 51 76

25 51 76

25 51 76

25 51 76

25 51 76

25 51 76

25 51 76

25 51 76

25 51 76

25 51 76

25 51 76

25 51 76

25 51 76

25 51 76

25 51 76

25 51 76

25 51 76

25 51 76

25 51 76

25 51 76

25 51 76

25 51 76

25 51 76

25 51 76

25 51 76

25 51 76

25 51 76

25 51 76

25 51 76

25 51 76

25 51 76

25 51 76

25 51 76

25 51 76

25 51 76

25 51 76

25 51 76

25 51 76

25 51 76

25 51 76

25 51 76

25 51 76

25 51 76

25 51 76

25 51 76

25 51 76

25 51 76

25 51 76

25 51 76

25 51 76

25 51 76

25 51 76

25 51 76

25 51 76

25 51 76

25 51 76

25 51 76

25 51 76

25 51 76

25 51 76

25 51 76

25 51 76

25 51 76

25 51 76

25 51 76

25 51 76

25 51 76

25 51 76

25 51 76

25 51 76

25 51 76

25 51 76

25 51 76

25 51 76

25 51 76

25 51 76

25 51 76

25 51 76

25 51 76

25 51 76

25 51 76

25 51 76

25 51 76

25 51 76

25 51 76

25 51 76

25 51 76

25 51 76

25 51 76

25 51 76

25 51 76

25 51 76

25 51 76

25 51 76

25 51 76

25 51 76

25 51 76

25 51 76

25 51 76

25 51 76

25 51 76

25 51 76

25 51 76

25 51 76

25 51 76

25 51 76

25 51 76

25 51 76

25 51 76

25 51 76

25 51 76

25 51 76

25 51 76

25 51 76

25 51 76

25 51 76

25 51 76

25 51 76

25 51 76

25 51 76

25 51 76

25 51 76

25 51 76

25 51 76

25 51 76

25 51 76

25 51 76

25 51 76

25 51 76

25 51 76

25 51 76

25 51 76

25 51 76

25 51 76

25 51 76

25 51 76

25 51 76

25 51 76

25 51 76

25 51 76

25 51 76

25 51 76

25 51 76

25 51 76

25 51 76

25 51 76

25 51 76

25 51 76

25 51 76

25 51 76

25 51 76

25 51 76

25 51 76

25 51 76

25 51 76

25 51 76

25 51 76

25 51 76

25 51 76

25 51 76

25 51 76

25 51 76

25 51 76

25 51 76

25 51 76

25 51 76

25 51 76

25 51 76

25 51 76

25 51 76

25 51 76

25 51 76

25 51 76

25 51 76

25 51 76

25 51 76

25 51 76

25 51 76

25 51 76

25 51 76

25 51 76

25 51 76

25 51 76

25 51 76

25 51 76

25 51 76

25 51 76

25 51 76

25 51 76

25 51 76

25 51 76

25 51 76

25 51 76

25 51 76

25 51 76

25 51 76

25 51 76

25 51 76

25 51 76

25 51 76

25 51 76

25 51 76

25 51 76

25 51 76

25 51 76

25 51 76

25 51 76

25 51 76

25 51 76

25 51 76

25 51 76

25 51 76

25 51 76

25 51 76

25 51 76

25 51 76

25 51 76

25 51 76

25 51 76

25 51 76

25 51 76

25 51 76

25 51 76

25 51 76

25 51 76

25 51 76

25 51 76

25 51 76

25 51 76

25 51 76

25 51 76

25 51 76

25 51 76

25 51 76

25 51 76

25 51 76

25 51 76

25 51 76

25 51 76

25 51 76

25 51 76

25 51 76

25 51 76

25 51 76

25 51 76

25 51 76

25 51 76

25 51 76

25 51 76

25 51 76

25 51 76

25 51 76

25 51 76

25 51 76

25 51 76

25 51 76

25 51 76

25 51 76

25 51 76

25 51 76

25 51 76

25 51 76

25 51 76

25 51 76

25 51 76

25 51 76

25 51 76

25 51 76

25 51 76

25 51 76

25 51 76

25 51 76

25 51 76

25 51 76

25 51 76

25 51 76

25 51 76

25 51 76

25 51 76

25 51 76

25 51 76

25 51 76

25 51 76

25 51 76

25 51 76

25 51 76

25 51 76

25 51 76

25 51 76

25 51 76

25 51 76

25 51 76

25 51 76

25 51 76

25 51 76

25 51 76

25 51 76

25 51 76

25 51 76

25 51 76

25 51 76

25 51 76

25 51 76

25 51 76

25 51 76

25 51 76

25 51 76

25 51 76

25 51 76

25 51 76

25 51 76

25 51 76

25 51 76

25 51 76

25 51 76

25 51 76

25 51 76

25 51 76

25 51 76

25 51 76

25 51 76

25 51 76

25 51 76

25 51 76

25 51 76

25 51 76

25 51 76

25 51 76

25 51 76

25 51 76

25 51 76

25 51 76

25 51 76

25 51 76

25 51 76

25 51 76

25 51 76

25 51 76

25 51 76

25 51 76

25 51 76

25 51 76

25 51 76

25 51 76

25 51 76

25 51 76

25 51 76

25 51 76

25 51 76

25 51 76

25 51 76

25 51 76

25 51 76

25 51 76

25 51 76

25 51 76

25 51 76

25 51 76

25 51 76

25 51 76

25 51 76

25 51 76

25 51 76

25 51 76

25 51 76

25 51 76

25 51 76

25 51 76

25 51 76

25 51 76

25 51 76

25 51 76

25 51 76

25 51 76

25 51 76

25 51 76

25 51 76

25 51 76

25 51 76

25 51 76

25 51 76

25 51 76

25 51 76

25 51 76

25 51 76

25 51 76

25 51 76

25 51 76

25 51 76

25 51 76

25 51 76

25 51 76

25 51 76

25 51 76

25 51 76

25 51 76

25 51 76

25 51 76

25 51 76

25 51 76

25 51 76

25 51 76

25 51 76

25 51 76

25 51 76

25 51 76

25 51 76

25 51 76

25 51 76

25 51 76

25 51 76

25 51 76

25 51 76

25 51 76

25 51 76

25 51 76

25 51 76

25 51 76

25 51 76

25 51 76

25 51 76

25 51 76

25 51 76

25 51 76

25 51 76

25 51 76

25 51 76

25 51 76

25 51 76

25 51 76

25 51 76

25 51 76

25 51 76

25 51 76

25 51 76

25 51 76

25 51 76

25 51 76

25 51 76

25 51 76

25 51 76

25 51 76

25 51 76

25 51 76

25 51 76

25 51 76

25 51 76

25 51 76

25 51 76

25 51 76

25 51 76

25 51 76

25 51 76

25 51 76

25 51 76

25 51 76

25 51 76

25 51 76

25 51 76

25 51 76

25 51 76

25 51 76

25 51 76

25 51 76

25 51 76

25 51 76

25 51 76

25 51 76

25 51 76

25 51 76

25 51 76

25 51 76

25 51 76

25 51 76

25 51 76

25 51 76

25 51 76

25 51 76

25 51 76

25 51 76

25 51 76

25 51 76

25 51 76

25 51 76

25 51 76

25 51 76

25 51 76

25 51 76

25 51 76

25 51 76

25 51 76

25 51 76

25 51 76

25 51 76

25 51 76

25 51 76

25 51 76

25 51 76

25 51 76

25 51 76

25 51 76

25 51 76

25 51 76

25 51 76

25 51 76

25 51 76

25 51 76

25 51 76

25 51 76

25 51 76

25 51 76

25 51 76

25 51 76

25 51 76

25 51 76

25 51 76

25 51 76

25 51 76

25 51 76

25 51 76

25 51 76

25 51 76

25 51 76

25 51 76

25 51 76

25 51 76

25 51 76

25 51 76

25 51 76

25 51 76

25 51 76

25 51 76

25 51 76

25 51 76

25 51 76

25 51 76

25 51 76

25 51 76

25 51 76

25 51 76

25 51 76

25 51 76

25 51 76

25 51 76

25 51 76

25 51 76

25 51 76

25 51 76

25 51 76

25 51 76

25 51 76

25 51 76

25 51 76

25 51 76

25 51 76

25 51 76

25 51 76

25 51 76

25 51 76

25 51 76

25 51 76

25 51 76

25 51 76

25 51 76

25 51 76

25 51 76

25 51 76

25 51 76

25 51 76

25 51 76

25 51 76

25 51 76

25 51 76

25 51 76

25 51 76

25 51 76

25 51 76

25 51 76

25 51 76

25 51 76

25 51 76

25 51 76

25 51 76

25 51 76

25 51 76

25 51 76

25 51 76

25 51 76

25 51 76

25 51 76

25 51 76

25 51 76

25 51 76

25 51 76

25 51 76

25 51 76

25 51 76

25 51 76

25 51 76

25 51 76

25 51 76

25 51 76

25 51 76

25 51 76

25 51 76

25 51 76

25 51 76

25 51 76

25 51 76

25 51 76

25 51 76

25 51 76

25 51 76

25 51 76

25 51 76

25 51 76

25 51 76

25 51 76

25 51 76

25 51 76

25 51 76

25 51 76

25 51 76

25 51 76

25 51 76

25 51 76

25 51 76

25 51 76

25 51 76

25 51 76

25 51 76

25 51 76

25 51 76

25 51 76

25 51 76

25 51 76

25 51 76

25 51 76

25 51 76

25 51 76

25 51 76

25 51 76

25 51 76

25 51 76

25 51 76

25 51 76

25 51 76

25 51 76

25 51 76

25 51 76

25 51 76

25 51 76

25 51 76

25 51 76

25 51 76

25 51 76

25 51 76

25 51 76

25 51 76

25 51 76

25 51 76

25 51 76

25 51 76

25 51 76

25 51 76

25 51 76

25 51 76

25 51 76

25 51 76

25 51 76

25 51 76

25 51 76

25 51 76

25 51 76

25 51 76

25 51 76

25 51 76

25 51 76

25 51 76

25 51 76

25 51 76

25 51 76

25 51 76

25 51 76

25 51 76

25 51 76

25 51 76

25 51 76

25 51 76

25 51 76

25 51 76

25 51 76

25 51 76

25 51 76

25 51 76

25 51 76

25 51 76

25 51 76

25 51 76

25 51 76

25 51 76

25 51 76

25 51 76

25 51 76

25 51 76

25 51 76

25 51 76

25 51 76

25 51 76

25 51 76

25 51 76

25 51 76

25 51 76

25 51 76

25 51 76

25 51 76

25 51 76

25 51 76

25 51 76

25 51 76

25 51 76

25 51 76

25 51 76

25 51 76

25 51 76

25 51 76

25 51 76

25 51 76

25 51 76

25 51 76

25 51 76

25 51 76

25 51 76

25 51 76

25 51 76

25 51 76

25 51 76

25 51 76

25 51 76

25 51 76

25 51 76

25 51 76

25 51 76

25 51 76

25 51 76

25 51 76

25 51 76

25 51 76

25 51 76

25 51 76

25 51 76

25 51 76

25 51 76

25 51 76

25 51 76

25 51 76

25 51 76

25 51 76

25 51 76

25 51 76

25 51 76

25 51 76

25 51 76

25 51 76

25 51 76

25 51 76

25 51 76

25 51 76

25 51 76

25 51 76

25 51 76

25 51 76

25 51 76

25 51 76

25 51 76

25 51 76

25 51 76

25 51 76

25 51 76

25 51 76

25 51 76

25 51 76

25 51 76

25 51 76

25 51 76

25 51 76

25 51 76

25 51 76

25 51 76

25 51 76

25 51 76

25 51 76

25 51 76

25 51 76

25 51 76

25 51 76

25 51 76

25 51 76

25 51 76

25 51 76

25 51 76

25 51 76

25 51 76

25 51 76

25 51 76

25 51 76

25 51 76

25 51 76

25 51 76

25 51 76

25 51 76

25 51 76

25 51 76

25 51 76

25 51 76

25 51 76

25 51 76

25 51 76

25 51 76

25 51 76

25 51 76

25 51 76

25 51 76

25 51 76

25 51 76

25 51 76

25 51 76

25 51 76

25 51 76

25 51 76

25 51 76

25 51 76

25 51 76

25 51 76

25 51 76

25 51 76

25 51 76

25 51 76

25 51 76

25 51 76

25 51 76

25 51 76

25 51 76

25 51 76

25 51 76

25 51 76

25 51 76

25 51 76

25 51 76

25 51 76

25 51 76

25 51 76

25 51 76

25 51 76

25 51 76

25 51 76

25 51 76

25 51 76

25 51 76

25 51 76

25 51 76

25 51 76

25 51 76

25 51 76

25 51 76

25 51 76

25 51 76

25 51 76

25 51 76

25 51 76

25 51 76

25 51 76

25 51 76

25 51 76

25 51 76

25 51 76

25 51 76

25 51 76

25 51 76

25 51 76

25 51 76

25 51 76

25 51 76

25 51 76

25 51 76

25 51 76

25 51 76

25 51 76

25 51 76

25 51 76

25 51 76

25 51 76

25 51 76

25 51 76

25 51 76

25 51 76

25 51 76

25 51 76

25 51 76

25 51 76

25 51 76

25 51 76

25 51 76

25 51 76

25 51 76

25 51 76

25 51 76

25 51 76

25 51 76

25 51 76

25 51 76

25 51 76

25 51 76

25 51 76

25 51 76

25 51 76

25 51 76

25 51 76

25 51 76

25 51 76

25 51 76

25 51 76

25 51 76

25 51 76

25 51 76

25 51 76

25 51 76

25 51 76

25 51 76

25 51 76

25 51 76

25 51 76

25 51 76

25 51 76

25 51 76

25 51 76

25 51 76

25 51 76

25 51 76

25 51 76

25 51 76

25 51 76

25 51 76

25 51 76

25 51 76

25 51 76

25 51 76

25 51 76

25 51 76

25 51 76

25 51 76

25 51 76

25 51 76

25 51 76

25 51 76

25 51 76

25 51 76

25 51 76

25 51 76

25 51 76

25 51 76

25 51 76

25 51 76

25 51 76

25 51 76

25 51 76

25 51 76

25 51 76

25 51 76

25 51 76

25 51 76

25 51 76

25 51 76

25 51 76

25 51 76

25 51 76

25 51 76

25 51 76

25 51 76

25 51 76

25 51 76

25 51 76

25 51 76

25 51 76

25 51 76

25 51 76

25 51 76

25 51 76

25 51 76

25 51 76

25 51 76

25 51 76

25 51 76

25 51 76

25 51 76

25 51 76

25 51 76

25 51 76

25 51 76

25 51 76

25 51 76

25 51 76

25 51 76

25 51 76

25 51 76

25 51 76

25 51 76

25 51 76

25 51 76

25 51 76

25 51 76

25 51 76

25 51 76

25 51 76

25 51 76

25 51 76

25 51 76

25 51 76

25 51 76

25 51 76

25 51 76

25 51 76

25 51 76

25 51 76

25 51 76

25 51 76

25 51 76

25 51 76

25 51 76

25 51 76

25 51 76

25 51 76

25 51 76

25 51 76

25 51 76

25 51 76

25 51 76

25 51 76

25 51 76

25 51 76

25 51 76

25 51 76

25 51 76

25 51 76

25 51 76

25 51 76

25 51 76

25 51 76

25 51 76

25 51 76

25 51 76

25 51 76

25 51 76

25 51 76

25 51 76

25 51 76

25 51 76

25 51 76

25 51 76

25 51 76

25 51 76

25 51 76

25 51 76

25 51 76

25 51 76

25 51 76

25 51 76

25 51 76

25 51 76

25 51 76

25 51 76

25 51 76

25 51 76

25 51 76

25 51 76

25 51 76

25 51 76

25 51 76

25 51 76

25 51 76

25 51 76

25 51 76

25 51 76

25 51 76

25 51 76

25 51 76

25 51 76

25 51 76

25 51 76

25 51 76

25 51 76

25 51 76

25 51 76

25 51 76

25 51 76

25 51 76

25 51 76

25 51 76

25 51 76

25 51 76

25 51 76

25 51 76

25 51 76

25 51 76

25 51 76

25 51 76

25 51 76

25 51 76

25 51 76

25 51 76

25 51 76

25 51 76

25 51 76

25 51 76

25 51 76

25 51 76

25 51 76

25 51 76

25 51 76

25 51 76

25 51 76

25 51 76

25 51 76

25 51 76

25 51 76

25 51 76

25 51 76

25 51 76

25 51 76

25 51 76

25 51 76

25 51 76

25 51 76

25 51 76

25 51 76

25 51 76

25 51 76

25 51 76

25 51 76

25 51 76

25 51 76

25 51 76

25 51 76

25 51 76

25 51 76

25 51 76

25 51 76

25 51 76

25 51 76

25 51 76

25 51 76

25 51 76

25 51 76

25 51 76

25 51 76

25 51 76

25 51 76

25 51 76

25 51 76

25 51 76

25 51 76

25 51 76

25 51 76

25 51 76

25 51 76

25 51 76

25 51 76

25 51 76

25 51 76

25 51 76

25 51 76

25 51 76

25 51 76

25 51 76

25 51 76

25 51 76

25 51 76

25 51 76

25 51 76

25 51 76

25 51 76

25 51 76

25 51 76

25 51 76

25 51 76

25 51 76

25 51 76

25 51 76

25 51 76

25 51 76

25 51 76

25 51 76

25 51 76

25 51 76

25 51 76

25 51 76

25 51 76

25 51 76

25 51 76

25 51 76

25 51 76

25 51 76

25 51 76

25 51 76

25 51 76

25 51 76

25 51 76

25 51 76

25 51 76

25 51 76

25 51 76

25 51 76

25 51 76

25 51 76

25 51 76

25 51 76

25 51 76

25 51 76

25 51 76

25 51 76

25 51 76

25 51 76

25 51 76

25 51 76

25 51 76

25 51 76

25 51 76

25 51 76

25 51 76

25 51 76

25 51 76

25 51 76

25 51 76

25 51 76

25 51 76

25 51 76

25 51 76

25 51 76

25 51 76

25 51 76

25 51 76

25 51 76

25 51 76

25 51 76

25 51 76

25 51 76

25 51 76

25 51 76

25 51 76

25 51 76

25 51 76

25 51 76

25 51 76

25 51 76

25 51 76

25 51 76

25 51 76

25 51 76

25 51 76

25 51 76

25 51 76

25 51 76

25 51 76

25 51 76

25 51 76

25 51 76

25 51 76

25 51 76

25 51 76

25 51 76

25 51 76

25 51 76

25 51 76

25 51 76

25 51 76

25 51 76

25 51 76

25 51 76

25 51 76

25 51 76

25 51 76

25 51 76

25 51 76

25 51 76

25 51 76

25 51 76

25 51 76

25 51 76

25 51 76

25 51 76

25 51 76

25 51 76

25 51 76

25 51 76

25 51 76

25 51 76

25 51 76

25 51 76

25 51 76

25 51 76

25 51 76

25 51 76

25 51 76

25 51 76

25 51 76

25 51 76

25 51 76

25 51 76

25 51 76

25 51 76

25 51 76

25 51 76

25 51 76

25 51 76

25 51 76

25 51 76

25 51 76

25 51 76

25 51 76

25 51 76

25 51 76

25 51 76

25 51 76

25 51 76

25 51 76

25 51 76

25 51 76

25 51 76

25 51 76

25 51 76

25 51 76

25 51 76

25 51 76

25 51 76

25 51 76

25 51 76

25 51 76

25 51 76

25 51 76

25 51 76

25 51 76

25 51 76

25 51 76

25 51 76

25 51 76

25 51 76

25 51 76

25 51 76

25 51 76

25 51 76

25 51 76

25 51 76

25 51 76

25 51 76

25 51 76

25 51 76

25 51 76

25 51 76

25 51 76

25 51 76

25 51 76

25 51 76

25 51 76

25 51 76

25 51 76

25 51 76

25 51 76

25 51 76

25 51 76

25 51 76

25 51 76

25 51 76

25 51 76

25 51 76

25 51 76

25 51 76

25 51 76

25 51 76

25 51 76

25 51 76

25 51 76

25 51 76

25 51 76

25 51 76

25 51 76

25 51 76

25 51 76

25 51 76

25 51 76

25 51 76

25 51 76

25 51 76

25 51 76

25 51 76

25 51 76

25 51 76

25 51 76

25 51 76

25 51 76

25 51 76

25 51 76

25 51 76

25 51 76

25 51 76

25 51 76

25 51 76

25 51 76

25 51 76

25 51 76

25 51 76

25 51 76

25 51 76

25 51 76

25 51 76

25 51 76

25 51 76

25 51 76

25 51 76

25 51 76

25 51 76

25 51 76

25 51 76

25 51 76

25 51 76

25 51 76

25 51 76

25 51 76

25 51 76

25 51 76

25 51 76

25 51 76

25 51 76

25 51 76

25 51 76

25 51 76

25 51 76

25 51 76

25 51 76

25 51 76

25 51 76

25 51 76

25 51 76

25 51 76

25 51 76

25 51 76

25 51 76

25 51 76

25 51 76

25 51 76

25 51 76

25 51 76

25 51 76

25 51 76

25 51 76

25 51 76

25 51 76

25 51 76

25 51 76

25 51 76

25 51 76

25 51 76

25 51 76

25 51 76

25 51 76

25 51 76

25 51 76

25 51 76

25 51 76

25 51 76

25 51 76

25 51 76

25 51 76

25 51 76

25 51 76

25 51 76

25 51 76

25 51 76

25 51 76

25 51 76

25 51 76

25 51 76

25 51 76

25 51 76

25 51 76

25 51 76

25 51 76

25 51 76

25 51 76

25 51 76

25 51 76

25 51 76

25 51 76

25 51 76

25 51 76

25 51 76

25 51 76

25 51 76

25 51 76

25 51 76

25 51 76

25 51 76

25 51 76

25 51 76

25 51 76

25 51 76

25 51 76

25 51 76

25 51 76

25 51 76

25 51 76

25 51 76

25 51 76

25 51 76

25 51 76

25 51 76

25 51 76

25 51 76

25 51 76

25 51 76

25 51 76

25 51 76

25 51 76

25 51 76

25 51 76

25 51 76

25 51 76

25 51 76

25 51 76

25 51 76

25 51 76

25 51 76

25 51 76

25 51 76

25 51 76

25 51 76

25 51 76

25 51 76

25 51 76

25 51 76

25 51 76

25 51 76

25 51 76

25 51 76

25 51 76

25 51 76

25 51 76

25 51 76

25 51 76

25 51 76

25 51 76

25 51 76

25 51 76

25 51 76

25 51 76

25 51 76

25 51 76

25 51 76

25 51 76

25 51 76

25 51 76

25 51 76

25 51 76

25 51 76

25 51 76

25 51 76

25 51 76

25 51 76

25 51 76

25 51 76

25 51 76

25 51 76

25 51 76

25 51 76

25 51 76

25 51 76

25 51 76

25 51 76

25 51 76

25 51 76

25 51 76

25 51 76

25 51 76

25 51 76

25 51 76

25 51 76

25 51 76

25 51 76

25 51 76

25 51 76

25 51 76

25 51 76

25 51 76

25 51 76

25 51 76

25 51 76

25 51 76

25 51 76

25 51 76

25 51 76

25 51 76

25 51 76

25 51 76

25 51 76

25 51 76

25 51 76

25 51 76

25 51 76

25 51 76

25 51 76

25 51 76

25 51 76

25 51 76

25 51 76

25 51 76

25 51 76

25 51 76

25 51 76

25 51 76

25 51 76

25 51 76

25 51 76

25 51 76

25 51 76

25 51 76

25 51 76

25 51 76

25 51 76

25 51 76

25 51 76

25 51 76

25 51 76

25 51 76

25 51 76

25 51 76

25 51 76

25 51 76

25 51 76

25 51 76

25 51 76

25 51 76

25 51 76

25 51 76

25 51 76

25 51 76

25 51 76

25 51 76

25 51 76

25 51 76

25 51 76

25 51 76

25 51 76

25 51 76

25 51 76

25 51 76

25 51 76

25 51 76

25 51 76

25 51 76

25 51 76

25 51 76

25 51 76

25 51 76

25 51 76

25 51 76

25 51 76

25 51 76

25 51 76

25 51 76

25 51 76

25 51 76

25 51 76

25 51 76

25 51 76

25 51 76

25 51 76

25 51 76

25 51 76

25 51 76

25 51 76

25 51 76

25 51 76

25 51 76

25 51 76

25 51 76

25 51 76

25 51 76

25 51 76

25 51 76

25 51 76

25 51 76

25 51 76

25 51 76

25 51 76

25 51 76

25 51 76

25 51 76

25 51 76

25 51 76

25 51 76

25 51 76

25 51 76

25 51 76

25 51 76

25 51 76

25 51 76

25 51 76

25 51 76

25 51 76

25 51 76

25 51 76

25 51 76

25 51 76

25 51 76

25 51 76

25 51 76

25 51 76

25 51 76

25 51 76

25 51 76

25 51 76

25 51 76

25 51 76

25 51 76

25 51 76

25 51 76

25 51 76

25 51 76

25 51 76

25 51 76

25 51 76

25 51 76

25 51 76

25 51 76

25 51 76

25 51 76

25 51 76

25 51 76

25 51 76

25 51 76

25 51 76

25 51 76

25 51 76

25 51 76

25 51 76

25 51 76

25 51 76

25 51 76

25 51 76

25 51 76

25 51 76

25 51 76

25 51 76

25 51 76

25 51 76

25 51 76

25 51 76

25 51 76

25 51 76

25 51 76

25 51 76

25 51 76

25 51 76

25 51 76

25 51 76

25 51 76

25 51 76

25 51 76

25 51 76

25 51 76

25 51 76

25 51 76

25 51 76

25 51 76

25 51 76

25 51 76

25 51 76

25 51 76

25 51 76

25 51 76

25 51 76

25 51 76

25 51 76

25 51 76

25 51 76

25 51 76

25 51 76

25 51 76

25 51 76

25 51 76

25 51 76

25 51 76

25 51 76

25 51 76

25 51 76

25 51 76

25 51 76

25 51 76

25 51 76

25 51 76

25 51 76

25 51 76

25 51 76

25 51 76

25 51 76

25 51 76

25 51 76

25 51 76

25 51 76

25 51 76

25 51 76

25 51 76

25 51 76

25 51 76

25 51 76

25 51 76

25 51 76

25 51 76

25 51 76

25 51 76

25 51 76

25 51 76

25 51 76

25 51 76

25 51 76

25 51 76

25 51 76

25 51 76

25 51 76

25 51 76

25 51 76

25 51 76

25 51 76

25 51 76

25 51 76

25 51 76

25 51 76

25 51 76

25 51 76

25 51 76

25 51 76

25 51 76

25 51 76

25 51 76

25 51 76

25 51 76

25 51 76

25 51 76

25 51 76

25 51 76

25 51 76

25 51 76

25 51 76

25 51 76

25 51 76

25 51 76

25 51 76

25 51 76

25 51 76

25 51 76

25 51 76

25 51 76

25 51 76

25 51 76

25 51 76

25 51 76

25 51 76

25 51 76

25 51 76

25 51 76

25 51 76

25 51 76

25 51 76

25 51 76

25 51 76

25 51 76

25 51 76

25 51 76

25 51 76

25 51 76

25 51 76

25 51 76

25 51 76

25 51 76

25 51 76

25 51 76

25 51 76

25 51 76

25 51 76

25 51 76

25 51 76

25 51 76

25 51 76

25 51 76

25 51 76

25 51 76

25 51 76

25 51 76

25 51 76

25 51 76

25 51 76

25 51 76

25 51 76

25 51 76

25 51 76

25 51 76

25 51 76

25 51 76

25 51 76

25 51 76

25 51 76

25 51 76

25 51 76

25 51 76

25 51 76

25 51 76

25 51 76

25 51 76

25 51 76

25 51 76

25 51 76

25 51 76

25 51 76

25 51 76

25 51 76

25 51 76

25 51 76

25 51 76

25 51 76

25 51 76

25 51 76

25 51 76

25 51 76

25 51 76

25 51 76

25 51 76

25 51 76

25 51 76

25 51 76

25 51 76

25 51 76

25 51 76

25 51 76

25 51 76

25 51 76

25 51 76

25 51 76

25 51 76

25 51 76

25 51 76

25 51 76

25 51 76

25 51 76

25 51 76

25 51 76

25 51 76

25 51 76

25 51 76

25 51 76

25 51 76

25 51 76

25 51 76

25 51 76

25 51 76

25 51 76

25 51 76

25 51 76

25 51 76

25 51 76

25 51 76

25 51 76

25 51 76

25 51 76

25 51 76

25 51 76

25 51 76

25 51 76

25 51 76

25 51 76

25 51 76

25 51 76

25 51 76

25 51 76

25 51 76

25 51 76

25 51 76

25 51 76

25 51 76

25 51 76

25 51 76

25 51 76

25 51 76

25 51 76

25 51 76

25 51 76

25 51 76

25 51 76

25 51 76

25 51 76

25 51 76

25 51 76

25 51 76

25 51 76

25 51 76

25 51 76

25 51 76

25 51 76

25 51 76

25 51 76

25 51 76

25 51 76

25 51 76

25 51 76

25 51 76

25 51 76

25 51 76

25 51 76

25 51 76

25 51 76

25 51 76

25 51 76

25 51 76

25 51 76

25 51 76

25 51 76

25 51 76

25 51 76

25 51 76

25 51 76

25 51 76

25 51 76

25 51 76

25 51 76

25 51 76

25 51 76

25 51 76

25 51 76

25 51 76

25 51 76

25 51 76

25 51 76

25 51 76

25 51 76

25 51 76

25 51 76

25 51 76

25 51 76

25 51 76

25 51 76

25 51 76

25 51 76

25 51 76

25 51 76

25 51 76

25 51 76

25 51 76

25 51 76

25 51 76

25 51 76

25 51 76

25 51 76

25 51 76

25 51 76

25 51 76

25 51 76

25 51 76

25 51 76

25 51 76

25 51 76

25 51 76

25 51 76

25 51 76

25 51 76

25 51 76

25 51 76

25 51 76

25 51 76

25 51 76

25 51 76

25 51 76

25 51 76

25 51 76

25 51 76

25 51 76

25 51 76

25 51 76

25 51 76

25 51 76

25 51 76

25 51 76

25 51 76

25 51 76

25 51 76

25 51 76

25 51 76

25 51 76

25 51 76

25 51 76

25 51 76

25 51 76

25 51 76

25 51 76

25 51 76

25 51 76

25 51 76

25 51 76

25 51 76

25 51 76

25 51 76

25 51 76

25 51 76

25 51 76

25 51 76

25 51 76

25 51 76

25 51 76

25 51 76

25 51 76

25 51 76

25 51 76

25 51 76

25 51 76

25 51 76

25 51 76

25 51 76

25 51 76

25 51 76

25 51 76

25 51 76

25 51 76

25 51 76

25 51 76

25 51 76

25 51 76

25 51 76

25 51 76

25 51 76

25 51 76

25 51 76

25 51 76

25 51 76

25 51 76

25 51 76

25 51 76

25 51 76

25 51 76

25 51 76

25 51 76

25 51 76

25 51 76

25 51 76

25 51 76

25 51 76

25 51 76

25 51 76

25 51 76

25 51 76

25 51 76

25 51 76

25 51 76

25 51 76

25 51 76

25 51 76

25 51 76

25 51 76

25 51 76

25 51 76

25 51 76

25 51 76

25 51 76

25 51 76

25 51 76

25 51 76

25 51 76

25 51 76

25 51 76

25 51 76

25 51 76

25 51 76

25 51 76

25 51 76

25 51 76

25 51 76

25 51 76

25 51 76

25 51 76

25 51 76

25 51 76

25 51 76

25 51 76

25 51 76

25 51 76

25 51 76

25 51 76

25 51 76

25 51 76

25 51 76

25 51 76

25 51 76

25 51 76

25 51 76

25 51 76

25 51 76

25 51 76

25 51 76

25 51 76

25 51 76

25 51 76

25 51 76

25 51 76

25 51 76

25 51 76

25 51 76

25 51 76

25 51 76

25 51 76

25 51 76

25 51 76

25 51 76

25 51 76

25 51 76

25 51 76

25 51 76

25 51 76

25 51 76

25 51 76

25 51 76

25 51 76

25 51 76

25 51 76

25 51 76

25 51 76

25 51 76

25 51 76

25 51 76

25 51 76

25 51 76

25 51 76

25 51 76

25 51 76

25 51 76

25 51 76

25 51 76

25 51 76

25 51 76

25 51 76

25 51 76

25 51 76

25 51 76

25 51 76

25 51 76

25 51 76

25 51 76

25 51 76

25 51 76

25 51 76

25 51 76

25 51 76

25 51 76

25 51 76

25 51 76

25 51 76

25 51 76

25 51 76

25 51 76

25 51 76

25 51 76

25 51 76

25 51 76

25 51 76

25 51 76

25 51 76

25 51 76

25 51 76

25 51 76

25 51 76

25 51 76

25 51 76

25 51 76

25 51 76

25 51 76

25 51 76

25 51 76

25 51 76

25 51 76

25 51 76

25 51 76

25 51 76

25 51 76

25 51 76

25 51 76

25 51 76

25 51 76

25 51 76

25 51 76

25 51 76

25 51 76

25 51 76

25 51 76

25 51 76

25 51 76

25 51 76

25 51 76

25 51 76

25 51 76

25 51 76

25 51 76

25 51 76

25 51 76

25 51 76

25 51 76

25 51 76

25 51 76

25 51 76

25 51 76

25 51 76

25 51 76

25 51 76

25 51 76

25 51 76

25 51 76

25 51 76

25 51 76

25 51 76

25 51 76

25 51 76

25 51 76

25 51 76

25 51 76

25 51 76

25 51 76

25 51 76

25 51 76

25 51 76

25 51 76

25 51 76

25 51 76

25 51 76

25 51 76

25 51 76

25 51 76

25 51 76

25 51 76

25 51 76

25 51 76

25 51 76

25 51 76

25 51 76

25 51 76

25 51 76

25 51 76

25 51 76

25 51 76

25 51 76

25 51 76

25 51 76

25 51 76

25 51 76

25 51 76

25 51 76

25 51 76

25 51 76

25 51 76

25 51 76

25 51 76

25 51 76

25 51 76

25 51 76

25 51 76

25 51 76

25 51 76

25 51 76

25 51 76

25 51 76

25 51 76

25 51 76

25 51 76

25 51 76

25 51 76

25 51 76

25 51 76

25 51 76

25 51 76

25 51 76

25 51 76

25 51 76

25 51 76

25 51 76

25 51 76

25 51 76

25 51 76

25 51 76

25 51 76

25 51 76

25 51 76

25 51 76

25 51 76

25 51 76

25 51 76

25 51 76

25 51 76

25 51 76

25 51 76

25 51 76

25 51 76

25 51 76

25 51 76

25 51 76

25 51 76

25 51 76

25 51 76

25 51 76

25 51 76

25 51 76

25 51 76

25 51 76

25 51 76

25 51 76

25 51 76

25 51 76

25 51 76

25 51 76

25 51 76

25 51 76

25 51 76

25 51 76

25 51 76

25 51 76

25 51 76

25 51 76

25 51 76

25 51 76

25 51 76

25 51 76

25 51 76

25 51 76

25 51 76

25 51 76

25 51 76

25 51 76

25 51 76

25 51 76

25 51 76

25 51 76

25 51 76

25 51 76

25 51 76

25 51 76

25 51 76

25 51 76

25 51 76

25 51 76

25 51 76

25 51 76

25 51 76

25 51 76

25 51 76

25 51 76

25 51 76

25 51 76

25 51 76

25 51 76

25 51 76

25 51 76

25 51 76

25 51 76

25 51 76

25 51 76

25 51 76

25 51 76

25 51 76

25 51 76

25 51 76

25 51 76

25 51 76

25 51 76

25 51 76

25 51 76

25 51 76

25 51 76

25 51 76

25 51 76

25 51 76

25 51 76

25 51 76

25 51 76

25 51 76

25 51 76

25 51 76

25 51 76

25 51 76

25 51 76

25 51 76

25 51 76

25 51 76

25 51 76

25 51 76

25 51 76

25 51 76

25 51 76

25 51 76

25 51 76

25 51 76

25 51 76

25 51 76

25 51 76

25 51 76

25 51 76

25 51 76

25 51 76

25 51 76

25 51 76

25 51 76

25 51 76

25 51 76

25 51 76

25 51 76

25 51 76

25 51 76

25 51 76

25 51 76

25 51 76

25 51 76

25 51 76

25 51 76

25 51 76

25 51 76

25 51 76

25 51 76

25 51 76

25 51 76

25 51 76

25 51 76

25 51 76

25 51 76

25 51 76

25 51 76

25 51 76

25 51 76

25 51 76

25 51 76

25 51 76

25 51 76

25 51 76

25 51 76

25 51 76

25 51 76

25 51 76

25 51 76

25 51 76

25 51 76

25 51 76

25 51 76

25 51 76

25 51 76

25 51 76

25 51 76

25 51 76

25 51 76

25 51 76

25 51 76

25 51 76

25 51 76

25 51 76

25 51 76

25 51 76

25 51 76

25 51 76

25 51 76

25 51 76

25 51 76

25 51 76

25 51 76

25 51 76

25 51 76

25 51 76

25 51 76

25 51 76

25 51 76

25 51 76

25 51 76

25 51 76

25 51 76

25 51 76

25 51 76

25 51 76

25 51 76

25 51 76

25 51 76

25 51 76

25 51 76

25 51 76

25 51 76

25 51 76

25 51 76

25 51 76

25 51 76

25 51 76

25 51 76

25 51 76

25 51 76

25 51 76

25 51 76

25 51 76

25 51 76

25 51 76

25 51 76

25 51 76

25 51 76

25 51 76

25 51 76

25 51 76

25 51 76

25 51 76

25 51 76

25 51 76

25 51 76

25 51 76

25 51 76

25 51 76

25 51 76

25 51 76

25 51 76

25 51 76

25 51 76

25 51 76

25 51 76

25 51 76

25 51 76

25 51 76

25 51 76

25 51 76

25 51 76

25 51 76

25 51 76

25 51 76

25 51 76

25 51 76

25 51 76

25 51 76

25 51 76

25 51 76

25 51 76

25 51 76

25 51 76

25 51 76

25 51 76

25 51 76

25 51 76

25 51 76

25 51 76

25 51 76

25 51 76

25 51 76

25 51 76

25 51 76

25 51 76

25 51 76

25 51 76

25 51 76

25 51 76

25 51 76

25 51 76

25 51 76

25 51 76

25 51 76

25 51 76

25 51 76

25 51 76

25 51 76

25 51 76

25 51 76

25 51 76

25 51 76

25 51 76

25 51 76

25 51 76

25 51 76

25 51 76

25 51 76

25 51 76

25 51 76

25 51 76

25 51 76

25 51 76

25 51 76

25 51 76

25 51 76

25 51 76

25 51 76

25 51 76

25 51 76

25 51 76

25 51 76

25 51 76

25 51 76

25 51 76

25 51 76

25 51 76

25 51 76

25 51 76

25 51 76

25 51 76

25 51 76

25 51 76

25 51 76

25 51 76

25 51 76

25 51 76

25 51 76

25 51 76

25 51 76

25 51 76

25 51 76

25 51 76

25 51 76

25 51 76

25 51 76

25 51 76

25 51 76

25 51 76

25 51 76

25 51 76

25 51 76

25 51 76

25 51 76

25 51 76

25 51 76

25 51 76

25 51 76

25 51 76

25 51 76

25 51 76

25 51 76

25 51 76

25 51 76

25 51 76

25 51 76

25 51 76

25 51 76

25 51 76

25 51 76

25 51 76

25 51 76

25 51 76

25 51 76

25 51 76

25 51 76

25 51 76

25 51 76

25 51 76

25 51 76

25 51 76

25 51 76

25 51 76

25 51 76

25 51 76

25 51 76

25 51 76

25 51 76

25 51 76

25 51 76

25 51 76

25 51 76

25 51 76

25 51 76

25 51 76

25 51 76

25 51 76

25 51 76

25 51 76

25 51 76

25 51 76

25 51 76

25 51 76

25 51 76

25 51 76

25 51 76

25 51 76

25 51 76

25 51 76

25 51 76

25 51 76

25 51 76

25 51 76

25 51 76

25 51 76

25 51 76

25 51 76

25 51 76

25 51 76

25 51 76

25 51 76

25 51 76

25 51 76

25 51 76

25 51 76

25 51 76

25 51 76

25 51 76

25 51 76

25 51 76

25 51 76

25 51 76

25 51 76

25 51 76

25 51 76

25 51 76

25 51 76

25 51 76

25 51 76

25 51 76

25 51 76

25 51 76

25 51 76

25 51 76

25 51 76

25 51 76

25 51 76

25 51 76

25 51 76

25 51 76

25 51 76

25 51 76

25 51 76

25 51 76

25 51 76

25 51 76

25 51 76

25 51 76

25 51 76

25 51 76

25 51 76

25 51 76

25 51 76

25 51 76

25 51 76

25 51 76

25 51 76

25 51 76

25 51 76

25 51 76

25 51 76

25 51 76

25 51 76

25 51 76

25 51 76

25 51 76

25 51 76

25 51 76

25 51 76

25 51 76

25 51 76

25 51 76

25 51 76

25 51 76

25 51 76

25 51 76

25 51 76

25 51 76

25 51 76

25 51 76

25 51 76

25 51 76

25 51 76

25 51 76

25 51 76

25 51 76

25 51 76

25 51 76

25 51 76

25 51 76

25 51 76

25 51 76

25 51 76

25 51 76

25 51 76

25 51 76

25 51 76

25 51 76

25 51 76

25 51 76

25 51 76

25 51 76

25 51 76

25 51 76

25 51 76

25 51 76

25 51 76

25 51 76

25 51 76

25 51 76

25 51 76

25 51 76

25 51 76

25 51 76

25 51 76

25 51 76

25 51 76

25 51 76

25 51 76

25 51 76

25 51 76

25 51 76

25 51 76

25 51 76

25 51 76

25 51 76

25 51 76

25 51 76

25 51 76

25 51 76

25 51 76

25 51 76

25 51 76

25 51 76

25 51 76

25 51 76

25 51 76

25 51 76

25 51 76

25 51 76

25 51 76

25 51 76

25 51 76

25 51 76

25 51 76

25 51 76

25 51 76

25 51 76

25 51 76

25 51 76

25 51 76

25 51 76

25 51 76

25 51 76

25 51 76

25 51 76

25 51 76

25 51 76

25 51 76

25 51 76

25 51 76

25 51 76

25 51 76

25 51 76

25 51 76

25 51 76

25 51 76

25 51 76

25 51 76

25 51 76

25 51 76

25 51 76

25 51 76

25 51 76

25 51 76

25 51 76

25 51 76

25 51 76

25 51 76

25 51 76

25 51 76

25 51 76

25 51 76

25 51 76

25 51 76

25 51 76

25 51 76

25 51 76

25 51 76

25 51 76

25 51 76

25 51 76

25 51 76

25 51 76

25 51 76

25 51 76

25 51 76

25 51 76

25 51 76

25 51 76

25 51 76

25 51 76

25 51 76

25 51 76

25 51 76

25 51 76

25 51 76

25 51 76

25 51 76

25 51 76

25 51 76

25 51 76

25 51 76

25 51 76

25 51 76

25 51 76

25 51 76

25 51 76

25 51 76

25 51 76

25 51 76

25 51 76

25 51 76

25 51 76

25 51 76

25 51 76

25 51 76

25 51 76

25 51 76

25 51 76

25 51 76

25 51 76

25 51 76

25 51 76

25 51 76

25 51 76

25 51 76

25 51 76

25 51 76

25 51 76

25 51 76

25 51 76

25 51 76

25 51 76

25 51 76

25 51 76

25 51 76

25 51 76

25 51 76

25 51 76

25 51 76

25 51 76

25 51 76

25 51 76

25 51 76

25 51 76

25 51 76

25 51 76

25 51 76

25 51 76

25 51 76

25 51 76

25 51 76

25 51 76

25 51 76

25 51 76

25 51 76

25 51 76

25 51 76

25 51 76

25 51 76

25 51 76

25 51 76

25 51 76

25 51 76

25 51 76

25 51 76

25 51 76

25 51 76

25 51 76

25 51 76

25 51 76

25 51 76

25 51 76

25 51 76

25 51 76

25 51 76

25 51 76

25 51 76

25 51 76

25 51 76

25 51 76

25 51 76

25 51 76

25 51 76

25 51 76

25 51 76

25 51 76

25 51 76

25 51 76

25 51 76

25 51 76

25 51 76

25 51 76

25 51 76

25 51 76

25 51 76

25 51 76

25 51 76

25 51 76

25 51 76

25 51 76

25 51 76

25 51 76

25 51 76

25 51 76

25 51 76

25 51 76

25 51 76

25 51 76

25 51 76

25 51 76

25 51 76

25 51 76

25 51 76

25 51 76

25 51 76

25 51 76

25 51 76

25 51 76

25 51 76

25 51 76

25 51 76

25 51 76

25 51 76

25 51 76

25 51 76

25 51 76

25 51 76

25 51 76

25 51 76

25 51 76

25 51 76

25 51 76

25 51 76

25 51 76

25 51 76

25 51 76

25 51 76

25 51 76

25 51 76

25 51 76

25 51 76

25 51 76

25 51 76

25 51 76

25 51 76

25 51 76

25 51 76

25 51 76

25 51 76

25 51 76

25 51 76

25 51 76

25 51 76

25 51 76

25 51 76

25 51 76

25 51 76

25 51 76

25 51 76

25 51 76

25 51 76

25 51 76

25 51 76

25 51 76

25 51 76

25 51 76

25 51 76

25 51 76

25 51 76

25 51 76

25 51 76

25 51 76

25 51 76

25 51 76

25 51 76

25 51 76

25 51 76

25 51 76

25 51 76

25 51 76

25 51 76

25 51 76

25 51 76

25 51 76

25 51 76

25 51 76

25 51 76

25 51 76

25 51 76

25 51 76

25 51 76

25 51 76

25 51 76

25 51 76

25 51 76

25 51 76

25 51 76

25 51 76

25 51 76

25 51 76

25 51 76

25 51 76

25 51 76

25 51 76

25 51 76

25 51 76

25 51 76

25 51 76

25 51 76

25 51 76

25 51 76

25 51 76

25 51 76

25 51 76

25 51 76

25 51 76

25 51 76

25 51 76

25 51 76

25 51 76

25 51 76

25 51 76

25 51 76

25 51 76

25 51 76

25 51 76

25 51 76

25 51 76

25 51 76

25 51 76

25 51 76

25 51 76

25 51 76

25 51 76

25 51 76

25 51 76

25 51 76

25 51 76

25 51 76

25 51 76

25 51 76

25 51 76

25 51 76

25 51 76

25 51 76

25 51 76

25 51 76

25 51 76

25 51 76

25 51 76

25 51 76

25 51 76

25 51 76

25 51 76

25 51 76

25 51 76

25 51 76

25 51 76

25 51 76

25 51 76

25 51 76

25 51 76

25 51 76

25 51 76

25 51 76

25 51 76

25 51 76

25 51 76

25 51 76

25 51 76

25 51 76

25 51 76

25 51 76

25 51 76

25 51 76

25 51 76

25 51 76

25 51 76

25 51 76

25 51 76

25 51 76

25 51 76

25 51 76

25 51 76

25 51 76

25 51 76

25 51 76

25 51 76

25 51 76

25 51 76

25 51 76

25 51 76

25 51 76

25 51 76

25 51 76

25 51 76

25 51 76

25 51 76

25 51 76

25 51 76

25 51 76

25 51 76

25 51 76

25 51 76

25 51 76

25 51 76

25 51 76

25 51 76

25 51 76

25 51 76

25 51 76

25 51 76

25 51 76

25 51 76

25 51 76

25 51 76

25 51 76

25 51 76

25 51 76

25 51 76

25 51 76

25 51 76

25 51 76

25 51 76

25 51 76

25 51 76

25 51 76

25 51 76

25 51 76

25 51 76

25 51 76

25 51 76

25 51 76

25 51 76

25 51 76

25 51 76

25 51 76

25 51 76

25 51 76

25 51 76

25 51 76

25 51 76

25 51 76

25 51 76

25 51 76

25 51 76

25 51 76

25 51 76

25 51 76

25 51 76

25 51 76

25 51 76

25 51 76

25 51 76

25 51 76

25 51 76

25 51 76

25 51 76

25 51 76

25 51 76

25 51 76

25 51 76

25 51 76

25 51 76

25 51 76

25 51 76

25 51 76

25 51 76

25 51 76

25 51 76

25 51 76

25 51 76

25 51 76

25 51 76

25 51 76

25 51 76

25 51 76

25 51 76

25 51 76

25 51 76

25 51 76

25 51 76

25 51 76

25 51 76

25 51 76

25 51 76

25 51 76

25 51 76

25 51 76

25 51 76

25 51 76

25 51 76

25 51 76

25 51 76

25 51 76

25 51 76

25 51 76

25 51 76

25 51 76

25 51 76

25 51 76

25 51 76

25 51 76

25 51 76

25 51 76

25 51 76

25 51 76

25 51 76

25 51 76

25 51 76

25 51 76

25 51 76

25 51 76

25 51 76

25 51 76

25 51 76

25 51 76

25 51 76

25 51 76

25 51 76

25 51 76

25 51 76

25 51 76

25 51 76

25 51 76

25 51 76

25 51 76

25 51 76

25 51 76

25 51 76

25 51 76

25 51 76

25 51 76

25 51 76

25 51 76

25 51 76

25 51 76

25 51 76

25 51 76

25 51 76

25 51 76

25 51 76

25 51 76

25 51 76

25 51 76

25 51 76

25 51 76

25 51 76

25 51 76

25 51 76

25 51 76

25 51 76

25 51 76

25 51 76

25 51 76

25 51 76

25 51 76

25 51 76

25 51 76

25 51 76

25 51 76

25 51 76

25 51 76

25 51 76

25 51 76

25 51 76

25 51 76

25 51 76

25 51 76

25 51 76

25 51 76

25 51 76

25 51 76

25 51 76

25 51 76

25 51 76

25 51 76

25 51 76

25 51 76

25 51 76

25 51 76

25 51 76

25 51 76

25 51 76

25 51 76

25 51 76

25 51 76

25 51 76

25 51 76

25 51 76

25 51 76

25 51 76

25 51 76

25 51 76

25 51 76

25 51 76

25 51 76

25 51 76

25 51 76

25 51 76

25 51 76

25 51 76

25 51 76

25 51 76

25 51 76

25 51 76

25 51 76

25 51 76

25 51 76

25 51 76

25 51 76

25 51 76

25 51 76

25 51 76

25 51 76

25 51 76

25 51 76

25 51 76

25 51 76

25 51 76

25 51 76

25 51 76

25 51 76

25 51 76

25 51 76

25 51 76

25 51 76

25 51 76

25 51 76

25 51 76

25 51 76

25 51 76

25 51 76

25 51 76

25 51 76

25 51 76

25 51 76

25 51 76

25 51 76

25 51 76

25 51 76

25 51 76

25 51 76

25 51 76

25 51 76

25 51 76

25 51 76

25 51 76

25 51 76

25 51 76

25 51 76

25 51 76

25 51 76

25 51 76

25 51 76

25 51 76

25 51 76

25 51 76

25 51 76

25 51 76

25 51 76

25 51 76

25 51 76

25 51 76

25 51 76

25 51 76

25 51 76

25 51 76

25 51 76

25 51 76

25 51 76

25 51 76

25 51 76

25 51 76

25 51 76

25 51 76

25 51 76

25 51 76

25 51 76

25 51 76

25 51 76

25 51 76

25 51 76

25 51 76

25 51 76

25 51 76

25 51 76

25 51 76

25 51 76

25 51 76

25 51 76

25 51 76

25 51 76

25 51 76

25 51 76

25 51 76

25 51 76

25 51 76

25 51 76

25 51 76

25 51 76

25 51 76

25 51 76

25 51 76

25 51 76

25 51 76

25 51 76

25 51 76

25 51 76

25 51 76

25 51 76

25 51 76

25 51 76

25 51 76

25 51 76

25 51 76

25 51 76

25 51 76

25 51 76

25 51 76

25 51 76

25 51 76

25 51 76

25 51 76

25 51 76

25 51 76

25 51 76

25 51 76

25 51 76

25 51 76

25 51 76

25 51 76

25 51 76

25 51 76

25 51 76

25 51 76

25 51 76

25 51 76

25 51 76

25 51 76

25 51 76

25 51 76

25 51 76

25 51 76

25 51 76

25 51 76

25 51 76

25 51 76

25 51 76

25 51 76

25 51 76

25 51 76

25 51 76

25 51 76

25 51 76

25 51 76

25 51 76

25 51 76

25 51 76

25 51 76

25 51 76

25 51 76

25 51 76

25 51 76

25 51 76

25 51 76

25 51 76

25 51 76

25 51 76

25 51 76

25 51 76

25 51 76

25 51 76

25 51 76

25 51 76

25 51 76

25 51 76

25 51 76

25 51 76

25 51 76

25 51 76

25 51 76

25 51 76

25 51 76

25 51 76

25 51 76

25 51 76

25 51 76

25 51 76

25 51 76

25 51 76

25 51 76

25 51 76

25 51 76

25 51 76

25 51 76

25 51 76

25 51 76

25 51 76

25 51 76

25 51 76

25 51 76

25 51 76

25 51 76

25 51 76

25 51 76

25 51 76

25 51 76

25 51 76

25 51 76

25 51 76

25 51 76

25 51 76

25 51 76

25 51 76

25 51 76

25 51 76

25 51 76

25 51 76

25 51 76

25 51 76

25 51 76

25 51 76

25 51 76

25 51 76

25 51 76

25 51 76

25 51 76

25 51 76

25 51 76

25 51 76

25 51 76

25 51 76

25 51 76

25 51 76

25 51 76

25 51 76

25 51 76

25 51 76

25 51 76

25 51 76

25 51 76

25 51 76

25 51 76

25 51 76

25 51 76

25 51 76

25 51 76

25 51 76

25 51 76

25 51 76

25 51 76

25 51 76

25 51 76

25 51 76

25 51 76

25 51 76

25 51 76

25 51 76

25 51 76

25 51 76

25 51 76

25 51 76

25 51 76

25 51 76

25 51 76

25 51 76

25 51 76

25 51 76

25 51 76

25 51 76

25 51 76

25 51 76

25 51 76

25 51 76

25 51 76

25 51 76

25 51 76

25 51 76

25 51 76

25 51 76

25 51 76

25 51 76

25 51 76

25 51 76

25 51 76

25 51 76

25 51 76

25 51 76

25 51 76

25 51 76

25 51 76

25 51 76

25 51 76

25 51 76

25 51 76

25 51 76

25 51 76

25 51 76

25 51 76

25 51 76

25 51 76

25 51 76

25 51 76

25 51 76

25 51 76

25 51 76

25 51 76

25 51 76

25 51 76

25 51 76

25 51 76

25 51 76

25 51 76

25 51 76

25 51 76

25 51 76

25 51 76

25 51 76

25 51 76

25 51 76

25 51 76

25 51 76

25 51 76

25 51 76

25 51 76

25 51 76

25 51 76

25 51 76

25 51 76

25 51 76

25 51 76

25 51 76

25 51 76

25 51 76

25 51 76

25 51 76

25 51 76

25 51 76

25 51 76

25 51 76

25 51 76

25 51 76

25 51 76

25 51 76

25 51 76

25 51 76

25 51 76

25 51 76

25 51 76

25 51 76

25 51 76

25 51 76

25 51 76

25 51 76

25 51 76

25 51 76

25 51 76

25 51 76

25 51 76

25 51 76

25 51 76

25 51 76

25 51 76

25 51 76

25 51 76

25 51 76

25 51 76

25 51 76

25 51 76

25 51 76

25 51 76

25 51 76

25 51 76

25 51 76

25 51 76

25 51 76

25 51 76

25 51 76

25 51 76

25 51 76

25 51 76

25 51 76

25 51 76

25 51 76

25 51 76

25 51 76

25 51 76

25 51 76

25 51 76

25 51 76

25 51 76

25 51 76

25 51 76

25 51 76

25 51 76

25 51 76

25 51 76

25 51 76

25 51 76

25 51 76

25 51 76

25 51 76

25 51 76

25 51 76

25 51 76

25 51 76

25 51 76

25 51 76

25 51 76

25 51 76

25 51 76

25 51 76

25 51 76

25 51 76

25 51 76

25 51 76

25 51 76

25 51 76

25 51 76

25 51 76

25 51 76

25 51 76

25 51 76

25 51 76

25 51 76

25 51 76

25 51 76

25 51 76

25 51 76

25 51 76

25 51 76

25 51 76

25 51 76

25 51 76

25 51 76

25 51 76

25 51 76

25 51 76

25 51 76

25 51 76

25 51 76

25 51 76

25 51 76

25 51 76

25 51 76

25 51 76

25 51 76

25 51 76

25 51 76

25 51 76

25 51 76

25 51 76

25 51 76

25 51 76

25 51 76

25 51 76

25 51 76

25 51 76

25 51 76

25 51 76

25 51 76

25 51 76

25 51 76

25 51 76

25 51 76

25 51 76

25 51 76

25 51 76

25 51 76

25 51 76

25 51 76

25 51 76

25 51 76

25 51 76

25 51 76

25 51 76

25 51 76

25 51 76

25 51 76

25 51 76

25 51 76

25 51 76

25 51 76

25 51 76

25 51 76

25 51 76

25 51 76

25 51 76

25 51 76

25 51 76

25 51 76

25 51 76

25 51 76

25 51 76

25 51 76

25 51 76

25 51 76

25 51 76

25 51 76

25 51 76

25 51 76

25 51 76

25 51 76

25 51 76

25 51 76

25 51 76

25 51 76

25 51 76

25 51 76

25 51 76

25 51 76

25 51 76

25 51 76

25 51 76

25 51 76

25 51 76

25 51 76

25 51 76

25 51 76

25 51 76

25 51 76

25 51 76

25 51 76

25 51 76

25 51 76

25 51 76

25 51 76

25 51 76

25 51 76

25 51 76

25 51 76

25 51 76

25 51 76

25 51 76

25 51 76

25 51 76

25 51 76

25 51 76

25 51 76

25 51 76

25 51 76

25 51 76

25 51 76

25 51 76

25 51 76

25 51 76

25 51 76

25 51 76

25 51 76

25 51 76

25 51 76

25 51 76

25 51 76

25 51 76

25 51 76

25 51 76

25 51 76

25 51 76

25 51 76

25 51 76

25 51 76

25 51 76

25 51 76

25 51 76

25 51 76

25 51 76

25 51 76

25 51 76

25 51 76

25 51 76

25 51 76

25 51 76

25 51 76

25 51 76

25 51 76

25 51 76

25 51 76

25 51 76

25 51 76

25 51 76

25 51 76

25 51 76

25 51 76

25 51 76

25 51 76

25 51 76

25 51 76

25 51 76

25 51 76

25 51 76

25 51 76

25 51 76

25 51 76

25 51 76

25 51 76

25 51 76

25 51 76

25 51 76

25 51 76

25 51 76

25 51 76

25 51 76

25 51 76

25 51 76

25 51 76

25 51 76

25 51 76

25 51 76

25 51 76

25 51 76

25 51 76

25 51 76

25 51 76

25 51 76

25 51 76

25 51 76

25 51 76

25 51 76

25 51 76

25 51 76

25 51 76

25 51 76

25 51 76

25 51 76

25 51 76

25 51 76

25 51 76

25 51 76

25 51 76

25 51 76

25 51 76

25 51 76

25 51 76

25 51 76

25 51 76

25 51 76

25 51 76

25 51 76

25 51 76

25 51 76

25 51 76

25 51 76

25 51 76

25 51 76

25 51 76

25 51 76

25 51 76

25 51 76

25 51 76

25 51 76

25 51 76

25 51 76

25 51 76

25 51 76

25 51 76

25 51 76

25 51 76

25 51 76

25 51 76

25 51 76

25 51 76

25 51 76

25 51 76

25 51 76

25 51 76

25 51 76

25 51 76

25 51 76

25 51 76

25 51 76

25 51 76

25 51 76

25 51 76

25 51 76

25 51 76

25 51 76

25 51 76

25 51 76

25 51 76

25 51 76

25 51 76

25 51 76

25 51 76

25 51 76

25 51 76

25 51 76

25 51 76

25 51 76

25 51 76

25 51 76

25 51 76

25 51 76

25 51 76

25 51 76

25 51 76

25 51 76

25 51 76

25 51 76

25 51 76

25 51 76

25 51 76

25 51 76

25 51 76

25 51 76

25 51 76

25 51 76

25 51 76

25 51 76

25 51 76

25 51 76

25 51 76

25 51 76

25 51 76

25 51 76

25 51 76

25 51 76

25 51 76

25 51 76

25 51 76

25 51 76

25 51 76

25 51 76

25 51 76

25 51 76

25 51 76

25 51 76

25 51 76

25 51 76

25 51 76

25 51 76

25 51 76

25 51 76

25 51 76

25 51 76

25 51 76

25 51 76

25 51 76

25 51 76

25 51 76

25 51 76

25 51 76

25 51 76

25 51 76

25 51 76

25 51 76

25 51 76

25 51 76

25 51 76

25 51 76

25 51 76

25 51 76

25 51 76

25 51 76

25 51 76

25 51 76

25 51 76

25 51 76

25 51 76

25 51 76

25 51 76

25 51 76

25 51 76

25 51 76

25 51 76

25 51 76

25 51 76

25 51 76

25 51 76

25 51 76

25 51 76

25 51 76

25 51 76

25 51 76

25 51 76

25 51 76

25 51 76

25 51 76

25 51 76

25 51 76

25 51 76

25 51 76

25 51 76

25 51 76

25 51 76

25 51 76

25 51 76

25 51 76

25 51 76

25 51 76

25 51 76

25 51 76

25 51 76

25 51 76

25 51 76

25 51 76

25 51 76

25 51 76

25 51 76

25 51 76

25 51 76

25 51 76

25 51 76

25 51 76

25 51 76

25 51 76

25 51 76

25 51 76

25 51 76

25 51 76

25 51 76

25 51 76

25 51 76

25 51 76

25 51 76

25 51 76

25 51 76

25 51 76

25 51 76

25 51 76

25 51 76

25 51 76

25 51 76

25 51 76

25 51 76

25 51 76

25 51 76

25 51 76

25 51 76

25 51 76

25 51 76

25 51 76

25 51 76

25 51 76

25 51 76

25 51 76

25 51 76

25 51 76

25 51 76

25 51 76

25 51 76

25 51 76

25 51 76

25 51 76

25 51 76

25 51 76

25 51 76

25 51 76

25 51 76

25 51 76

25 51 76

25 51 76

25 51 76

25 51 76

25 51 76

25 51 76

25 51 76

25 51 76

25 51 76

25 51 76

25 51 76

25 51 76

25 51 76

25 51 76

25 51 76

25 51 76

25 51 76

25 51 76

25 51 76

25 51 76

25 51 76

25 51 76

25 51 76

25 51 76

25 51 76

25 51 76

25 51 76

25 51 76

25 51 76

25 51 76

25 51 76

25 51 76

25 51 76

25 51 76

25 51 76

25 51 76

25 51 76

25 51 76

25 51 76

25 51 76

25 51 76

25 51 76

25 51 76

25 51 76

25 51 76

25 51 76

25 51 76

25 51 76

25 51 76

25 51 76

25 51 76

25 51 76

25 51 76

25 51 76

25 51 76

25 51 76

25 51 76

25 51 76

25 51 76

25 51 76

25 51 76

25 51 76

25 51 76

25 51 76

25 51 76

25 51 76

25 51 76

25 51 76

25 51 76

25 51 76

25 51 76

25 51 76

25 51 76

25 51 76

25 51 76

25 51 76

25 51 76

25 51 76

25 51 76

25 51 76

25 51 76

25 51 76

25 51 76

25 51 76

25 51 76

25 51 76

25 51 76

25 51 76

25 51 76

25 51 76

25 51 76

25 51 76

25 51 76

25 51 76

25 51 76

25 51 76

25 51 76

25 51 76

25 51 76

25 51 76

25 51 76

25 51 76

25 51 76

25 51 76

25 51 76

25 51 76

25 51 76

25 51 76

25 51 76

25 51 76

25 51 76

25 51 76

25 51 76

25 51 76

25 51 76

25 51 76

25 51 76

25 51 76

25 51 76

25 51 76

25 51 76

25 51 76

25 51 76

25 51 76

25 51 76

25 51 76

25 51 76

25 51 76

25 51 76

25 51 76

25 51 76

25 51 76

25 51 76

25 51 76

25 51 76

25 51 76

25 51 76

25 51 76

25 51 76

25 51 76

25 51 76

25 51 76

25 51 76

25 51 76

25 51 76

25 51 76

25 51 76

25 51 76

25 51 76

25 51 76

25 51 76

25 51 76

25 51 76

25 51 76

25 51 76

25 51 76

25 51 76

25 51 76

25 51 76

25 51 76

25 51 76

25 51 76

25 51 76

25 51 76

25 51 76

25 51 76

25 51 76

25 51 76

25 51 76

25 51 76

25 51 76

25 51 76

25 51 76

25 51 76

25 51 76

25 51 76

25 51 76

25 51 76

25 51 76

25 51 76

25 51 76

25 51 76

25 51 76

25 51 76

25 51 76

25 51 76

25 51 76

25 51 76

25 51 76

25 51 76

25 51 76

25 51 76

25 51 76

25 51 76

25 51 76

25 51 76

25 51 76

25 51 76

25 51 76

25 51 76

25 51 76

25 51 76

25 51 76

25 51 76

25 51 76

25 51 76

25 51 76

25 51 76

25 51 76

25 51 76

25 51 76

25 51 76

25 51 76

25 51 76

25 51 76

25 51 76

25 51 76

25 51 76

25 51 76

25 51 76

25 51 76

25 51 76

25 51 76

25 51 76

25 51 76

25 51 76

25 51 76

25 51 76

25 51 76

25 51 76

25 51 76

25 51 76

25 51 76

25 51 76

25 51 76

25 51 76

25 51 76

25 51 76

25 51 76

25 51 76

25 51 76

25 51 76

25 51 76

25 51 76

25 51 76

25 51 76

25 51 76

25 51 76

25 51 76

25 51 76

25 51 76

25 51 76

25 51 76

25 51 76

25 51 76

25 51 76

25 51 76

25 51 76

25 51 76

25 51 76

25 51 76

25 51 76

25 51 76

25 51 76

25 51 76

25 51 76

25 51 76

25 51 76

25 51 76

25 51 76

25 51 76

25 51 76

25 51 76

25 51 76

25 51 76

25 51 76

25 51 76

25 51 76

25 51 76

25 51 76

25 51 76

25 51 76

25 51 76

25 51 76

25 51 76

25 51 76

25 51 76

25 51 76

25 51 76

25 51 76

25 51 76

25 51 76

25 51 76

25 51 76

25 51 76

25 51 76

25 51 76

25 51 76

25 51 76

25 51 76

25 51 76

25 51 76

25 51 76

25 51 76

25 51 76

25 51 76

25 51 76

25 51 76

25 51 76

25 51 76

25 51 76

25 51 76

25 51 76

25 51 76

25 51 76

25 51 76

25 51 76

25 51 76

25 51 76

25 51 76

25 51 76

25 51 76

25 51 76

25 51 76

25 51 76

25 51 76

25 51 76

25 51 76

25 51 76

25 51 76

25 51 76

25 51 76

25 51 76

25 51 76

25 51 76

25 51 76

25 51 76

25 51 76

25 51 76

25 51 76

25 51 76

25 51 76

25 51 76

25 51 76

25 51 76

25 51 76

25 51 76

25 51 76

25 51 76

25 51 76

25 51 76

25 51 76

25 51 76

25 51 76

25 51 76

25 51 76

25 51 76

25 51 76

25 51 76

25 51 76

25 51 76

25 51 76

25 51 76

25 51 76

25 51 76

25 51 76

25 51 76

25 51 76

25 51 76

25 51 76

25 51 76

25 51 76

25 51 76

25 51 76

25 51 76

25 51 76

25 51 76

25 51 76

25 51 76

25 51 76

25 51 76

25 51 76

25 51 76

25 51 76

25 51 76

25 51 76

25 51 76

25 51 76

25 51 76

25 51 76

25 51 76

25 51 76

25 51 76

25 51 76

25 51 76

25 51 76

25 51 76

25 51 76

25 51 76

25 51 76

25 51 76

25 51 76

25 51 76

25 51 76

25 51 76

25 51 76

25 51 76

25 51 76

25 51 76

25 51 76

25 51 76

25 51 76

25 51 76

25 51 76

25 51 76

25 51 76

25 51 76

25 51 76

25 51 76

25 51 76

25 51 76

25 51 76

25 51 76

25 51 76

25 51 76

25 51 76

25 51 76

25 51 76

25 51 76

25 51 76

25 51 76

25 51 76

25 51 76

25 51 76

25 51 76

25 51 76

25 51 76

25 51 76

25 51 76

25 51 76

25 51 76

25 51 76

25 51 76

25 51 76

25 51 76

25 51 76

25 51 76

25 51 76

25 51 76

25 51 76

25 51 76

25 51 76

25 51 76

25 51 76

25 51 76

25 51 76

25 51 76

25 51 76

25 51 76

25 51 76

25 51 76

25 51 76

25 51 76

25 51 76

25 51 76

25 51 76

25 51 76

25 51 76

25 51 76

25 51 76

25 51 76

25 51 76

25 51 76

25 51 76

25 51 76

25 51 76

25 51 76

25 51 76

25 51 76

25 51 76

25 51 76

25 51 76

25 51 76

25 51 76

25 51 76

25 51 76

25 51 76

25 51 76

25 51 76

25 51 76

25 51 76

25 51 76

25 51 76

25 51 76

25 51 76

25 51 76

25 51 76

25 51 76

25 51 76

25 51 76

25 51 76

25 51 76

25 51 76

25 51 76

25 51 76

25 51 76

25 51 76

25 51 76

25 51 76

25 51 76

25 51 76

25 51 76

25 51 76

25 51 76

25 51 76

25 51 76

25 51 76

25 51 76

25 51 76

25 51 76

25 51 76

25 51 76

25 51 76

25 51 76

25 51 76

25 51 76

25 51 76

25 51 76

25 51 76

25 51 76

25 51 76

25 51 76

25 51 76

25 51 76

25 51 76

25 51 76

25 51 76

25 51 76

25 51 76

25 51 76

25 51 76

25 51 76

25 51 76

25 51 76

25 51 76

25 51 76

25 51 76

25 51 76

25 51 76

25 51 76

25 51 76

25 51 76

25 51 76

25 51 76

25 51 76

25 51 76

25 51 76

25 51 76

25 51 76

25 51 76

25 51 76

25 51 76

25 51 76

25 51 76

25 51 76

25 51 76

25 51 76

25 51 76

25 51 76

25 51 76

25 51 76

25 51 76

25 51 76

25 51 76

25 51 76

25 51 76

25 51 76

25 51 76

25 51 76

25 51 76

25 51 76

25 51 76

25 51 76

25 51 76

25 51 76

25 51 76

25 51 76

25 51 76

25 51 76

25 51 76

25 51 76

25 51 76

25 51 76

25 51 76

25 51 76

25 51 76

25 51 76

25 51 76

25 51 76

25 51 76

25 51 76

25 51 76

25 51 76

25 51 76

25 51 76

25 51 76

25 51 76

25 51 76

25 51 76

25 51 76

25 51 76

25 51 76

25 51 76

25 51 76

25 51 76

25 51 76

25 51 76

25 51 76

25 51 76

25 51 76

25 51 76

25 51 76

25 51 76

25 51 76

25 51 76

25 51 76

25 51 76

25 51 76

25 51 76

25 51 76

25 51 76

25 51 76

25 51 76

25 51 76

25 51 76

25 51 76

25 51 76

25 51 76

25 51 76

25 51 76

25 51 76

25 51 76

25 51 76

25 51 76

25 51 76

25 51 76

25 51 76

25 51 76

25 51 76

25 51 76

25 51 76

25 51 76

25 51 76

25 51 76

25 51 76

25 51 76

25 51 76

25 51 76

25 51 76

25 51 76

25 51 76

25 51 76

25 51 76

25 51 76

25 51 76

25 51 76

25 51 76

25 51 76

25 51 76

25 51 76

25 51 76

25 51 76

25 51 76

25 51 76

25 51 76

25 51 76

25 51 76

25 51 76

25 51 76

25 51 76

25 51 76

25 51 76

25 51 76

25 51 76

25 51 76

25 51 76

25 51 76

25 51 76

25 51 76

25 51 76

25 51 76

25 51 76

25 51 76

25 51 76

25 51 76

25 51 76

25 51 76

25 51 76

25 51 76

25 51 76

25 51 76

25 51 76

25 51 76

25 51 76

25 51 76

25 51 76

25 51 76

25 51 76

25 51 76

25 51 76

25 51 76

25 51 76

25 51 76

25 51 76

25 51 76

25 51 76

25 51 76

25 51 76

25 51 76

25 51 76

25 51 76

25 51 76

25 51 76

25 51 76

25 51 76

25 51 76

25 51 76

25 51 76

25 51 76

25 51 76

25 51 76

25 51 76

25 51 76

25 51 76

25 51 76

25 51 76

25 51 76

25 51 76

25 51 76

25 51 76

25 51 76

25 51 76

25 51 76

25 51 76

25 51 76

25 51 76

25 51 76

25 51 76

25 51 76

25 51 76

25 51 76

25 51 76

25 51 76

25 51 76

25 51 76

25 51 76

25 51 76

25 51 76

25 51 76

25 51 76

25 51 76

25 51 76

25 51 76

25 51 76

25 51 76

25 51 76

25 51 76

25 51 76

25 51 76

25 51 76

25 51 76

25 51 76

25 51 76

25 51 76

25 51 76

25 51 76

25 51 76

25 51 76

25 51 76

25 51 76

25 51 76

25 51 76

25 51 76

25 51 76

25 51 76

25 51 76

25 51 76

25 51 76

25 51 76

25 51 76

25 51 76

25 51 76

25 51 76

25 51 76

25 51 76

25 51 76

25 51 76

25 51 76

25 51 76

25 51 76

25 51 76

25 51 76

25 51 76

25 51 76

25 51 76

25 51 76

25 51 76

25 51 76

25 51 76

25 51 76

25 51 76

25 51 76

25 51 76

25 51 76

25 51 76

25 51 76

25 51 76

25 51 76

25 51 76

25 51 76

25 51 76

25 51 76

25 51 76

25 51 76

25 51 76

25 51 76

25 51 76

25 51 76

25 51 76

25 51 76

25 51 76

25 51 76

25 51 76

25 51 76

25 51 76

25 51 76

25 51 76

25 51 76

25 51 76

25 51 76

25 51 76

25 51 76

25 51 76

25 51 76

25 51 76

25 51 76

25 51 76

25 51 76

25 51 76

25 51 76

25 51 76

25 51 76

25 51 76

25 51 76

25 51 76

25 51 76

25 51 76

25 51 76

25 51 76

25 51 76

25 51 76

25 51 76

25 51 76

25 51 76

25 51 76

25 51 76

25 51 76

25 51 76

25 51 76

25 51 76

25 51 76

25 51 76

25 51 76

25 51 76

25 51 76

25 51 76

25 51 76

25 51 76

25 51 76

25 51 76

25 51 76

25 51 76

25 51 76

25 51 76

25 51 76

25 51 76

25 51 76

25 51 76

25 51 76

25 51 76

25 51 76

25 51 76

25 51 76

25 51 76

25 51 76

25 51 76

25 51 76

25 51 76

25 51 76

25 51 76

25 51 76

25 51 76

25 51 76

25 51 76

25 51 76

25 51 76

25 51 76

25 51 76

25 51 76

25 51 76

25 51 76

25 51 76

25 51 76

25 51 76

25 51 76

25 51 76

25 51 76

25 51 76

25 51 76

25 51 76

25 51 76

25 51 76

25 51 76

25 51 76

25 51 76

25 51 76

25 51 76

25 51 76

25 51 76

25 51 76

25 51 76

25 51 76

25 51 76

25 51 76

25 51 76

25 51 76

25 51 76

25 51 76

25 51 76

25 51 76

25 51 76

25 51 76

25 51 76

25 51 76

25 51 76

25 51 76

25 51 76

25 51 76

25 51 76

25 51 76

25 51 76

25 51 76

25 51 76

25 51 76

25 51 76

25 51 76

25 51 76

25 51 76

25 51 76

25 51 76

25 51 76

25 51 76

25 51 76

25 51 76

25 51 76

25 51 76

25 51 76

25 51 76

25 51 76

25 51 76

25 51 76

25 51 76

25 51 76

25 51 76

25 51 76

25 51 76

25 51 76

25 51 76

25 51 76

25 51 76

25 51 76

25 51 76

25 51 76

25 51 76

25 51 76

25 51 76

25 51 76

25 51 76

25 51 76

25 51 76

25 51 76

25 51 76

25 51 76

25 51 76

25 51 76

25 51 76

25 51 76

25 51 76

25 51 76

25 51 76

25 51 76

25 51 76

25 51 76

25 51 76

25 51 76

25 51 76

25 51 76

25 51 76

25 51 76

25 51 76

25 51 76

25 51 76

25 51 76

25 51 76

25 51 76

25 51 76

25 51 76

25 51 76

25 51 76

25 51 76

25 51 76

25 51 76

25 51 76

25 51 76

25 51 76

25 51 76

25 51 76

25 51 76

25 51 76

25 51 76

25 51 76

25 51 76

25 51 76

25 51 76

25 51 76

25 51 76

25 51 76

25 51 76

25 51 76

25 51 76

25 51 76

25 51 76

25 51 76

25 51 76

25 51 76

25 51 76

25 51 76

25 51 76

25 51 76

25 51 76

25 51 76

25 51 76

25 51 76

25 51 76

25 51 76

25 51 76

25 51 76

25 51 76

25 51 76

25 51 76

25 51 76

25 51 76

25 51 76

25 51 76

25 51 76

25 51 76

25 51 76

25 51 76

25 51 76

25 51 76

25 51 76

25 51 76

25 51 76

25 51 76

25 51 76

25 51 76

25 51 76

25 51 76

25 51 76

25 51 76

25 51 76

25 51 76

25 51 76

25 51 76

25 51 76

25 51 76

25 51 76

25 51 76

25 51 76

25 51 76

25 51 76

25 51 76

25 51 76

25 51 76

25 51 76

25 51 76

25 51 76

25 51 76

25 51 76

25 51 76

25 51 76

25 51 76

25 51 76

25 51 76

25 51 76

25 51 76

25 51 76

25 51 76

25 51 76

25 51 76

25 51 76

25 51 76

25 51 76

25 51 76

25 51 76

25 51 76

25 51 76

25 51 76

25 51 76

25 51 76

25 51 76

25 51 76

25 51 76

25 51 76

25 51 76

25 51 76

25 51 76

25 51 76

25 51 76

25 51 76

25 51 76

25 51 76

25 51 76

25 51 76

25 51 76

25 51 76

25 51 76

25 51 76

25 51 76

25 51 76

25 51 76

25 51 76

25 51 76

25 51 76

25 51 76

25 51 76

25 51 76

25 51 76

25 51 76

25 51 76

25 51 76

25 51 76

25 51 76

25 51 76

25 51 76

25 51 76

25 51 76

25 51 76

25 51 76

25 51 76

25 51 76

25 51 76

25 51 76

25 51 76

25 51 76

25 51 76

25 51 76

25 51 76

25 51 76

25 51 76

25 51 76

25 51 76

25 51 76

25 51 76

25 51 76

25 51 76

25 51 76

25 51 76

25 51 76

25 51 76

25 51 76

25 51 76

25 51 76

25 51 76

25 51 76

25 51 76

25 51 76

25 51 76

25 51 76

25 51 76

25 51 76

25 51 76

25 51 76

25 51 76

25 51 76

25 51 76

25 51 76

25 51 76

25 51 76

25 51 76

25 51 76

25 51 76

25 51 76

25 51 76

25 51 76

25 51 76

25 51 76

25 51 76

25 51 76

25 51 76

25 51 76

25 51 76

25 51 76

25 51 76

25 51 76

25 51 76

25 51 76

25 51 76

25 51 76

25 51 76

25 51 76

25 51 76

25 51 76

25 51 76

25 51 76

25 51 76

25 51 76

25 51 76

25 51 76

25 51 76

25 51 76

25 51 76

25 51 76

25 51 76

25 51 76

25 51 76

25 51 76

25 51 76

25 51 76

25 51 76

25 51 76

25 51 76

25 51 76

25 51 76

25 51 76

25 51 76

25 51 76

25 51 76

25 51 76

25 51 76

25 51 76

25 51 76

25 51 76

25 51 76

25 51 76

25 51 76

25 51 76

25 51 76

25 51 76

25 51 76

25 51 76

25 51 76

25 51 76

25 51 76

25 51 76

25 51 76

25 51 76

25 51 76

25 51 76

25 51 76

25 51 76

25 51 76

25 51 76

25 51 76

25 51 76

25 51 76

25 51 76

25 51 76

25 51 76

25 51 76

25 51 76

25 51 76

25 51 76

25 51 76

25 51 76

25 51 76

25 51 76

25 51 76

25 51 76

25 51 76

25 51 76

25 51 76

25 51 76

25 51 76

25 51 76

25 51 76

25 51 76

25 51 76

25 51 76

25 51 76

25 51 76

25 51 76

25 51 76

25 51 76

25 51 76

25 51 76

25 51 76

25 51 76

25 51 76

25 51 76

25 51 76

25 51 76

25 51 76

25 51 76

25 51 76

25 51 76

25 51 76

25 51 76

25 51 76

25 51 76

25 51 76

25 51 76

25 51 76

25 51 76

25 51 76

25 51 76

25 51 76

25 51 76

25 51 76

25 51 76

25 51 76

25 51 76

25 51 76

25 51 76

25 51 76

25 51 76

25 51 76

25 51 76

25 51 76

25 51 76

25 51 76

25 51 76

25 51 76

25 51 76

25 51 76

25 51 76

25 51 76

25 51 76

25 51 76

25 51 76

25 51 76

25 51 76

25 51 76

25 51 76

25 51 76

25 51 76

25 51 76

25 51 76

25 51 76

25 51 76

25 51 76

25 51 76

25 51 76

25 51 76

25 51 76

25 51 76

25 51 76

25 51 76

25 51 76

25 51 76

25 51 76

25 51 76

25 51 76

25 51 76

25 51 76

25 51 76

25 51 76

25 51 76

25 51 76

25 51 76

25 51 76

25 51 76

25 51 76

25 51 76

25 51 76

25 51 76

25 51 76

25 51 76

25 51 76

25 51 76

25 51 76

25 51 76

25 51 76

25 51 76

25 51 76

25 51 76

25 51 76

25 51 76

25 51 76

25 51 76

25 51 76

25 51 76

25 51 76

25 51 76

25 51 76

25 51 76

25 51 76

25 51 76

25 51 76

25 51 76

25 51 76

25 51 76

25 51 76

25 51 76

25 51 76

25 51 76

25 51 76

25 51 76

25 51 76

25 51 76

25 51 76

25 51 76

25 51 76

25 51 76

25 51 76

25 51 76

25 51 76

25 51 76

25 51 76

25 51 76

25 51 76

25 51 76

25 51 76

25 51 76

25 51 76

25 51 76

25 51 76

25 51 76

25 51 76

25 51 76

25 51 76

25 51 76

25 51 76

25 51 76

25 51 76

25 51 76

25 51 76

25 51 76

25 51 76

25 51 76

25 51 76

25 51 76

25 51 76

25 51 76

25 51 76

25 51 76

25 51 76

25 51 76

25 51 76

25 51 76

25 51 76

25 51 76

25 51 76

25 51 76

25 51 76

25 51 76

25 51 76

25 51 76

25 51 76

25 51 76

25 51 76

25 51 76

25 51 76

25 51 76

25 51 76

25 51 76

25 51 76

25 51 76

25 51 76

25 51 76

25 51 76

25 51 76

25 51 76

25 51 76

25 51 76

25 51 76

25 51 76

25 51 76

25 51 76

25 51 76

25 51 76

25 51 76

25 51 76

25 51 76

25 51 76

25 51 76

25 51 76

25 51 76

25 51 76

25 51 76

25 51 76

25 51 76

25 51 76

25 51 76

25 51 76

25 51 76

25 51 76

25 51 76

25 51 76

25 51 76

25 51 76

25 51 76

25 51 76

25 51 76

25 51 76

25 51 76

25 51 76

25 51 76

25 51 76

25 51 76

25 51 76

25 51 76

25 51 76

25 51 76

25 51 76

25 51 76

25 51 76

25 51 76

25 51 76

25 51 76

25 51 76

25 51 76

25 51 76

25 51 76

25 51 76

25 51 76

25 51 76

25 51 76

25 51 76

25 51 76

25 51 76

25 51 76

25 51 76

25 51 76

25 51 76

25 51 76

25 51 76

25 51 76

25 51 76

25 51 76

25 51 76

25 51 76

25 51 76

25 51 76

25 51 76

25 51 76

25 51 76

25 51 76

25 51 76

25 51 76

25 51 76

25 51 76

25 51 76

25 51 76

25 51 76

25 51 76

25 51 76

25 51 76

25 51 76

25 51 76

25 51 76

25 51 76

25 51 76

25 51 76

25 51 76

25 51 76

25 51 76

25 51 76

25 51 76

25 51 76

25 51 76

25 51 76

25 51 76

25 51 76

25 51 76

25 51 76

25 51 76

25 51 76

25 51 76

25 51 76

25 51 76

25 51 76

25 51 76

25 51 76

25 51 76

25 51 76

25 51 76

25 51 76

25 51 76

25 51 76

25 51 76

25 51 76

25 51 76

25 51 76

25 51 76

25 51 76

25 51 76

25 51 76

25 51 76

25 51 76

25 51 76

25 51 76

25 51 76

25 51 76

25 51 76

25 51 76

25 51 76

25 51 76

25 51 76

25 51 76

25 51 76

25 51 76

25 51 76

25 51 76

25 51 76

25 51 76

25 51 76

25 51 76

25 51 76

25 51 76

25 51 76

25 51 76

25 51 76

25 51 76

25 51 76

25 51 76

25 51 76

25 51 76

25 51 76

25 51 76

25 51 76

25 51 76

25 51 76

25 51 76

25 51 76

25 51 76

25 51 76

25 51 76

25 51 76

25 51 76

25 51 76

25 51 76

25 51 76

25 51 76

25 51 76

25 51 76

25 51 76

25 51 76

25 51 76

25 51 76

25 51 76

25 51 76

25 51 76

25 51 76

25 51 76

25 51 76

25 51 76

25 51 76

25 51 76

25 51 76

25 51 76

25 51 76

25 51 76

25 51 76

25 51 76

25 51 76

25 51 76

25 51 76

25 51 76

25 51 76

25 51 76

25 51 76

25 51 76

25 51 76

25 51 76

25 51 76

25 51 76

25 51 76

25 51 76

25 51 76

25 51 76

25 51 76

25 51 76

25 51 76

25 51 76

25 51 76

25 51 76

25 51 76

25 51 76

25 51 76

25 51 76

25 51 76

25 51 76

25 51 76

25 51 76

25 51 76

25 51 76

25 51 76

25 51 76

25 51 76

25 51 76

25 51 76

25 51 76

25 51 76

25 51 76

25 51 76

25 51 76

25 51 76

25 51 76

25 51 76

25 51 76

25 51 76

25 51 76

25 51 76

25 51 76

25 51 76

25 51 76

25 51 76

25 51 76

25 51 76

25 51 76

25 51 76

25 51 76

25 51 76

25 51 76

25 51 76

25 51 76

25 51 76

25 51 76

25 51 76

25 51 76

25 51 76

25 51 76

25 51 76

25 51 76

25 51 76

25 51 76

25 51 76

25 51 76

25 51 76

25 51 76

25 51 76

25 51 76

25 51 76

25 51 76

25 51 76

25 51 76

25 51 76

25 51 76

25 51 76

25 51 76

25 51 76

25 51 76

25 51 76

25 51 76

25 51 76

25 51 76

25 51 76

25 51 76

25 51 76

25 51 76

25 51 76

25 51 76

25 51 76

25 51 76

25 51 76

25 51 76

25 51 76

25 51 76

25 51 76

25 51 76

25 51 76

25 51 76

25 51 76

25 51 76

25 51 76

25 51 76

25 51 76

25 51 76

25 51 76

25 51 76

25 51 76

25 51 76

25 51 76

25 51 76

25 51 76

25 51 76

25 51 76

25 51 76

25 51 76

25 51 76

25 51 76

25 51 76

25 51 76

25 51 76

25 51 76

25 51 76

25 51 76

25 51 76

25 51 76

25 51 76

25 51 76

25 51 76

25 51 76

25 51 76

25 51 76

25 51 76

25 51 76

25 51 76

25 51 76

25 51 76

25 51 76

25 51 76

25 51 76

25 51 76

25 51 76

25 51 76

25 51 76

25 51 76

25 51 76

25 51 76

25 51 76

25 51 76

25 51 76

25 51 76

25 51 76

25 51 76

25 51 76

25 51 76

25 51 76

25 51 76

25 51 76

25 51 76

25 51 76

25 51 76

25 51 76

25 51 76

25 51 76

25 51 76

25 51 76

25 51 76

25 51 76

25 51 76

25 51 76

25 51 76

25 51 76

25 51 76

25 51 76

25 51 76

25 51 76

25 51 76

25 51 76

25 51 76

25 51 76

25 51 76

25 51 76

25 51 76

25 51 76

25 51 76

25 51 76

25 51 76

25 51 76

25 51 76

25 51 76

25 51 76

25 51 76

25 51 76

25 51 76

25 51 76

25 51 76

25 51 76

25 51 76

25 51 76

25 51 76

25 51 76

25 51 76

25 51 76

25 51 76

25 51 76

25 51 76

25 51 76

25 51 76

25 51 76

25 51 76

25 51 76

25 51 76

25 51 76

25 51 76

25 51 76

25 51 76

25 51 76

25 51 76

25 51 76

25 51 76

25 51 76

25 51 76

25 51 76

25 51 76

25 51 76

25 51 76

25 51 76

25 51 76

25 51 76

25 51 76

25 51 76

25 51 76

25 51 76

25 51 76

25 51 76

25 51 76

25 51 76

25 51 76

25 51 76

25 51 76

25 51 76

25 51 76

25 51 76

25 51 76

25 51 76

25 51 76

25 51 76

25 51 76

25 51 76

25 51 76

25 51 76

25 51 76

25 51 76

25 51 76

25 51 76

25 51 76

25 51 76

25 51 76

25 51 76

25 51 76

25 51 76

25 51 76

25 51 76

25 51 76

25 51 76

25 51 76

25 51 76

25 51 76

25 51 76

25 51 76

25 51 76

25 51 76

25 51 76

25 51 76

25 51 76

25 51 76

25 51 76

25 51 76

25 51 76

25 51 76

25 51 76

25 51 76

25 51 76

25 51 76

25 51 76

25 51 76

25 51 76

25 51 76

25 51 76

25 51 76

25 51 76

25 51 76

25 51 76

25 51 76

25 51 76

25 51 76

25 51 76

25 51 76

25 51 76

25 51 76

25 51 76

25 51 76

25 51 76

25 51 76

25 51 76

25 51 76

25 51 76

25 51 76

25 51 76

25 51 76

25 51 76

25 51 76

25 51 76

25 51 76

25 51 76

25 51 76

25 51 76

25 51 76

25 51 76

25 51 76

25 51 76

25 51 76

25 51 76

25 51 76

25 51 76

25 51 76

25 51 76

25 51 76

25 51 76

25 51 76

25 51 76

25 51 76

25 51 76

25 51 76

25 51 76

25 51 76

25 51 76

25 51 76

25 51 76

25 51 76

25 51 76

25 51 76

25 51 76

25 51 76

25 51 76

25 51 76

25 51 76

25 51 76

25 51 76

25 51 76

25 51 76

25 51 76

25 51 76

25 51 76

25 51 76

25 51 76

25 51 76

25 51 76

25 51 76

25 51 76

25 51 76

25 51 76

25 51 76

25 51 76

25 51 76

25 51 76

25 51 76

25 51 76

25 51 76

25 51 76

25 51 76

25 51 76

25 51 76

25 51 76

25 51 76

25 51 76

25 51 76

25 51 76

25 51 76

25 51 76

25 51 76

25 51 76

25 51 76

25 51 76

25 51 76

25 51 76

25 51 76

25 51 76

25 51 76

25 51 76

25 51 76

25 51 76

25 51 76

25 51 76

25 51 76

25 51 76

25 51 76

25 51 76

25 51 76

25 51 76

25 51 76

25 51 76

25 51 76

25 51 76

25 51 76

25 51 76

25 51 76

25 51 76

25 51 76

25 51 76

25 51 76

25 51 76

25 51 76

25 51 76

25 51 76

25 51 76

25 51 76

25 51 76

25 51 76

25 51 76

25 51 76

25 51 76

25 51 76

25 51 76

25 51 76

25 51 76

25 51 76

25 51 76

25 51 76

25 51 76

25 51 76

25 51 76

25 51 76

25 51 76

25 51 76

25 51 76

25 51 76

25 51 76

25 51 76

25 51 76

25 51 76

25 51 76

25 51 76

25 51 76

25 51 76

25 51 76

25 51 76

25 51 76

25 51 76

25 51 76

25 51 76

25 51 76

25 51 76

25 51 76

25 51 76

25 51 76

25 51 76

25 51 76

25 51 76

25 51 76

25 51 76

25 51 76

25 51 76

25 51 76

25 51 76

25 51 76

25 51 76

25 51 76

25 51 76

25 51 76

25 51 76

25 51 76

25 51 76

25 51 76

25 51 76

25 51 76

25 51 76

25 51 76

25 51 76

25 51 76

25 51 76

25 51 76

25 51 76

25 51 76

25 51 76

25 51 76

25 51 76

25 51 76

25 51 76

25 51 76

25 51 76

25 51 76

25 51 76

25 51 76

25 51 76

25 51 76

25 51 76

25 51 76

25 51 76

25 51 76

25 51 76

25 51 76

25 51 76

25 51 76

25 51 76

25 51 76

25 51 76

25 51 76

25 51 76

25 51 76

25 51 76

25 51 76

25 51 76

25 51 76

25 51 76

25 51 76

25 51 76

25 51 76

25 51 76

25 51 76

25 51 76

25 51 76

25 51 76

25 51 76

25 51 76

25 51 76

25 51 76

25 51 76

25 51 76

25 51 76

25 51 76

25 51 76

25 51 76

25 51 76

25 51 76

25 51 76

25 51 76

25 51 76

25 51 76

25 51 76

25 51 76

25 51 76

25 51 76

25 51 76

25 51 76

25 51 76

25 51 76

25 51 76

25 51 76

25 51 76

25 51 76

25 51 76

25 51 76

25 51 76

25 51 76

25 51 76

25 51 76

25 51 76

25 51 76

25 51 76

25 51 76

25 51 76

25 51 76

25 51 76

25 51 76

25 51 76

25 51 76

25 51 76

25 51 76

25 51 76

25 51 76

25 51 76

25 51 76

25 51 76

25 51 76

25 51 76

25 51 76

25 51 76

25 51 76

25 51 76

25 51 76

25 51 76

25 51 76

25 51 76

25 51 76

25 51 76

25 51 76

25 51 76

25 51 76

25 51 76

25 51 76

25 51 76

25 51 76

25 51 76

25 51 76

25 51 76

25 51 76

25 51 76

25 51 76

25 51 76

25 51 76

25 51 76

25 51 76

25 51 76

25 51 76

25 51 76

25 51 76

25 51 76

25 51 76

25 51 76

25 51 76

25 51 76

25 51 76

25 51 76

25 51 76

25 51 76

25 51 76

25 51 76

25 51 76

25 51 76

25 51 76

25 51 76

25 51 76

25 51 76

25 51 76

25 51 76

25 51 76

25 51 76

25 51 76

25 51 76

25 51 76

25 51 76

25 51 76

25 51 76

25 51 76

25 51 76

25 51 76

25 51 76

25 51 76

25 51 76

25 51 76

25 51 76

25 51 76

25 51 76

25 51 76

25 51 76

25 51 76

25 51 76

25 51 76

25 51 76

25 51 76

25 51 76

25 51 76

25 51 76

25 51 76

25 51 76

25 51 76

25 51 76

25 51 76

25 51 76

25 51 76

25 51 76

25 51 76

25 51 76

25 51 76

25 51 76

25 51 76

25 51 76

25 51 76

25 51 76

25 51 76

25 51 76

25 51 76

25 51 76

25 51 76

25 51 76

25 51 76

25 51 76

25 51 76

25 51 76

25 51 76

25 51 76

25 51 76

25 51 76

25 51 76

25 51 76

25 51 76

25 51 76

25 51 76

25 51 76

25 51 76

25 51 76

25 51 76

25 51 76

25 51 76

25 51 76

25 51 76

25 51 76

25 51 76

25 51 76

25 51 76

25 51 76

25 51 76

25 51 76

25 51 76

25 51 76

25 51 76

25 51 76

25 51 76

25 51 76

25 51 76

25 51 76

25 51 76

25 51 76

25 51 76

25 51 76

25 51 76

25 51 76

25 51 76

25 51 76

25 51 76

25 51 76

25 51 76

25 51 76

25 51 76

25 51 76

25 51 76

25 51 76

25 51 76

25 51 76

25 51 76

25 51 76

25 51 76

25 51 76

25 51 76

25 51 76

25 51 76

25 51 76

25 51 76

25 51 76

25 51 76

25 51 76

25 51 76

25 51 76

25 51 76

25 51 76

25 51 76

25 51 76

25 51 76

25 51 76

25 51 76

25 51 76

25 51 76

25 51 76

25 51 76

25 51 76

25 51 76

25 51 76

25 51 76

25 51 76

25 51 76

25 51 76

25 51 76

25 51 76

25 51 76

25 51 76

25 51 76

25 51 76

25 51 76

25 51 76

25 51 76

25 51 76

25 51 76

25 51 76

25 51 76

25 51 76

25 51 76

25 51 76

25 51 76

25 51 76

25 51 76

25 51 76

25 51 76

25 51 76

25 51 76

25 51 76

25 51 76

25 51 76

25 51 76

25 51 76

25 51 76

25 51 76

25 51 76

25 51 76

25 51 76

25 51 76

25 51 76

25 51 76

25 51 76

25 51 76

25 51 76

25 51 76

25 51 76

25 51 76

25 51 76

25 51 76

25 51 76

25 51 76

25 51 76

25 51 76

25 51 76

25 51 76

25 51 76

25 51 76

25 51 76

25 51 76

25 51 76

25 51 76

25 51 76

25 51 76

25 51 76

25 51 76

25 51 76

25 51 76

25 51 76

25 51 76

25 51 76

25 51 76

25 51 76

25 51 76

25 51 76

25 51 76

25 51 76

25 51 76

25 51 76

25 51 76

25 51 76

25 51 76

25 51 76

25 51 76

25 51 76

25 51 76

25 51 76

25 51 76

25 51 76

25 51 76

25 51 76

25 51 76

25 51 76

25 51 76

25 51 76

25 51 76

25 51 76

25 51 76

25 51 76

25 51 76

25 51 76

25 51 76

25 51 76

25 51 76

25 51 76

25 51 76

25 51 76

25 51 76

25 51 76

25 51 76

25 51 76

25 51 76

25 51 76

25 51 76

25 51 76

25 51 76

25 51 76

25 51 76

25 51 76

25 51 76

25 51 76

25 51 76

25 51 76

25 51 76

25 51 76

25 51 76

25 51 76

25 51 76

25 51 76

25 51 76

25 51 76

25 51 76

25 51 76

25 51 76

25 51 76

25 51 76

25 51 76

25 51 76

25 51 76

25 51 76

25 51 76

25 51 76

25 51 76

25 51 76

25 51 76

25 51 76

25 51 76

25 51 76

25 51 76

25 51 76

25 51 76

25 51 76

25 51 76

25 51 76

25 51 76

25 51 76

25 51 76

25 51 76

25 51 76

25 51 76

25 51 76

25 51 76

25 51 76

25 51 76

25 51 76

25 51 76

25 51 76

25 51 76

25 51 76

25 51 76

25 51 76

25 51 76

25 51 76

25 51 76

25 51 76

25 51 76

25 51 76

25 51 76

25 51 76

25 51 76

25 51 76

25 51 76

25 51 76

25 51 76

25 51 76

25 51 76

25 51 76

25 51 76

25 51 76

25 51 76

25 51 76

25 51 76

25 51 76

25 51 76

25 51 76

25 51 76

25 51 76

25 51 76

25 51 76

25 51 76

25 51 76

25 51 76

25 51 76

25 51 76

25 51 76

25 51 76

25 51 76

25 51 76

25 51 76

25 51 76

25 51 76

25 51 76

25 51 76

25 51 76

25 51 76

25 51 76

25 51 76

25 51 76

25 51 76

25 51 76

25 51 76

25 51 76

25 51 76

25 51 76

25 51 76

25 51 76

25 51 76

25 51 76

25 51 76

25 51 76

25 51 76

25 51 76

25 51 76

25 51 76

25 51 76

25 51 76

25 51 76

25 51 76

25 51 76

25 51 76

25 51 76

25 51 76

25 51 76

25 51 76

25 51 76

25 51 76

25 51 76

25 51 76

25 51 76

25 51 76

25 51 76

25 51 76

25 51 76

25 51 76

25 51 76

25 51 76

25 51 76

25 51 76

25 51 76

25 51 76

25 51 76

25 51 76

25 51 76

25 51 76

25 51 76

25 51 76

25 51 76

25 51 76

25 51 76

25 51 76

25 51 76

25 51 76

25 51 76

25 51 76

25 51 76

25 51 76

25 51 76

25 51 76

25 51 76

25 51 76

25 51 76

25 51 76

25 51 76

25 51 76

25 51 76

25 51 76

25 51 76

25 51 76

25 51 76

25 51 76

25 51 76

25 51 76

25 51 76

25 51 76

25 51 76

25 51 76

25 51 76

25 51 76

25 51 76

25 51 76

25 51 76

25 51 76

25 51 76

25 51 76

25 51 76

25 51 76

25 51 76

25 51 76

25 51 76

25 51 76

25 51 76

25 51 76

25 51 76

25 51 76

25 51 76

25 51 76

25 51 76

25 51 76

25 51 76

25 51 76

25 51 76

25 51 76

25 51 76

25 51 76

25 51 76

25 51 76

25 51 76

25 51 76

25 51 76

25 51 76

25 51 76

25 51 76

25 51 76

25 51 76

25 51 76

25 51 76

25 51 76

25 51 76

25 51 76

25 51 76

25 51 76

25 51 76

25 51 76

25 51 76

25 51 76

25 51 76

25 51 76

25 51 76

25 51 76

25 51 76

25 51 76

25 51 76

25 51 76

25 51 76

25 51 76

25 51 76

25 51 76

25 51 76

25 51 76

25 51 76

25 51 76

25 51 76

25 51 76

25 51 76

25 51 76

25 51 76

25 51 76

25 51 76

25 51 76

25 51 76

25 51 76

25 51 76

25 51 76

25 51 76

25 51 76

25 51 76

25 51 76

25 51 76

25 51 76

25 51 76

25 51 76

25 51 76

25 51 76

25 51 76

25 51 76

25 51 76

25 51 76

25 51 76

25 51 76

25 51 76

25 51 76

25 51 76

25 51 76

25 51 76

25 51 76

25 51 76

25 51 76

25 51 76

25 51 76

25 51 76

25 51 76

25 51 76

25 51 76

25 51 76

25 51 76

25 51 76

25 51 76

25 51 76

25 51 76

25 51 76

25 51 76

25 51 76

25 51 76

25 51 76

25 51 76

25 51 76

25 51 76

25 51 76

25 51 76

25 51 76

25 51 76

25 51 76

25 51 76

25 51 76

25 51 76

25 51 76

25 51 76

25 51 76

25 51 76

25 51 76

25 51 76

25 51 76

25 51 76

25 51 76

25 51 76

25 51 76

25 51 76

25 51 76

25 51 76

25 51 76

25 51 76

25 51 76

25 51 76

25 51 76

25 51 76

25 51 76

25 51 76

25 51 76

25 51 76

25 51 76

25 51 76

25 51 76

25 51 76

25 51 76

25 51 76

25 51 76

25 51 76

25 51 76

25 51 76

25 51 76

25 51 76

25 51 76

25 51 76

25 51 76

25 51 76

25 51 76

25 51 76

25 51 76

25 51 76

25 51 76

25 51 76

25 51 76

25 51 76

25 51 76

25 51 76

25 51 76

25 51 76

25 51 76

25 51 76

25 51 76

25 51 76

25 51 76

25 51 76

25 51 76

25 51 76

25 51 76

25 51 76

25 51 76

25 51 76

25 51 76

25 51 76

25 51 76

25 51 76

25 51 76

25 51 76

25 51 76

25 51 76

25 51 76

25 51 76

25 51 76

25 51 76

25 51 76

25 51 76

25 51 76

25 51 76

25 51 76

25 51 76

25 51 76

25 51 76

25 51 76

25 51 76

25 51 76

25 51 76

25 51 76

25 51 76

25 51 76

25 51 76

25 51 76

25 51 76

25 51 76

25 51 76

25 51 76

25 51 76

25 51 76

25 51 76

25 51 76

25 51 76

25 51 76

25 51 76

25 51 76

25 51 76

25 51 76

25 51 76

25 51 76

25 51 76

25 51 76

25 51 76

25 51 76

25 51 76

25 51 76

25 51 76

25 51 76

25 51 76

25 51 76

25 51 76

25 51 76

25 51 76

25 51 76

25 51 76

25 51 76

25 51 76

25 51 76

25 51 76

25 51 76

25 51 76

25 51 76

25 51 76

25 51 76

25 51 76

25 51 76

25 51 76

25 51 76

25 51 76

25 51 76

25 51 76

25 51 76

25 51 76

25 51 76

25 51 76

25 51 76

25 51 76

25 51 76

25 51 76

25 51 76

25 51 76

25 51 76

25 51 76

25 51 76

25 51 76

25 51 76

25 51 76

25 51 76

25 51 76

25 51 76

25 51 76

25 51 76

25 51 76

25 51 76

25 51 76

25 51 76

25 51 76

25 51 76

25 51 76

25 51 76

25 51 76

25 51 76

25 51 76

25 51 76

25 51 76

25 51 76

25 51 76

25 51 76

25 51 76

25 51 76

25 51 76

25 51 76

25 51 76

25 51 76

25 51 76

25 51 76

25 51 76

25 51 76

25 51 76

25 51 76

25 51 76

25 51 76

25 51 76

25 51 76

25 51 76

25 51 76

25 51 76

25 51 76

25 51 76

25 51 76

25 51 76

25 51 76

25 51 76

25 51 76

25 51 76

25 51 76

25 51 76

25 51 76

25 51 76

25 51 76

25 51 76

25 51 76

25 51 76

25 51 76

25 51 76

25 51 76

25 51 76

25 51 76

25 51 76

25 51 76

25 51 76

25 51 76

25 51 76

25 51 76

25 51 76

25 51 76

25 51 76

25 51 76

25 51 76

25 51 76

25 51 76

25 51 76

25 51 76

25 51 76

25 51 76

25 51 76

25 51 76

25 51 76

25 51 76

25 51 76

25 51 76

25 51 76

25 51 76

25 51 76

25 51 76

25 51 76

25 51 76

25 51 76

25 51 76

25 51 76

25 51 76

25 51 76

25 51 76

25 51 76

25 51 76

25 51 76

25 51 76

25 51 76

25 51 76

25 51 76

25 51 76

25 51 76

25 51 76

25 51 76

25 51 76

25 51 76

25 51 76

25 51 76

25 51 76

25 51 76

25 51 76

25 51 76

25 51 76

25 51 76

25 51 76

25 51 76

25 51 76

25 51 76

25 51 76

25 51 76

25 51 76

25 51 76

25 51 76

25 51 76

25 51 76

25 51 76

25 51 76

25 51 76

25 51 76

25 51 76

25 51 76

25 51 76

25 51 76

25 51 76

25 51 76

25 51 76

25 51 76

25 51 76

25 51 76

25 51 76

25 51 76

25 51 76

25 51 76

25 51 76

25 51 76

25 51 76

25 51 76

25 51 76

25 51 76

25 51 76

25 51 76

25 51 76

25 51 76

25 51 76

25 51 76

25 51 76

25 51 76

25 51 76

25 51 76

25 51 76

25 51 76

25 51 76

25 51 76

25 51 76

25 51 76

25 51 76

25 51 76

25 51 76

25 51 76

25 51 76

25 51 76

25 51 76

25 51 76

25 51 76

25 51 76

25 51 76

25 51 76

25 51 76

25 51 76

25 51 76

25 51 76

25 51 76

25 51 76

25 51 76

25 51 76

25 51 76

25 51 76

25 51 76

25 51 76

25 51 76

25 51 76

25 51 76

25 51 76

25 51 76

25 51 76

25 51 76

25 51 76

25 51 76

25 51 76

25 51 76

25 51 76

25 51 76

25 51 76

25 51 76

25 51 76

25 51 76

25 51 76

25 51 76

25 51 76

25 51 76

25 51 76

25 51 76

25 51 76

25 51 76

25 51 76

25 51 76

25 51 76

25 51 76

25 51 76

25 51 76

25 51 76

25 51 76

25 51 76

25 51 76

25 51 76

25 51 76

25 51 76

25 51 76

25 51 76

25 51 76

25 51 76

25 51 76

25 51 76

25 51 76

25 51 76

25 51 76

25 51 76

25 51 76

25 51 76

25 51 76

25 51 76

25 51 76

25 51 76

25 51 76

25 51 76

25 51 76

25 51 76

25 51 76

25 51 76

25 51 76

25 51 76

25 51 76

25 51 76

25 51 76

25 51 76

25 51 76

25 51 76

25 51 76

25 51 76

25 51 76

25 51 76

25 51 76

25 51 76

25 51 76

25 51 76

25 51 76

25 51 76

25 51 76

25 51 76

25 51 76

25 51 76

25 51 76

25 51 76

25 51 76

25 51 76

25 51 76

25 51 76

25 51 76

25 51 76

25 51 76

25 51 76

25 51 76

25 51 76

25 51 76

25 51 76

25 51 76

25 51 76

25 51 76

25 51 76

25 51 76

25 51 76

25 51 76

25 51 76

25 51 76

25 51 76

25 51 76

25 51 76

25 51 76

25 51 76

25 51 76

25 51 76

25 51 76

25 51 76

25 51 76

25 51 76

25 51 76

25 51 76

25 51 76

25 51 76

25 51 76

25 51 76

25 51 76

25 51 76

25 51 76

25 51 76

25 51 76

25 51 76

25 51 76

25 51 76

25 51 76

25 51 76

25 51 76

25 51 76

25 51 76

25 51 76

25 51 76

25 51 76

25 51 76

25 51 76

25 51 76

25 51 76

25 51 76

25 51 76

25 51 76

25 51 76

25 51 76

25 51 76

25 51 76

25 51 76

25 51 76

25 51 76

25 51 76

25 51 76

25 51 76

25 51 76

25 51 76

25 51 76

25 51 76

25 51 76

25 51 76

25 51 76

25 51 76

25 51 76

25 51 76

25 51 76

25 51 76

25 51 76

25 51 76

25 51 76

25 51 76

25 51 76

25 51 76

25 51 76

25 51 76

25 51 76

25 51 76

25 51 76

25 51 76

25 51 76

25 51 76

25 51 76

25 51 76

25 51 76

25 51 76

25 51 76

25 51 76

25 51 76

25 51 76

25 51 76

25 51 76

25 51 76

25 51 76

25 51 76

25 51 76

25 51 76

25 51 76

25 51 76

25 51 76

25 51 76

25 51 76

25 51 76

25 51 76

25 51 76

25 51 76

25 51 76

25 51 76

25 51 76

25 51 76

25 51 76

25 51 76

25 51 76

25 51 76

25 51 76

25 51 76

25 51 76

25 51 76

25 51 76

25 51 76

25 51 76

25 51 76

25 51 76

25 51 76

25 51 76

25 51 76

25 51 76

25 51 76

25 51 76

25 51 76

25 51 76

25 51 76

25 51 76

25 51 76

25 51 76

25 51 76

25 51 76

25 51 76

25 51 76

25 51 76

25 51 76

25 51 76

25 51 76

25 51 76

25 51 76

25 51 76

25 51 76

25 51 76

25 51 76

25 51 76

25 51 76

25 51 76

25 51 76

25 51 76

25 51 76

25 51 76

25 51 76

25 51 76

25 51 76

25 51 76

25 51 76

25 51 76

25 51 76

25 51 76

25 51 76

25 51 76

25 51 76

25 51 76

25 51 76

25 51 76

25 51 76

25 51 76

25 51 76

25 51 76

25 51 76

25 51 76

25 51 76

25 51 76

25 51 76

25 51 76

25 51 76

25 51 76

25 51 76

25 51 76

25 51 76

25 51 76

25 51 76

25 51 76

25 51 76

25 51 76

25 51 76

25 51 76

25 51 76

25 51 76

25 51 76

25 51 76

25 51 76

25 51 76

25 51 76

25 51 76

25 51 76

25 51 76

25 51 76

25 51 76

25 51 76

25 51 76

25 51 76

25 51 76

25 51 76

25 51 76

25 51 76

25 51 76

25 51 76

25 51 76

25 51 76

25 51 76

25 51 76

25 51 76

25 51 76

25 51 76

25 51 76

25 51 76

25 51 76

25 51 76

25 51 76

25 51 76

25 51 76

25 51 76

25 51 76

25 51 76

25 51 76

25 51 76

25 51 76

25 51 76

25 51 76

25 51 76

25 51 76

25 51 76

25 51 76

25 51 76

25 51 76

25 51 76

25 51 76

25 51 76

25 51 76

25 51 76

25 51 76

25 51 76

25 51 76

25 51 76

25 51 76

25 51 76

25 51 76

25 51 76

25 51 76

25 51 76

25 51 76

25 51 76

25 51 76

25 51 76

25 51 76

25 51 76

25 51 76

25 51 76

25 51 76

25 51 76

25 51 76

25 51 76

25 51 76

25 51 76

25 51 76

25 51 76

25 51 76

25 51 76

25 51 76

25 51 76

25 51 76

25 51 76

25 51 76

25 51 76

25 51 76

25 51 76

25 51 76

25 51 76

25 51 76

25 51 76

25 51 76

25 51 76

25 51 76

25 51 76

25 51 76

25 51 76

25 51 76

25 51 76

25 51 76

25 51 76

25 51 76

25 51 76

25 51 76

25 51 76

25 51 76

25 51 76

25 51 76

25 51 76

25 51 76

25 51 76

25 51 76

25 51 76

25 51 76

25 51 76

25 51 76

25 51 76

25 51 76

25 51 76

25 51 76

25 51 76

25 51 76

25 51 76

25 51 76

25 51 76

25 51 76

25 51 76

25 51 76

25 51 76

25 51 76

25 51 76

25 51 76

25 51 76

25 51 76

25 51 76

25 51 76

25 51 76

25 51 76

25 51 76

25 51 76

25 51 76

25 51 76

25 51 76

25 51 76

25 51 76

25 51 76

25 51 76

25 51 76

25 51 76

25 51 76

25 51 76

25 51 76

25 51 76

25 51 76

25 51 76

25 51 76

25 51 76

25 51 76

25 51 76

25 51 76

25 51 76

25 51 76

25 51 76

25 51 76

25 51 76

25 51 76

25 51 76

25 51 76

25 51 76

25 51 76

25 51 76

25 51 76

25 51 76

25 51 76

25 51 76

25 51 76

25 51 76

25 51 76

25 51 76

25 51 76

25 51 76

25 51 76

25 51 76

25 51 76

25 51 76

25 51 76

25 51 76

25 51 76

25 51 76

25 51 76

25 51 76

25 51 76

25 51 76

25 51 76

25 51 76

25 51 76

25 51 76

25 51 76

25 51 76

25 51 76

25 51 76

25 51 76

25 51 76

25 51 76

25 51 76

25 51 76

25 51 76

25 51 76

25 51 76

25 51 76

25 51 76

25 51 76

25 51 76

25 51 76

25 51 76

25 51 76

25 51 76

25 51 76

25 51 76

25 51 76

25 51 76

25 51 76

25 51 76

25 51 76

25 51 76

25 51 76

25 51 76

25 51 76

25 51 76

25 51 76

25 51 76

25 51 76

25 51 76

25 51 76

25 51 76

25 51 76

25 51 76

25 51 76

25 51 76

25 51 76

25 51 76

25 51 76

25 51 76

25 51 76

25 51 76

25 51 76

25 51 76

25 51 76

25 51 76

25 51 76

25 51 76

25 51 76

25 51 76

25 51 76

25 51 76

25 51 76

25 51 76

25 51 76

25 51 76

25 51 76

25 51 76

25 51 76

25 51 76

25 51 76

25 51 76

25 51 76

25 51 76

25 51 76

25 51 76

25 51 76

25 51 76

25 51 76

25 51 76

25 51 76

25 51 76

25 51 76

25 51 76

25 51 76

25 51 76

25 51 76

25 51 76

25 51 76

25 51 76

25 51 76

25 51 76

25 51 76

25 51 76

25 51 76

25 51 76

25 51 76

25 51 76

25 51 76

25 51 76

25 51 76

25 51 76

25 51 76

25 51 76

25 51 76

25 51 76

25 51 76

25 51 76

25 51 76

25 51 76

25 51 76

25 51 76

25 51 76

25 51 76

25 51 76

25 51 76

25 51 76

25 51 76

25 51 76

25 51 76

25 51 76

25 51 76

25 51 76

25 51 76

25 51 76

25 51 76

25 51 76

25 51 76

25 51 76

25 51 76

25 51 76

25 51 76

25 51 76

25 51 76

25 51 76

25 51 76

25 51 76

25 51 76

25 51 76

25 51 76

25 51 76

25 51 76

25 51 76

25 51 76

25 51 76

25 51 76

25 51 76

25 51 76

25 51 76

25 51 76

25 51 76

25 51 76

25 51 76

25 51 76

25 51 76

25 51 76

25 51 76

25 51 76

25 51 76

25 51 76

25 51 76

25 51 76

25 51 76

25 51 76

25 51 76

25 51 76

25 51 76

25 51 76

25 51 76

25 51 76

25 51 76

25 51 76

25 51 76

25 51 76

25 51 76

25 51 76

25 51 76

25 51 76

25 51 76

25 51 76

25 51 76

25 51 76

25 51 76

25 51 76

25 51 76

25 51 76

25 51 76

25 51 76

25 51 76

25 51 76

25 51 76

25 51 76

25 51 76

25 51 76

25 51 76

25 51 76

25 51 76

25 51 76

25 51 76

25 51 76

25 51 76

25 51 76

25 51 76

25 51 76

25 51 76

25 51 76

25 51 76

25 51 76

25 51 76

25 51 76

25 51 76

25 51 76

25 51 76

25 51 76

25 51 76

25 51 76

25 51 76

25 51 76

25 51 76

25 51 76

25 51 76

25 51 76

25 51 76

25 51 76

25 51 76

25 51 76

25 51 76

25 51 76

25 51 76

25 51 76

25 51 76

25 51 76

25 51 76

25 51 76

25 51 76

25 51 76

25 51 76

25 51 76

25 51 76

25 51 76

25 51 76

25 51 76

25 51 76

25 51 76

25 51 76

25 51 76

25 51 76

25 51 76

25 51 76

25 51 76

25 51 76

25 51 76

25 51 76

25 51 76

25 51 76

25 51 76

25 51 76

25 51 76

25 51 76

25 51 76

25 51 76

25 51 76

25 51 76

25 51 76

25 51 76

25 51 76

25 51 76

25 51 76

25 51 76

25 51 76

25 51 76

25 51 76

25 51 76

25 51 76

25 51 76

25 51 76

25 51 76

25 51 76

25 51 76

25 51 76

25 51 76

25 51 76

25 51 76

25 51 76

25 51 76

25 51 76

25 51 76

25 51 76

25 51 76

25 51 76

25 51 76

25 51 76

25 51 76

25 51 76

25 51 76

25 51 76

25 51 76

25 51 76

25 51 76

25 51 76

25 51 76

25 51 76

25 51 76

25 51 76

25 51 76

25 51 76

25 51 76

25 51 76

25 51 76

25 51 76

25 51 76

25 51 76

25 51 76

25 51 76

25 51 76

25 51 76

25 51 76

25 51 76

25 51 76

25 51 76

25 51 76

25 51 76

25 51 76

25 51 76

25 51 76

25 51 76

25 51 76

25 51 76

25 51 76

25 51 76

25 51 76

25 51 76

25 51 76

25 51 76

25 51 76

25 51 76

25 51 76

25 51 76

25 51 76

25 51 76

25 51 76

25 51 76

25 51 76

25 51 76

25 51 76

25 51 76

25 51 76

25 51 76

25 51 76

25 51 76

25 51 76

25 51 76

25 51 76

25 51 76

25 51 76

25 51 76

25 51 76

25 51 76

25 51 76

25 51 76

25 51 76

25 51 76

25 51 76

25 51 76

25 51 76

25 51 76

25 51 76

25 51 76

25 51 76

25 51 76

25 51 76

25 51 76

25 51 76

25 51 76

25 51 76

25 51 76

25 51 76

25 51 76

25 51 76

25 51 76

25 51 76

25 51 76

25 51 76

25 51 76

25 51 76

25 51 76

25 51 76

25 51 76

25 51 76

25 51 76

25 51 76

25 51 76

25 51 76

25 51 76

25 51 76

25 51 76

25 51 76

25 51 76

25 51 76

25 51 76

25 51 76

25 51 76

25 51 76

25 51 76

25 51 76

25 51 76

25 51 76

25 51 76

25 51 76

25 51 76

25 51 76

25 51 76

25 51 76

25 51 76

25 51 76

25 51 76

25 51 76

25 51 76

25 51 76

25 51 76

25 51 76

25 51 76

25 51 76

25 51 76

25 51 76

25 51 76

25 51 76

25 51 76

25 51 76

25 51 76

25 51 76

25 51 76

25 51 76

25 51 76

25 51 76

25 51 76

25 51 76

25 51 76

25 51 76

25 51 76

25 51 76

25 51 76

25 51 76

25 51 76

25 51 76

25 51 76

25 51 76

25 51 76

25 51 76

25 51 76

25 51 76

25 51 76

25 51 76

25 51 76

25 51 76

25 51 76

25 51 76

25 51 76

25 51 76

25 51 76

25 51 76

25 51 76

25 51 76

25 51 76

25 51 76

25 51 76

25 51 76

25 51 76

25 51 76

25 51 76

25 51 76

25 51 76

25 51 76

25 51 76

25 51 76

25 51 76

25 51 76

25 51 76

25 51 76

25 51 76

25 51 76

25 51 76

25 51 76

25 51 76

25 51 76

25 51 76

25 51 76

25 51 76

25 51 76

25 51 76

25 51 76

25 51 76

25 51 76

25 51 76

25 51 76

25 51 76

25 51 76

25 51 76

25 51 76

25 51 76

25 51 76

25 51 76

25 51 76

25 51 76

25 51 76

25 51 76

25 51 76

25 51 76

25 51 76

25 51 76

25 51 76

25 51 76

25 51 76

25 51 76

25 51 76

25 51 76

25 51 76

25 51 76

25 51 76

25 51 76

25 51 76

25 51 76

25 51 76

25 51 76

25 51 76

25 51 76

25 51 76

25 51 76

25 51 76

25 51 76

25 51 76

25 51 76

25 51 76

25 51 76

25 51 76

25 51 76

25 51 76

25 51 76

25 51 76

25 51 76

25 51 76

25 51 76

25 51 76

25 51 76

25 51 76

25 51 76

25 51 76

25 51 76

25 51 76

25 51 76

25 51 76

25 51 76

25 51 76

25 51 76

25 51 76

25 51 76

25 51 76

25 51 76

25 51 76

25 51 76

25 51 76

25 51 76

25 51 76

25 51 76

25 51 76

25 51 76

25 51 76

25 51 76

25 51 76

25 51 76

25 51 76

25 51 76

25 51 76

25 51 76

25 51 76

25 51 76

25 51 76

25 51 76

25 51 76

25 51 76

25 51 76

25 51 76

25 51 76

25 51 76

25 51 76

25 51 76

25 51 76

25 51 76

25 51 76

25 51 76

25 51 76

25 51 76

25 51 76

25 51 76

25 51 76

25 51 76

25 51 76

25 51 76

25 51 76

25 51 76

25 51 76

25 51 76

25 51 76

25 51 76

25 51 76

25 51 76

25 51 76

25 51 76

25 51 76

25 51 76

25 51 76

25 51 76

25 51 76

25 51 76

25 51 76

25 51 76

25 51 76

25 51 76

25 51 76

25 51 76

25 51 76

25 51 76

25 51 76

25 51 76

25 51 76

25 51 76

25 51 76

25 51 76

25 51 76

25 51 76

25 51 76

25 51 76

25 51 76

25 51 76

25 51 76

25 51 76

25 51 76

25 51 76

25 51 76

25 51 76

25 51 76

25 51 76

25 51 76

25 51 76

25 51 76

25 51 76

25 51 76

25 51 76

25 51 76

25 51 76

25 51 76

25 51 76

25 51 76

25 51 76

25 51 76

25 51 76

25 51 76

25 51 76

25 51 76

25 51 76

25 51 76

25 51 76

25 51 76

25 51 76

25 51 76

25 51 76

25 51 76

25 51 76

25 51 76

25 51 76

25 51 76

25 51 76

25 51 76

25 51 76

25 51 76

25 51 76

25 51 76

25 51 76

25 51 76

25 51 76

25 51 76

25 51 76

25 51 76

25 51 76

25 51 76

25 51 76

25 51 76

25 51 76

25 51 76

25 51 76

25 51 76

25 51 76

25 51 76

25 51 76

25 51 76

25 51 76

25 51 76

25 51 76

25 51 76

25 51 76

25 51 76

25 51 76

25 51 76

25 51 76

25 51 76

25 51 76

25 51 76

25 51 76

25 51 76

25 51 76

25 51 76

25 51 76

25 51 76

25 51 76

25 51 76

25 51 76

25 51 76

25 51 76

25 51 76

25 51 76

25 51 76

25 51 76

25 51 76

25 51 76

25 51 76

25 51 76

25 51 76

25 51 76

25 51 76

25 51 76

25 51 76

25 51 76

25 51 76

25 51 76

25 51 76

25 51 76

25 51 76

25 51 76

25 51 76

25 51 76

25 51 76

25 51 76

25 51 76

25 51 76

25 51 76

25 51 76

25 51 76

25 51 76

25 51 76

25 51 76

25 51 76

25 51 76

25 51 76

25 51 76

25 51 76

25 51 76

25 51 76

25 51 76

25 51 76

25 51 76

25 51 76

25 51 76

25 51 76

25 51 76

25 51 76

25 51 76

25 51 76

25 51 76

25 51 76

25 51 76

25 51 76

25 51 76

25 51 76

25 51 76

25 51 76

25 51 76

25 51 76

25 51 76

25 51 76

25 51 76

25 51 76

25 51 76

25 51 76

25 51 76

25 51 76

25 51 76

25 51 76

25 51 76

25 51 76

25 51 76

25 51 76

25 51 76

25 51 76

25 51 76

25 51 76

25 51 76

25 51 76

25 51 76

25 51 76

25 51 76

25 51 76

25 51 76

25 51 76

25 51 76

25 51 76

25 51 76

25 51 76

25 51 76

25 51 76

25 51 76

25 51 76

25 51 76

25 51 76

25 51 76

25 51 76

25 51 76

25 51 76

25 51 76

25 51 76

25 51 76

25 51 76

25 51 76

25 51 76

25 51 76

25 51 76

25 51 76

25 51 76

25 51 76

25 51 76

25 51 76

25 51 76

25 51 76

25 51 76

25 51 76

25 51 76

25 51 76

25 51 76

25 51 76

25 51 76

25 51 76

25 51 76

25 51 76

25 51 76

25 51 76

25 51 76

25 51 76

25 51 76

25 51 76

25 51 76

25 51 76

25 51 76

25 51 76

25 51 76

25 51 76

25 51 76

25 51 76

25 51 76

25 51 76

25 51 76

25 51 76

25 51 76

25 51 76

25 51 76

25 51 76

25 51 76

25 51 76

25 51 76

25 51 76

25 51 76

25 51 76

25 51 76

25 51 76

25 51 76

25 51 76

25 51 76

25 51 76

25 51 76

25 51 76

25 51 76

25 51 76

25 51 76

25 51 76

25 51 76

25 51 76

25 51 76

25 51 76

25 51 76

25 51 76

25 51 76

25 51 76

25 51 76

25 51 76

25 51 76

25 51 76

25 51 76

25 51 76

25 51 76

25 51 76

25 51 76

25 51 76

25 51 76

25 51 76

25 51 76

25 51 76

25 51 76

25 51 76

25 51 76

25 51 76

25 51 76

25 51 76

25 51 76

25 51 76

25 51 76

25 51 76

25 51 76

25 51 76

25 51 76

25 51 76

25 51 76

25 51 76

25 51 76

25 51 76

25 51 76

25 51 76

25 51 76

25 51 76

25 51 76

25 51 76

25 51 76

25 51 76

25 51 76

25 51 76

25 51 76

25 51 76

25 51 76

25 51 76

25 51 76

25 51 76

25 51 76

25 51 76

25 51 76

25 51 76

25 51 76

25 51 76

25 51 76

25 51 76

25 51 76

25 51 76

25 51 76

25 51 76

25 51 76

25 51 76

25 51 76

25 51 76

25 51 76

25 51 76

25 51 76

25 51 76

25 51 76

25 51 76

25 51 76

25 51 76

25 51 76

25 51 76

25 51 76

25 51 76

25 51 76

25 51 76

25 51 76

25 51 76

25 51 76

25 51 76

25 51 76

25 51 76

25 51 76

25 51 76

25 51 76

25 51 76

25 51 76

25 51 76

25 51 76

25 51 76

25 51 76

25 51 76

25 51 76

25 51 76

25 51 76

25 51 76

25 51 76

25 51 76

25 51 76

25 51 76

25 51 76

25 51 76

25 51 76

25 51 76

25 51 76

25 51 76

25 51 76

25 51 76

25 51 76

25 51 76

25 51 76

25 51 76

25 51 76

25 51 76

25 51 76

25 51 76

25 51 76

25 51 76

25 51 76

25 51 76

25 51 76

25 51 76

25 51 76

25 51 76

25 51 76

25 51 76

25 51 76

25 51 76

25 51 76

25 51 76

25 51 76

25 51 76

25 51 76

25 51 76

25 51 76

25 51 76

25 51 76

25 51 76

25 51 76

25 51 76

25 51 76

25 51 76

25 51 76

25 51 76

25 51 76

25 51 76

25 51 76

25 51 76

25 51 76

25 51 76

25 51 76

25 51 76

25 51 76

25 51 76

25 51 76

25 51 76

25 51 76

25 51 76

25 51 76

25 51 76

25 51 76

25 51 76

25 51 76

25 51 76

25 51 76

25 51 76

25 51 76

25 51 76

25 51 76

25 51 76

25 51 76

25 51 76

25 51 76

25 51 76

25 51 76

25 51 76

25 51 76

25 51 76

25 51 76

25 51 76

25 51 76

25 51 76

25 51 76

25 51 76

25 51 76

25 51 76

25 51 76

25 51 76

25 51 76

25 51 76

25 51 76

25 51 76

25 51 76

25 51 76

25 51 76

25 51 76

25 51 76

25 51 76

25 51 76

25 51 76

25 51 76

25 51 76

25 51 76

25 51 76

25 51 76

25 51 76

25 51 76

25 51 76

25 51 76

25 51 76

25 51 76

25 51 76

25 51 76

25 51 76

25 51 76

25 51 76

25 51 76

25 51 76

25 51 76

25 51 76

25 51 76

25 51 76

25 51 76

25 51 76

25 51 76

25 51 76

25 51 76

25 51 76

25 51 76

25 51 76

25 51 76

25 51 76

25 51 76

25 51 76

25 51 76

25 51 76

25 51 76

25 51 76

25 51 76

25 51 76

25 51 76

25 51 76

25 51 76

25 51 76

25 51 76

25 51 76

25 51 76

25 51 76

25 51 76

25 51 76

25 51 76

25 51 76

25 51 76

25 51 76

25 51 76

25 51 76

25 51 76

25 51 76

25 51 76

25 51 76

25 51 76

25 51 76

25 51 76

25 51 76

25 51 76

25 51 76

25 51 76

25 51 76

25 51 76

25 51 76

25 51 76

25 51 76

25 51 76

25 51 76

25 51 76

25 51 76

25 51 76

25 51 76

25 51 76

25 51 76

25 51 76

25 51 76

25 51 76

25 51 76

25 51 76

25 51 76

25 51 76

25 51 76

25 51 76

25 51 76

25 51 76

25 51 76

25 51 76

25 51 76

25 51 76

25 51 76

25 51 76

25 51 76

25 51 76

25 51 76

25 51 76

25 51 76

25 51 76

25 51 76

25 51 76

25 51 76

25 51 76

25 51 76

25 51 76

25 51 76

25 51 76

25 51 76

25 51 76

25 51 76

25 51 76

25 51 76

25 51 76

25 51 76

25 51 76

25 51 76

25 51 76

25 51 76

25 51 76

25 51 76

25 51 76

25 51 76

25 51 76

25 51 76

25 51 76

25 51 76

25 51 76

25 51 76

25 51 76

25 51 76

25 51 76

25 51 76

25 51 76

25 51 76

25 51 76

25 51 76

25 51 76

25 51 76

25 51 76

25 51 76

25 51 76

25 51 76

25 51 76

25 51 76

25 51 76

25 51 76

25 51 76

25 51 76

25 51 76

25 51 76

25 51 76

25 51 76

25 51 76

25 51 76

25 51 76

25 51 76

25 51 76

25 51 76

25 51 76

25 51 76

25 51 76

25 51 76

25 51 76

25 51 76

25 51 76

25 51 76

25 51 76

25 51 76

25 51 76

25 51 76

25 51 76

25 51 76

25 51 76

25 51 76

25 51 76

25 51 76

25 51 76

25 51 76

25 51 76

25 51 76

25 51 76

25 51 76

25 51 76

25 51 76

25 51 76

25 51 76

25 51 76

25 51 76

25 51 76

25 51 76

25 51 76

25 51 76

25 51 76

25 51 76

25 51 76

25 51 76

25 51 76

25 51 76

25 51 76

25 51 76

25 51 76

25 51 76

25 51 76

25 51 76

25 51 76

25 51 76

25 51 76

25 51 76

25 51 76

25 51 76

25 51 76

25 51 76

25 51 76

25 51 76

25 51 76

25 51 76

25 51 76

25 51 76

25 51 76

25 51 76

25 51 76

25 51 76

25 51 76

25 51 76

25 51 76

25 51 76

25 51 76

25 51 76

25 51 76

25 51 76

25 51 76

25 51 76

25 51 76

25 51 76

25 51 76

25 51 76

25 51 76

25 51 76

25 51 76

25 51 76

25 51 76

25 51 76

25 51 76

25 51 76

25 51 76

25 51 76

25 51 76

25 51 76

25 51 76

25 51 76

25 51 76

25 51 76

25 51 76

25 51 76

25 51 76

25 51 76

25 51 76

25 51 76

25 51 76

25 51 76

25 51 76

25 51 76

25 51 76

25 51 76

25 51 76

25 51 76

25 51 76

25 51 76

25 51 76

25 51 76

25 51 76

25 51 76

25 51 76

25 51 76

25 51 76

25 51 76

25 51 76

25 51 76

25 51 76

25 51 76

25 51 76

25 51 76

25 51 76

25 51 76

25 51 76

25 51 76

25 51 76

25 51 76

25 51 76

25 51 76

25 51 76

25 51 76

25 51 76

25 51 76

25 51 76

25 51 76

25 51 76

25 51 76

25 51 76

25 51 76

25 51 76

25 51 76

25 51 76

25 51 76

25 51 76

25 51 76

25 51 76

25 51 76

25 51 76

25 51 76

25 51 76

25 51 76

25 51 76

25 51 76

25 51 76

25 51 76

25 51 76

25 51 76

25 51 76

25 51 76

25 51 76

25 51 76

25 51 76

25 51 76

25 51 76

25 51 76

25 51 76

25 51 76

25 51 76

25 51 76

25 51 76

25 51 76

25 51 76

25 51 76

25 51 76

25 51 76

25 51 76

25 51 76

25 51 76

25 51 76

25 51 76

25 51 76

25 51 76

25 51 76

25 51 76

25 51 76

25 51 76

25 51 76

25 51 76

25 51 76

25 51 76

25 51 76

25 51 76

25 51 76

25 51 76

25 51 76

25 51 76

25 51 76

25 51 76

25 51 76

25 51 76

25 51 76

25 51 76

25 51 76

25 51 76

25 51 76

25 51 76

25 51 76

25 51 76

25 51 76

25 51 76

25 51 76

25 51 76

25 51 76

25 51 76

25 51 76

25 51 76

25 51 76

25 51 76

25 51 76

25 51 76

25 51 76

25 51 76

25 51 76

25 51 76

25 51 76

25 51 76

25 51 76

25 51 76

25 51 76

25 51 76

25 51 76

25 51 76

25 51 76

25 51 76

25 51 76

25 51 76

25 51 76

25 51 76

25 51 76

25 51 76

25 51 76

25 51 76

25 51 76

25 51 76

25 51 76

25 51 76

25 51 76

25 51 76

25 51 76

25 51 76

25 51 76

25 51 76

25 51 76

25 51 76

25 51 76

25 51 76

25 51 76

25 51 76

25 51 76

25 51 76

25 51 76

25 51 76

25 51 76

25 51 76

25 51 76

25 51 76

25 51 76

25 51 76

25 51 76

25 51 76

25 51 76

25 51 76

25 51 76

25 51 76

25 51 76

25 51 76

25 51 76

25 51 76

25 51 76

25 51 76

25 51 76

25 51 76

25 51 76

25 51 76

25 51 76

25 51 76

25 51 76

25 51 76

25 51 76

25 51 76

25 51 76

25 51 76

25 51 76

25 51 76

25 51 76

25 51 76

25 51 76

25 51 76

25 51 76

25 51 76

25 51 76

25 51 76

25 51 76

25 51 76

25 51 76

25 51 76

25 51 76

25 51 76

25 51 76

25 51 76

25 51 76

25 51 76

25 51 76

25 51 76

25 51 76

25 51 76

25 51 76

25 51 76

25 51 76

25 51 76

25 51 76

25 51 76

25 51 76

25 51 76

25 51 76

25 51 76

25 51 76

25 51 76

25 51 76

25 51 76

25 51 76

25 51 76

25 51 76

25 51 76

25 51 76

25 51 76

25 51 76

25 51 76

25 51 76

25 51 76

25 51 76

25 51 76

25 51 76

25 51 76

25 51 76

25 51 76

25 51 76

25 51 76

25 51 76

25 51 76

25 51 76

25 51 76

25 51 76

25 51 76

25 51 76

25 51 76

25 51 76

25 51 76

25 51 76

25 51 76

25 51 76

25 51 76

25 51 76

25 51 76

25 51 76

25 51 76

25 51 76

25 51 76

25 51 76

25 51 76

25 51 76

25 51 76

25 51 76

25 51 76

25 51 76

25 51 76

25 51 76

25 51 76

25 51 76

25 51 76

25 51 76

25 51 76

25 51 76

25 51 76

25 51 76

25 51 76

25 51 76

25 51 76

25 51 76

25 51 76

25 51 76

25 51 76

25 51 76

25 51 76

25 51 76

25 51 76

25 51 76

25 51 76

25 51 76

25 51 76

25 51 76

25 51 76

25 51 76

25 51 76

25 51 76

25 51 76

25 51 76

25 51 76

25 51 76

25 51 76

25 51 76

25 51 76

25 51 76

25 51 76

25 51 76

25 51 76

25 51 76

25 51 76

25 51 76

25 51 76

25 51 76

25 51 76

25 51 76

25 51 76

25 51 76

25 51 76

25 51 76

25 51 76

25 51 76

25 51 76

25 51 76

25 51 76

25 51 76

25 51 76

25 51 76

25 51 76

25 51 76

25 51 76

25 51 76

25 51 76

25 51 76

25 51 76

25 51 76

25 51 76

25 51 76

25 51 76

25 51 76

25 51 76

25 51 76

25 51 76

25 51 76

25 51 76

25 51 76

25 51 76

25 51 76

25 51 76

25 51 76

25 51 76

25 51 76

25 51 76

25 51 76

25 51 76

25 51 76

25 51 76

25 51 76

25 51 76

25 51 76

25 51 76

25 51 76

25 51 76

25 51 76

25 51 76

25 51 76

25 51 76

25 51 76

25 51 76

25 51 76

25 51 76

25 51 76

25 51 76

25 51 76

25 51 76

25 51 76

25 51 76

25 51 76

25 51 76

25 51 76

25 51 76

25 51 76

25 51 76

25 51 76

25 51 76

25 51 76

25 51 76

25 51 76

25 51 76

25 51 76

25 51 76

25 51 76

25 51 76

25 51 76

25 51 76

25 51 76

25 51 76

25 51 76

25 51 76

25 51 76

25 51 76

25 51 76

25 51 76

25 51 76

25 51 76

25 51 76

25 51 76

25 51 76

25 51 76

25 51 76

25 51 76

25 51 76

25 51 76

25 51 76

25 51 76

25 51 76

25 51 76

25 51 76

25 51 76

25 51 76

25 51 76

25 51 76

25 51 76

25 51 76

25 51 76

25 51 76

25 51 76

25 51 76

25 51 76

25 51 76

25 51 76

25 51 76

25 51 76

25 51 76

25 51 76

25 51 76

25 51 76

25 51 76

25 51 76

25 51 76

25 51 76

25 51 76

25 51 76

25 51 76

25 51 76

25 51 76

25 51 76

25 51 76

25 51 76

25 51 76

25 51 76

25 51 76

25 51 76

25 51 76

25 51 76

25 51 76

25 51 76

25 51 76

25 51 76

25 51 76

25 51 76

25 51 76

25 51 76

25 51 76

25 51 76

25 51 76

25 51 76

25 51 76

25 51 76

25 51 76

25 51 76

25 51 76

25 51 76

25 51 76

25 51 76

25 51 76

25 51 76

25 51 76

25 51 76

25 51 76

25 51 76

25 51 76

25 51 76

25 51 76

25 51 76

25 51 76

25 51 76

25 51 76

25 51 76

25 51 76

25 51 76

25 51 76

25 51 76

25 51 76

25 51 76

25 51 76

25 51 76

25 51 76

25 51 76

25 51 76

25 51 76

25 51 76

25 51 76

25 51 76

25 51 76

25 51 76

25 51 76

25 51 76

25 51 76

25 51 76

25 51 76

25 51 76

25 51 76

25 51 76

25 51 76

25 51 76

25 51 76

25 51 76

25 51 76

25 51 76

25 51 76

25 51 76

25 51 76

25 51 76

25 51 76

25 51 76

25 51 76

25 51 76

25 51 76

25 51 76

25 51 76

25 51 76

25 51 76

25 51 76

25 51 76

25 51 76

25 51 76

25 51 76

25 51 76

25 51 76

25 51 76

25 51 76

25 51 76

25 51 76

25 51 76

25 51 76

25 51 76

25 51 76

25 51 76

25 51 76

25 51 76

25 51 76

25 51 76

25 51 76

25 51 76

25 51 76

25 51 76

25 51 76

25 51 76

25 51 76

25 51 76

25 51 76

25 51 76

25 51 76

25 51 76

25 51 76

25 51 76

25 51 76

25 51 76

25 51 76

25 51 76

25 51 76

25 51 76

25 51 76

25 51 76

25 51 76

25 51 76

25 51 76

25 51 76

25 51 76

25 51 76

25 51 76

25 51 76

25 51 76

25 51 76

25 51 76

25 51 76

25 51 76

25 51 76

25 51 76

25 51 76

25 51 76

25 51 76

25 51 76

25 51 76

25 51 76

25 51 76

25 51 76

25 51 76

25 51 76

25 51 76

25 51 76

25 51 76

25 51 76

25 51 76

25 51 76

25 51 76

25 51 76

25 51 76

25 51 76

25 51 76

25 51 76

25 51 76

25 51 76

25 51 76

25 51 76

25 51 76

25 51 76

25 51 76

25 51 76

25 51 76

25 51 76

25 51 76

25 51 76

25 51 76

25 51 76

25 51 76

25 51 76

25 51 76

25 51 76

25 51 76

25 51 76

25 51 76

25 51 76

25 51 76

25 51 76

25 51 76

25 51 76

25 51 76

25 51 76

25 51 76

25 51 76

25 51 76

25 51 76

25 51 76

25 51 76

25 51 76

25 51 76

25 51 76

25 51 76

25 51 76

25 51 76

25 51 76

25 51 76

25 51 76

25 51 76

25 51 76

25 51 76

25 51 76

25 51 76

25 51 76

25 51 76

25 51 76

25 51 76

25 51 76

25 51 76

25 51 76

25 51 76

25 51 76

25 51 76

25 51 76

25 51 76

25 51 76

25 51 76

25 51 76

25 51 76

25 51 76

25 51 76

25 51 76

25 51 76

25 51 76

25 51 76

25 51 76

25 51 76

25 51 76

25 51 76

25 51 76

25 51 76

25 51 76

25 51 76

25 51 76

25 51 76

25 51 76

25 51 76

25 51 76

25 51 76

25 51 76

25 51 76

25 51 76

25 51 76

25 51 76

25 51 76

25 51 76

25 51 76

25 51 76

25 51 76

25 51 76

25 51 76

25 51 76

25 51 76

25 51 76

25 51 76

25 51 76

25 51 76

25 51 76

25 51 76

25 51 76

25 51 76

25 51 76

25 51 76

25 51 76

25 51 76

25 51 76

25 51 76

25 51 76

25 51 76

25 51 76

25 51 76

25 51 76

25 51 76

25 51 76

25 51 76

25 51 76

25 51 76

25 51 76

25 51 76

25 51 76

25 51 76

25 51 76

25 51 76

25 51 76

25 51 76

25 51 76

25 51 76

25 51 76

25 51 76

25 51 76

25 51 76

25 51 76

25 51 76

25 51 76

25 51 76

25 51 76

25 51 76

25 51 76

25 51 76

25 51 76

25 51 76

25 51 76

25 51 76

25 51 76

25 51 76

25 51 76

25 51 76

25 51 76

25 51 76

25 51 76

25 51 76

25 51 76

25 51 76

25 51 76

25 51 76

25 51 76

25 51 76

25 51 76

25 51 76

25 51 76

25 51 76

25 51 76

25 51 76

25 51 76

25 51 76

25 51 76

25 51 76

25 51 76

25 51 76

25 51 76

25 51 76

25 51 76

25 51 76

25 51 76

25 51 76

25 51 76

25 51 76

25 51 76

25 51 76

25 51 76

25 51 76

25 51 76

25 51 76

25 51 76

25 51 76

25 51 76

25 51 76

25 51 76

25 51 76

25 51 76

25 51 76

25 51 76

25 51 76

25 51 76

25 51 76

25 51 76

25 51 76

25 51 76

25 51 76

25 51 76

25 51 76

25 51 76

25 51 76

25 51 76

25 51 76

25 51 76

25 51 76

25 51 76

25 51 76

25 51 76

25 51 76

25 51 76

25 51 76

25 51 76

25 51 76

25 51 76

25 51 76

25 51 76

25 51 76

25 51 76

25 51 76

25 51 76

25 51 76

25 51 76

25 51 76

25 51 76

25 51 76

25 51 76

25 51 76

25 51 76

25 51 76

25 51 76

25 51 76

25 51 76

25 51 76

25 51 76

25 51 76

25 51 76

25 51 76

25 51 76

25 51 76

25 51 76

25 51 76

25 51 76

25 51 76

25 51 76

25 51 76

25 51 76

25 51 76

25 51 76

25 51 76

25 51 76

25 51 76

25 51 76

25 51 76

25 51 76

25 51 76

25 51 76

25 51 76

25 51 76

25 51 76

25 51 76

25 51 76

25 51 76

25 51 76

25 51 76

25 51 76

25 51 76

25 51 76

25 51 76

25 51 76

25 51 76

25 51 76

25 51 76

25 51 76

25 51 76

25 51 76

25 51 76

25 51 76

25 51 76

25 51 76

25 51 76

25 51 76

25 51 76

25 51 76

25 51 76

25 51 76

25 51 76

25 51 76

25 51 76

25 51 76

25 51 76

25 51 76

25 51 76

25 51 76

25 51 76

25 51 76

25 51 76

25 51 76

25 51 76

25 51 76

25 51 76

25 51 76

25 51 76

25 51 76

25 51 76

25 51 76

25 51 76

25 51 76

25 51 76

25 51 76

25 51 76

25 51 76

25 51 76

25 51 76

25 51 76

25 51 76

25 51 76

25 51 76

25 51 76

25 51 76

25 51 76

25 51 76

25 51 76

25 51 76

25 51 76

25 51 76

25 51 76

25 51 76

25 51 76

25 51 76

25 51 76

25 51 76

25 51 76

25 51 76

25 51 76

25 51 76

25 51 76

25 51 76

25 51 76

25 51 76

25 51 76

25 51 76

25 51 76

25 51 76

25 51 76

25 51 76

25 51 76

25 51 76

25 51 76

25 51 76

25 51 76

25 51 76

25 51 76

25 51 76

25 51 76

25 51 76

25 51 76

25 51 76

25 51 76

25 51 76

25 51 76

25 51 76

25 51 76

25 51 76

25 51 76

25 51 76

25 51 76

25 51 76

25 51 76

25 51 76

25 51 76

25 51 76

25 51 76

25 51 76

25 51 76

25 51 76

25 51 76

25 51 76

25 51 76

25 51 76

25 51 76

25 51 76

25 51 76

25 51 76

25 51 76

25 51 76

25 51 76

25 51 76

25 51 76

25 51 76

25 51 76

25 51 76

25 51 76

25 51 76

25 51 76

25 51 76

25 51 76

25 51 76

25 51 76

25 51 76

25 51 76

25 51 76

25 51 76

25 51 76

25 51 76

25 51 76

25 51 76

25 51 76

25 51 76

25 51 76

25 51 76

25 51 76

25 51 76

25 51 76

25 51 76

25 51 76

25 51 76

25 51 76

25 51 76

25 51 76

25 51 76

25 51 76

25 51 76

25 51 76

25 51 76

25 51 76

25 51 76

25 51 76

25 51 76

25 51 76

25 51 76

25 51 76

25 51 76

25 51 76

25 51 76

25 51 76

25 51 76

25 51 76

25 51 76

25 51 76

25 51 76

25 51 76

25 51 76

25 51 76

25 51 76

25 51 76

25 51 76

25 51 76

25 51 76

25 51 76

25 51 76

25 51 76

25 51 76

25 51 76

25 51 76

25 51 76

25 51 76

25 51 76

25 51 76

25 51 76

25 51 76

25 51 76

25 51 76

25 51 76

25 51 76

25 51 76

25 51 76

25 51 76

25 51 76

25 51 76

25 51 76

25 51 76

25 51 76

25 51 76

25 51 76

25 51 76

25 51 76

25 51 76

25 51 76

25 51 76

25 51 76

25 51 76

25 51 76

25 51 76

25 51 76

25 51 76

25 51 76

25 51 76

25 51 76

25 51 76

25 51 76

25 51 76

25 51 76

25 51 76

25 51 76

25 51 76

25 51 76

25 51 76

25 51 76

25 51 76

25 51 76

25 51 76

25 51 76

25 51 76

25 51 76

25 51 76

25 51 76

25 51 76

25 51 76

25 51 76

25 51 76

25 51 76

25 51 76

25 51 76

25 51 76

25 51 76

25 51 76

25 51 76

25 51 76

25 51 76

25 51 76

25 51 76

25 51 76

25 51 76

25 51 76

25 51 76

25 51 76

25 51 76

25 51 76

25 51 76

25 51 76

25 51 76

25 51 76

25 51 76

25 51 76

25 51 76

25 51 76

25 51 76

25 51 76

25 51 76

25 51 76

25 51 76

25 51 76

25 51 76

25 51 76

25 51 76

25 51 76

25 51 76

25 51 76

25 51 76

25 51 76

25 51 76

25 51 76

25 51 76

25 51 76

25 51 76

25 51 76

25 51 76

25 51 76

25 51 76

25 51 76

25 51 76

25 51 76

25 51 76

25 51 76

25 51 76

25 51 76

25 51 76

25 51 76

25 51 76

25 51 76

25 51 76

25 51 76

25 51 76

25 51 76

25 51 76

25 51 76

25 51 76

25 51 76

25 51 76

25 51 76

25 51 76

25 51 76

25 51 76

25 51 76

25 51 76

25 51 76

25 51 76

25 51 76

25 51 76

25 51 76

25 51 76

25 51 76

25 51 76

25 51 76

25 51 76

25 51 76

25 51 76

25 51 76

25 51 76

25 51 76

25 51 76

25 51 76

25 51 76

25 51 76

25 51 76

25 51 76

25 51 76

25 51 76

25 51 76

25 51 76

25 51 76

25 51 76

25 51 76

25 51 76

25 51 76

25 51 76

25 51 76

25 51 76

25 51 76

25 51 76

25 51 76

25 51 76

25 51 76

25 51 76

25 51 76

25 51 76

25 51 76

25 51 76

25 51 76

25 51 76

25 51 76

25 51 76

25 51 76

25 51 76

25 51 76

25 51 76

25 51 76

25 51 76

25 51 76

25 51 76

25 51 76

25 51 76

25 51 76

25 51 76

25 51 76

25 51 76

25 51 76

25 51 76

25 51 76

25 51 76

25 51 76

25 51 76

25 51 76

25 51 76

25 51 76

25 51 76

25 51 76

25 51 76

25 51 76

25 51 76

25 51 76

25 51 76

25 51 76

25 51 76

25 51 76

25 51 76

25 51 76

25 51 76

25 51 76

25 51 76

25 51 76

25 51 76

25 51 76

25 51 76

25 51 76

25 51 76

25 51 76

25 51 76

25 51 76

25 51 76

25 51 76

25 51 76

25 51 76

25 51 76

25 51 76

25 51 76

25 51 76

25 51 76

25 51 76

25 51 76

25 51 76

25 51 76

25 51 76

25 51 76

25 51 76

25 51 76

25 51 76

25 51 76

25 51 76

25 51 76

25 51 76

25 51 76

25 51 76

25 51 76

25 51 76

25 51 76

25 51 76

25 51 76

25 51 76

25 51 76

25 51 76

25 51 76

25 51 76

25 51 76

25 51 76

25 51 76

25 51 76

25 51 76

25 51 76

25 51 76

25 51 76

25 51 76

25 51 76

25 51 76

25 51 76

25 51 76

25 51 76

25 51 76

25 51 76

25 51 76

25 51 76

25 51 76

25 51 76

25 51 76

25 51 76

25 51 76

25 51 76

25 51 76

25 51 76

25 51 76

25 51 76

25 51 76

25 51 76

25 51 76

25 51 76

25 51 76

25 51 76

25 51 76

25 51 76

25 51 76

25 51 76

25 51 76

25 51 76

25 51 76

25 51 76

25 51 76

25 51 76

25 51 76

25 51 76

25 51 76

25 51 76

25 51 76

25 51 76

25 51 76

25 51 76

25 51 76

25 51 76

25 51 76

25 51 76

25 51 76

25 51 76

25 51 76

25 51 76

25 51 76

25 51 76

25 51 76

25 51 76

25 51 76

25 51 76

25 51 76

25 51 76

25 51 76

25 51 76

25 51 76

25 51 76

25 51 76

25 51 76

25 51 76

25 51 76

25 51 76

25 51 76

25 51 76

25 51 76

25 51 76

25 51 76

25 51 76

25 51 76

25 51 76

25 51 76

25 51 76

25 51 76

25 51 76

25 51 76

25 51 76

25 51 76

25 51 76

25 51 76

25 51 76

25 51 76

25 51 76

25 51 76

25 51 76

25 51 76

25 51 76

25 51 76

25 51 76

25 51 76

25 51 76

25 51 76

25 51 76

25 51 76

25 51 76

25 51 76

25 51 76

25 51 76

25 51 76

25 51 76

25 51 76

25 51 76

25 51 76

25 51 76

25 51 76

25 51 76

25 51 76

25 51 76

25 51 76

25 51 76

25 51 76

25 51 76

25 51 76

25 51 76

25 51 76

25 51 76

25 51 76

25 51 76

25 51 76

25 51 76

25 51 76

25 51 76

25 51 76

25 51 76

25 51 76

25 51 76

25 51 76

25 51 76

25 51 76

25 51 76

25 51 76

25 51 76

25 51 76

25 51 76

25 51 76

25 51 76

25 51 76

25 51 76

25 51 76

25 51 76

25 51 76

25 51 76

25 51 76

25 51 76

25 51 76

25 51 76

25 51 76

25 51 76

25 51 76

25 51 76

25 51 76

25 51 76

25 51 76

25 51 76

25 51 76

25 51 76

25 51 76

25 51 76

25 51 76

25 51 76

25 51 76

25 51 76

25 51 76

25 51 76

25 51 76

25 51 76

25 51 76

25 51 76

25 51 76

25 51 76

25 51 76

25 51 76

25 51 76

25 51 76

25 51 76

25 51 76

25 51 76

25 51 76

25 51 76

25 51 76

25 51 76

25 51 76

25 51 76

25 51 76

25 51 76

25 51 76

25 51 76

25 51 76

25 51 76

25 51 76

25 51 76

25 51 76

25 51 76

25 51 76

25 51 76

25 51 76

25 51 76

25 51 76

25 51 76

25 51 76

25 51 76

25 51 76

25 51 76

25 51 76

25 51 76

25 51 76

25 51 76

25 51 76

25 51 76

25 51 76

25 51 76

25 51 76

25 51 76

25 51 76

25 51 76

25 51 76

25 51 76

25 51 76

25 51 76

25 51 76

25 51 76

25 51 76

25 51 76

25 51 76

25 51 76

25 51 76

25 51 76

25 51 76

25 51 76

25 51 76

25 51 76

25 51 76

25 51 76

25 51 76

25 51 76

25 51 76

25 51 76

25 51 76

25 51 76

25 51 76

25 51 76

25 51 76

25 51 76

25 51 76

25 51 76

25 51 76

25 51 76

25 51 76

25 51 76

25 51 76

25 51 76

25 51 76

25 51 76

25 51 76

25 51 76

25 51 76

25 51 76

25 51 76

25 51 76

25 51 76

25 51 76

25 51 76

25 51 76

25 51 76

25 51 76

25 51 76

25 51 76

25 51 76

25 51 76

25 51 76

25 51 76

25 51 76

25 51 76

25 51 76

25 51 76

25 51 76

25 51 76

25 51 76

25 51 76

25 51 76

25 51 76

25 51 76

25 51 76

25 51 76

25 51 76

25 51 76

25 51 76

25 51 76

25 51 76

25 51 76

25 51 76

25 51 76

25 51 76

25 51 76

25 51 76

25 51 76

25 51 76

25 51 76

25 51 76

25 51 76

25 51 76

25 51 76

25 51 76

25 51 76

25 51 76

25 51 76

25 51 76

25 51 76

25 51 76

25 51 76

25 51 76

25 51 76

25 51 76

25 51 76

25 51 76

25 51 76

25 51 76

25 51 76

25 51 76

25 51 76

25 51 76

25 51 76

25 51 76

25 51 76

25 51 76

25 51 76

25 51 76

25 51 76

25 51 76

25 51 76

25 51 76

25 51 76

25 51 76

25 51 76

25 51 76

25 51 76

25 51 76

25 51 76

25 51 76

25 51 76

25 51 76

25 51 76

25 51 76

25 51 76

25 51 76

25 51 76

25 51 76

25 51 76

25 51 76

25 51 76

25 51 76

25 51 76

25 51 76

25 51 76

25 51 76

25 51 76

25 51 76

25 51 76

25 51 76

25 51 76

25 51 76

25 51 76

25 51 76

25 51 76

25 51 76

25 51 76

25 51 76

25 51 76

25 51 76

25 51 76

25 51 76

25 51 76

25 51 76

25 51 76

25 51 76

25 51 76

25 51 76

25 51 76

25 51 76

25 51 76

25 51 76

25 51 76

25 51 76

25 51 76

25 51 76

25 51 76

25 51 76

25 51 76

25 51 76

25 51 76

25 51 76

25 51 76

25 51 76

25 51 76

25 51 76

25 51 76

25 51 76

25 51 76

25 51 76

25 51 76

25 51 76

25 51 76

25 51 76

25 51 76

25 51 76

25 51 76

25 51 76

25 51 76

25 51 76

25 51 76

25 51 76

25 51 76

25 51 76

25 51 76

25 51 76

25 51 76

25 51 76

25 51 76

25 51 76

25 51 76

25 51 76

25 51 76

25 51 76

25 51 76

25 51 76

25 51 76

25 51 76

25 51 76

25 51 76

25 51 76

25 51 76

25 51 76

25 51 76

25 51 76

25 51 76

25 51 76

25 51 76

25 51 76

25 51 76

25 51 76

25 51 76

25 51 76

25 51 76

25 51 76

25 51 76

25 51 76

25 51 76

25 51 76

25 51 76

25 51 76

25 51 76

25 51 76

25 51 76

25 51 76

25 51 76

25 51 76

25 51 76

25 51 76

25 51 76

25 51 76

25 51 76

25 51 76

25 51 76

25 51 76

25 51 76

25 51 76

25 51 76

25 51 76

25 51 76

25 51 76

25 51 76

25 51 76

25 51 76

25 51 76

25 51 76

25 51 76

25 51 76

25 51 76

25 51 76

25 51 76

25 51 76

25 51 76

25 51 76

25 51 76

25 51 76

25 51 76

25 51 76

25 51 76

25 51 76

25 51 76

25 51 76

25 51 76

25 51 76

25 51 76

25 51 76

25 51 76

25 51 76

25 51 76

25 51 76

25 51 76

25 51 76

25 51 76

25 51 76

25 51 76

25 51 76

25 51 76

25 51 76

25 51 76

25 51 76

25 51 76

25 51 76

25 51 76

25 51 76

25 51 76

25 51 76

25 51 76

25 51 76

25 51 76

25 51 76

25 51 76

25 51 76

25 51 76

25 51 76

25 51 76

25 51 76

25 51 76

25 51 76

25 51 76

25 51 76

25 51 76

25 51 76

25 51 76

25 51 76

25 51 76

25 51 76

25 51 76

25 51 76

25 51 76

25 51 76

25 51 76

25 51 76

25 51 76

25 51 76

25 51 76

25 51 76

25 51 76

25 51 76

25 51 76

25 51 76

25 51 76

25 51 76

25 51 76

25 51 76

25 51 76

25 51 76

25 51 76

25 51 76

25 51 76

25 51 76

25 51 76

25 51 76

25 51 76

25 51 76

25 51 76

25 51 76

25 51 76

25 51 76

25 51 76

25 51 76

25 51 76

25 51 76

25 51 76

25 51 76

25 51 76

25 51 76

25 51 76

25 51 76

25 51 76

25 51 76

25 51 76

25 51 76

25 51 76

25 51 76

25 51 76

25 51 76

25 51 76

25 51 76

25 51 76

25 51 76

25 51 76

25 51 76

25 51 76

25 51 76

25 51 76

25 51 76

25 51 76

25 51 76

25 51 76

25 51 76

25 51 76

25 51 76

25 51 76

25 51 76

25 51 76

25 51 76

25 51 76

25 51 76

25 51 76

25 51 76

25 51 76

25 51 76

25 51 76

25 51 76

25 51 76

25 51 76

25 51 76

25 51 76

25 51 76

25 51 76

25 51 76

25 51 76

25 51 76

25 51 76

25 51 76

25 51 76

25 51 76

25 51 76

25 51 76

25 51 76

25 51 76

25 51 76

25 51 76

25 51 76

25 51 76

25 51 76

25 51 76

25 51 76

25 51 76

25 51 76

25 51 76

25 51 76

25 51 76

25 51 76

25 51 76

25 51 76

25 51 76

25 51 76

25 51 76

25 51 76

25 51 76

25 51 76

25 51 76

25 51 76

25 51 76

25 51 76

25 51 76

25 51 76

25 51 76

25 51 76

25 51 76

25 51 76

25 51 76

25 51 76

25 51 76

25 51 76

25 51 76

25 51 76

25 51 76

25 51 76

25 51 76

25 51 76

25 51 76

25 51 76

25 51 76

25 51 76

25 51 76

25 51 76

25 51 76

25 51 76

25 51 76

25 51 76

25 51 76

25 51 76

25 51 76

25 51 76

25 51 76

25 51 76

25 51 76

25 51 76

25 51 76

25 51 76

25 51 76

25 51 76

25 51 76

25 51 76

25 51 76

25 51 76

25 51 76

25 51 76

25 51 76

25 51 76

25 51 76

25 51 76

25 51 76

25 51 76

25 51 76

25 51 76

25 51 76

25 51 76

25 51 76

25 51 76

25 51 76

25 51 76

25 51 76

25 51 76

25 51 76

25 51 76

25 51 76

25 51 76

25 51 76

25 51 76

25 51 76

25 51 76

25 51 76

25 51 76

25 51 76

25 51 76

25 51 76

25 51 76

25 51 76

25 51 76

25 51 76

25 51 76

25 51 76

25 51 76

25 51 76

25 51 76

25 51 76

25 51 76

25 51 76

25 51 76

25 51 76

25 51 76

25 51 76

25 51 76

25 51 76

25 51 76

25 51 76

25 51 76

25 51 76

25 51 76

25 51 76

25 51 76

25 51 76

25 51 76

25 51 76

25 51 76

25 51 76

25 51 76

25 51 76

25 51 76

25 51 76

25 51 76

25 51 76

25 51 76

25 51 76

25 51 76

25 51 76

25 51 76

25 51 76

25 51 76

25 51 76

25 51 76

25 51 76

25 51 76

25 51 76

25 51 76

25 51 76

25 51 76

25 51 76

25 51 76

25 51 76

25 51 76

25 51 76

25 51 76

25 51 76

25 51 76

25 51 76

25 51 76

25 51 76

25 51 76

25 51 76

25 51 76

25 51 76

25 51 76

25 51 76

25 51 76

25 51 76

25 51 76

25 51 76

25 51 76

25 51 76

25 51 76

25 51 76

25 51 76

25 51 76

25 51 76

25 51 76

25 51 76

25 51 76

25 51 76

25 51 76

25 51 76

25 51 76

25 51 76

25 51 76

25 51 76

25 51 76

25 51 76

25 51 76

25 51 76

25 51 76

25 51 76

25 51 76

25 51 76

25 51 76

25 51 76

25 51 76

25 51 76

25 51 76

25 51 76

25 51 76

25 51 76

25 51 76

25 51 76

25 51 76

25 51 76

25 51 76

25 51 76

25 51 76

25 51 76

25 51 76

25 51 76

25 51 76

25 51 76

25 51 76

25 51 76

25 51 76

25 51 76

25 51 76

25 51 76

25 51 76

25 51 76

25 51 76

25 51 76

25 51 76

25 51 76

25 51 76

25 51 76

25 51 76

25 51 76

25 51 76

25 51 76

25 51 76

25 51 76

25 51 76

25 51 76

25 51 76

25 51 76

25 51 76

25 51 76

25 51 76

25 51 76

25 51 76

25 51 76

25 51 76

25 51 76

25 51 76

25 51 76

25 51 76

25 51 76

25 51 76

25 51 76

25 51 76

25 51 76

25 51 76

25 51 76

25 51 76

25 51 76

25 51 76

25 51 76

25 51 76

25 51 76

25 51 76

25 51 76

25 51 76

25 51 76

25 51 76

25 51 76

25 51 76

25 51 76

25 51 76

25 51 76

25 51 76

25 51 76

25 51 76

25 51 76

25 51 76

25 51 76

25 51 76

25 51 76

25 51 76

25 51 76

25 51 76

25 51 76

25 51 76

25 51 76

25 51 76

25 51 76

25 51 76

25 51 76

25 51 76

25 51 76

25 51 76

25 51 76

25 51 76

25 51 76

25 51 76

25 51 76

25 51 76

25 51 76

25 51 76

25 51 76

25 51 76

25 51 76

25 51 76

25 51 76

25 51 76

25 51 76

25 51 76

25 51 76

25 51 76

25 51 76

25 51 76

25 51 76

25 51 76

25 51 76

25 51 76

25 51 76

25 51 76

25 51 76

25 51 76

25 51 76

25 51 76

25 51 76

25 51 76

25 51 76

25 51 76

25 51 76

25 51 76

25 51 76

25 51 76

25 51 76

25 51 76

25 51 76

25 51 76

25 51 76

25 51 76

25 51 76

25 51 76

25 51 76

25 51 76

25 51 76

25 51 76

25 51 76

25 51 76

25 51 76

25 51 76

25 51 76

25 51 76

25 51 76

25 51 76

25 51 76

25 51 76

25 51 76

25 51 76

25 51 76

25 51 76

25 51 76

25 51 76

25 51 76

25 51 76

25 51 76

25 51 76

25 51 76

25 51 76

25 51 76

25 51 76

25 51 76

25 51 76

25 51 76

25 51 76

25 51 76

25 51 76

25 51 76

25 51 76

25 51 76

25 51 76

25 51 76

25 51 76

25 51 76

25 51 76

25 51 76

25 51 76

25 51 76

25 51 76

25 51 76

25 51 76

25 51 76

25 51 76

25 51 76

25 51 76

25 51 76

25 51 76

25 51 76

25 51 76

25 51 76

25 51 76

25 51 76

25 51 76

25 51 76

25 51 76

25 51 76

25 51 76

25 51 76

25 51 76

25 51 76

25 51 76

25 51 76

25 51 76

25 51 76

25 51 76

25 51 76

25 51 76

25 51 76

25 51 76

25 51 76

25 51 76

25 51 76

25 51 76

25 51 76

25 51 76

25 51 76

25 51 76

25 51 76

25 51 76

25 51 76

25 51 76

25 51 76

25 51 76

25 51 76

25 51 76

25 51 76

25 51 76

25 51 76

25 51 76

25 51 76

25 51 76

25 51 76

25 51 76

25 51 76

25 51 76

25 51 76

25 51 76

25 51 76

25 51 76

25 51 76

25 51 76

25 51 76

25 51 76

25 51 76

25 51 76

25 51 76

25 51 76

25 51 76

25 51 76

25 51 76

25 51 76

25 51 76

25 51 76

25 51 76

25 51 76

25 51 76

25 51 76

25 51 76

25 51 76

25 51 76

25 51 76

25 51 76

25 51 76

25 51 76

25 51 76

25 51 76

25 51 76

25 51 76

25 51 76

25 51 76

25 51 76

25 51 76

25 51 76

25 51 76

25 51 76

25 51 76

25 51 76

25 51 76

25 51 76

25 51 76

25 51 76

25 51 76

25 51 76

25 51 76

25 51 76

25 51 76

25 51 76

25 51 76

25 51 76

25 51 76

25 51 76

25 51 76

25 51 76

25 51 76

25 51 76

25 51 76

25 51 76

25 51 76

25 51 76

25 51 76

25 51 76

25 51 76

25 51 76

25 51 76

25 51 76

25 51 76

25 51 76

25 51 76

25 51 76

25 51 76

25 51 76

25 51 76

25 51 76

25 51 76

25 51 76

25 51 76

25 51 76

25 51 76

25 51 76

25 51 76

25 51 76

25 51 76

25 51 76

25 51 76

25 51 76

25 51 76

25 51 76

25 51 76

25 51 76

25 51 76

25 51 76

25 51 76

25 51 76

25 51 76

25 51 76

25 51 76

25 51 76

25 51 76

25 51 76

25 51 76

25 51 76

25 51 76

25 51 76

25 51 76

25 51 76

25 51 76

25 51 76

25 51 76

25 51 76

25 51 76

25 51 76

25 51 76

25 51 76

25 51 76

25 51 76

25 51 76

25 51 76

25 51 76

25 51 76

25 51 76

25 51 76

25 51 76

25 51 76

25 51 76

25 51 76

25 51 76

25 51 76

25 51 76

25 51 76

25 51 76

25 51 76

25 51 76

25 51 76

25 51 76

25 51 76

25 51 76

25 51 76

25 51 76

25 51 76

25 51 76

25 51 76

25 51 76

25 51 76

25 51 76

25 51 76

25 51 76

25 51 76

25 51 76

25 51 76

25 51 76

25 51 76

25 51 76

25 51 76

25 51 76

25 51 76

25 51 76

25 51 76

25 51 76

25 51 76

25 51 76

25 51 76

25 51 76

25 51 76

25 51 76

25 51 76

25 51 76

25 51 76

25 51 76

25 51 76

25 51 76

25 51 76

25 51 76

25 51 76

25 51 76

25 51 76

25 51 76

25 51 76

25 51 76

25 51 76

25 51 76

25 51 76

25 51 76

25 51 76

25 51 76

25 51 76

25 51 76

25 51 76

25 51 76

25 51 76

25 51 76

25 51 76

25 51 76

25 51 76

25 51 76

25 51 76

25 51 76

25 51 76

25 51 76

25 51 76

25 51 76

25 51 76

25 51 76

25 51 76

25 51 76

25 51 76

25 51 76

25 51 76

25 51 76

25 51 76

25 51 76

25 51 76

25 51 76

25 51 76

25 51 76

25 51 76

25 51 76

25 51 76

25 51 76

25 51 76

25 51 76

25 51 76

25 51 76

25 51 76

25 51 76

25 51 76

25 51 76

25 51 76

25 51 76

25 51 76

25 51 76

25 51 76

25 51 76

25 51 76

25 51 76

25 51 76

25 51 76

25 51 76

25 51 76

25 51 76

25 51 76

25 51 76

25 51 76

25 51 76

25 51 76

25 51 76

25 51 76

25 51 76

25 51 76

25 51 76

25 51 76

25 51 76

25 51 76

25 51 76

25 51 76

25 51 76

25 51 76

25 51 76

25 51 76

25 51 76

25 51 76

25 51 76

25 51 76

25 51 76

25 51 76

25 51 76

25 51 76

25 51 76

25 51 76

25 51 76

25 51 76

25 51 76

25 51 76

25 51 76

25 51 76

25 51 76

25 51 76

25 51 76

25 51 76

25 51 76

25 51 76

25 51 76

25 51 76

25 51 76

25 51 76

25 51 76

25 51 76

25 51 76

25 51 76

25 51 76

25 51 76

25 51 76

25 51 76

25 51 76

25 51 76

25 51 76

25 51 76

25 51 76

25 51 76

25 51 76

25 51 76

25 51 76

25 51 76

25 51 76

25 51 76

25 51 76

25 51 76

25 51 76

25 51 76

25 51 76

25 51 76

25 51 76

25 51 76

25 51 76

25 51 76

25 51 76

25 51 76

25 51 76

25 51 76

25 51 76

25 51 76

25 51 76

25 51 76

25 51 76

25 51 76

25 51 76

25 51 76

25 51 76

25 51 76

25 51 76

25 51 76

25 51 76

25 51 76

25 51 76

25 51 76

25 51 76

25 51 76

25 51 76

25 51 76

25 51 76

25 51 76

25 51 76

25 51 76

25 51 76

25 51 76

25 51 76

25 51 76

25 51 76

25 51 76

25 51 76

25 51 76

25 51 76

25 51 76

25 51 76

25 51 76

25 51 76

25 51 76

25 51 76

25 51 76

25 51 76

25 51 76

25 51 76

25 51 76

25 51 76

25 51 76

25 51 76

25 51 76

25 51 76

25 51 76

25 51 76

25 51 76

25 51 76

25 51 76

25 51 76

25 51 76

25 51 76

25 51 76

25 51 76

25 51 76

25 51 76

25 51 76

25 51 76

25 51 76

25 51 76

25 51 76

25 51 76

25 51 76

25 51 76

25 51 76

25 51 76

25 51 76

25 51 76

25 51 76

25 51 76

25 51 76

25 51 76

25 51 76

25 51 76

25 51 76

25 51 76

25 51 76

25 51 76

25 51 76

25 51 76

25 51 76

25 51 76

25 51 76

25 51 76

25 51 76

25 51 76

25 51 76

25 51 76

25 51 76

25 51 76

25 51 76

25 51 76

25 51 76

25 51 76

25 51 76

25 51 76

25 51 76

25 51 76

25 51 76

25 51 76

25 51 76

25 51 76

25 51 76

25 51 76

25 51 76

25 51 76

25 51 76

25 51 76

25 51 76

25 51 76

25 51 76

25 51 76

25 51 76

25 51 76

25 51 76

25 51 76

25 51 76

25 51 76

25 51 76

25 51 76

25 51 76

25 51 76

25 51 76

25 51 76

25 51 76

25 51 76

25 51 76

25 51 76

25 51 76

25 51 76

25 51 76

25 51 76

25 51 76

25 51 76

25 51 76

25 51 76

25 51 76

25 51 76

25 51 76

25 51 76

25 51 76

25 51 76

25 51 76

25 51 76

25 51 76

25 51 76

25 51 76

25 51 76

25 51 76

25 51 76

25 51 76

25 51 76

25 51 76

25 51 76

25 51 76

25 51 76

25 51 76

25 51 76

25 51 76

25 51 76

25 51 76

25 51 76

25 51 76

25 51 76

25 51 76

25 51 76

25 51 76

25 51 76

25 51 76

25 51 76

25 51 76

25 51 76

25 51 76

25 51 76

25 51 76

25 51 76

25 51 76

25 51 76

25 51 76

25 51 76

25 51 76

25 51 76

25 51 76

25 51 76

25 51 76

25 51 76

25 51 76

25 51 76

25 51 76

25 51 76

25 51 76

25 51 76

25 51 76

25 51 76

25 51 76

25 51 76

25 51 76

25 51 76

25 51 76

25 51 76

25 51 76

25 51 76

25 51 76

25 51 76

25 51 76

25 51 76

25 51 76

25 51 76

25 51 76

25 51 76

25 51 76

25 51 76

25 51 76

25 51 76

25 51 76

25 51 76

25 51 76

25 51 76

25 51 76

25 51 76

25 51 76

25 51 76

25 51 76

25 51 76

25 51 76

25 51 76

25 51 76

25 51 76

25 51 76

25 51 76

25 51 76

25 51 76

25 51 76

25 51 76

25 51 76

25 51 76

25 51 76

25 51 76

25 51 76

25 51 76

25 51 76

25 51 76

25 51 76

25 51 76

25 51 76

25 51 76

25 51 76

25 51 76

25 51 76

25 51 76

25 51 76

25 51 76

25 51 76

25 51 76

25 51 76

25 51 76

25 51 76

25 51 76

25 51 76

25 51 76

25 51 76

25 51 76

25 51 76

25 51 76

25 51 76

25 51 76

25 51 76

25 51 76

25 51 76

25 51 76

25 51 76

25 51 76

25 51 76

25 51 76

25 51 76

25 51 76

25 51 76

25 51 76

25 51 76

25 51 76

25 51 76

25 51 76

25 51 76

25 51 76

25 51 76

25 51 76

25 51 76

25 51 76

25 51 76

25 51 76

25 51 76

25 51 76

25 51 76

25 51 76

25 51 76

25 51 76

25 51 76

25 51 76

25 51 76

25 51 76

25 51 76

25 51 76

25 51 76

25 51 76

25 51 76

25 51 76

25 51 76

25 51 76

25 51 76

25 51 76

25 51 76

25 51 76

25 51 76

25 51 76

25 51 76

25 51 76

25 51 76

25 51 76

25 51 76

25 51 76

25 51 76

25 51 76

25 51 76

25 51 76

25 51 76

25 51 76

25 51 76

25 51 76

25 51 76

25 51 76

25 51 76

25 51 76

25 51 76

25 51 76

25 51 76

25 51 76

25 51 76

25 51 76

25 51 76

25 51 76

25 51 76

25 51 76

25 51 76

25 51 76

25 51 76

25 51 76

25 51 76

25 51 76

25 51 76

25 51 76

25 51 76

25 51 76

25 51 76

25 51 76

25 51 76

25 51 76

25 51 76

25 51 76

25 51 76

25 51 76

25 51 76

25 51 76

25 51 76

25 51 76

25 51 76

25 51 76

25 51 76

25 51 76

25 51 76

25 51 76

25 51 76

25 51 76

25 51 76

25 51 76

25 51 76

25 51 76

25 51 76

25 51 76

25 51 76

25 51 76

25 51 76

25 51 76

25 51 76

25 51 76

25 51 76

25 51 76

25 51 76

25 51 76

25 51 76

25 51 76

25 51 76

25 51 76

25 51 76

25 51 76

25 51 76

25 51 76

25 51 76

25 51 76

25 51 76

25 51 76

25 51 76

25 51 76

25 51 76

25 51 76

25 51 76

25 51 76

25 51 76

25 51 76

25 51 76

25 51 76

25 51 76

25 51 76

25 51 76

25 51 76

25 51 76

25 51 76

25 51 76

25 51 76

25 51 76

25 51 76

25 51 76

25 51 76

25 51 76

25 51 76

25 51 76

25 51 76

25 51 76

25 51 76

25 51 76

25 51 76

25 51 76

25 51 76

25 51 76

25 51 76

25 51 76

25 51 76

25 51 76

25 51 76

25 51 76

25 51 76

25 51 76

25 51 76

25 51 76

25 51 76

25 51 76

25 51 76

25 51 76

25 51 76

25 51 76

25 51 76

25 51 76

25 51 76

25 51 76

25 51 76

25 51 76

25 51 76

25 51 76

25 51 76

25 51 76

25 51 76

25 51 76

25 51 76

25 51 76

25 51 76

25 51 76

25 51 76

25 51 76

25 51 76

25 51 76

25 51 76

25 51 76

25 51 76

25 51 76

25 51 76

25 51 76

25 51 76

25 51 76

25 51 76

25 51 76

25 51 76

25 51 76

25 51 76

25 51 76

25 51 76

25 51 76

25 51 76

25 51 76

25 51 76

25 51 76

25 51 76

25 51 76

25 51 76

25 51 76

25 51 76

25 51 76

25 51 76

25 51 76

25 51 76

25 51 76

25 51 76

25 51 76

25 51 76

25 51 76

25 51 76

25 51 76

25 51 76

25 51 76

25 51 76

25 51 76

25 51 76

25 51 76

25 51 76

25 51 76

25 51 76

25 51 76

25 51 76

25 51 76

25 51 76

25 51 76

25 51 76

25 51 76

25 51 76

25 51 76

25 51 76

25 51 76

25 51 76

25 51 76

25 51 76

25 51 76

25 51 76

25 51 76

25 51 76

25 51 76

25 51 76

25 51 76

25 51 76

25 51 76

25 51 76

25 51 76

25 51 76

25 51 76

25 51 76

25 51 76

25 51 76

25 51 76

25 51 76

25 51 76

25 51 76

25 51 76

25 51 76

25 51 76

25 51 76

25 51 76

25 51 76

25 51 76

25 51 76

25 51 76

25 51 76

25 51 76

25 51 76

25 51 76

25 51 76

25 51 76

25 51 76

25 51 76

25 51 76

25 51 76

25 51 76

25 51 76

25 51 76

25 51 76

25 51 76

25 51 76

25 51 76

25 51 76

25 51 76

25 51 76

25 51 76

25 51 76

25 51 76

25 51 76

25 51 76

25 51 76

25 51 76

25 51 76

25 51 76

25 51 76

25 51 76

25 51 76

25 51 76

25 51 76

25 51 76

25 51 76

25 51 76

25 51 76

25 51 76

25 51 76

25 51 76

25 51 76

25 51 76

25 51 76

25 51 76

25 51 76

25 51 76

25 51 76

25 51 76

25 51 76

25 51 76

25 51 76

25 51 76

25 51 76

25 51 76

25 51 76

25 51 76

25 51 76

25 51 76

25 51 76

25 51 76

25 51 76

25 51 76

25 51 76

25 51 76

25 51 76

25 51 76

25 51 76

25 51 76

25 51 76

25 51 76

25 51 76

25 51 76

25 51 76

25 51 76

25 51 76

25 51 76

25 51 76

25 51 76

25 51 76

25 51 76

25 51 76

25 51 76

25 51 76

25 51 76

25 51 76

25 51 76

25 51 76

25 51 76

25 51 76

25 51 76

25 51 76

25 51 76

25 51 76

25 51 76

25 51 76

25 51 76

25 51 76

25 51 76

25 51 76

25 51 76

25 51 76

25 51 76

25 51 76

25 51 76

25 51 76

25 51 76

25 51 76

25 51 76

25 51 76

25 51 76

25 51 76

25 51 76

25 51 76

25 51 76

25 51 76

25 51 76

25 51 76

25 51 76

25 51 76

25 51 76

25 51 76

25 51 76

25 51 76

25 51 76

25 51 76

25 51 76

25 51 76

25 51 76

25 51 76

25 51 76

25 51 76

25 51 76

25 51 76

25 51 76

25 51 76

25 51 76

25 51 76

25 51 76

25 51 76

25 51 76

25 51 76

25 51 76

25 51 76

25 51 76

25 51 76

25 51 76

25 51 76

25 51 76

25 51 76

25 51 76

25 51 76

25 51 76

25 51 76

25 51 76

25 51 76

25 51 76

25 51 76

25 51 76

25 51 76

25 51 76

25 51 76

25 51 76

25 51 76

25 51 76

25 51 76

25 51 76

25 51 76

25 51 76

25 51 76

25 51 76

25 51 76

25 51 76

25 51 76

25 51 76

25 51 76

25 51 76

25 51 76

25 51 76

25 51 76

25 51 76

25 51 76

25 51 76

25 51 76

25 51 76

25 51 76

25 51 76

25 51 76

25 51 76

25 51 76

25 51 76

25 51 76

25 51 76

25 51 76

25 51 76

25 51 76

25 51 76

25 51 76

25 51 76

25 51 76

25 51 76

25 51 76

25 51 76

25 51 76

25 51 76

25 51 76

25 51 76

25 51 76

25 51 76

25 51 76

25 51 76

25 51 76

25 51 76

25 51 76

25 51 76

25 51 76

25 51 76

25 51 76

25 51 76

25 51 76

25 51 76

25 51 76

25 51 76

25 51 76

25 51 76

25 51 76

25 51 76

25 51 76

25 51 76

25 51 76

25 51 76

25 51 76

25 51 76

25 51 76

25 51 76

25 51 76

25 51 76

25 51 76

25 51 76

25 51 76

25 51 76

25 51 76

25 51 76

25 51 76

25 51 76

25 51 76

25 51 76

25 51 76

25 51 76

25 51 76

25 51 76

25 51 76

25 51 76

25 51 76

25 51 76

25 51 76

25 51 76

25 51 76

25 51 76

25 51 76

25 51 76

25 51 76

25 51 76

25 51 76

25 51 76

25 51 76

25 51 76

25 51 76

25 51 76

25 51 76

25 51 76

25 51 76

25 51 76

25 51 76

25 51 76

25 51 76

25 51 76

25 51 76

25 51 76

25 51 76

25 51 76

25 51 76

25 51 76

25 51 76

25 51 76

25 51 76

25 51 76

25 51 76

25 51 76

25 51 76

25 51 76

25 51 76

25 51 76

25 51 76

25 51 76

25 51 76

25 51 76

25 51 76

25 51 76

25 51 76

25 51 76

25 51 76

25 51 76

25 51 76

25 51 76

25 51 76

25 51 76

25 51 76

25 51 76

25 51 76

25 51 76

25 51 76

25 51 76

25 51 76

25 51 76

25 51 76

25 51 76

25 51 76

25 51 76

25 51 76

25 51 76

25 51 76

25 51 76

25 51 76

25 51 76

25 51 76

25 51 76

25 51 76

25 51 76

25 51 76

25 51 76

25 51 76

25 51 76

25 51 76

25 51 76

25 51 76

25 51 76

25 51 76

25 51 76

25 51 76

25 51 76

25 51 76

25 51 76

25 51 76

25 51 76

25 51 76

25 51 76

25 51 76

25 51 76

25 51 76

25 51 76

25 51 76

25 51 76

25 51 76

25 51 76

25 51 76

25 51 76

25 51 76

25 51 76

25 51 76

25 51 76

25 51 76

25 51 76

25 51 76

25 51 76

25 51 76

25 51 76

25 51 76

25 51 76

25 51 76

25 51 76

25 51 76

25 51 76

25 51 76

25 51 76

25 51 76

25 51 76

25 51 76

25 51 76

25 51 76

25 51 76

25 51 76

25 51 76

25 51 76

25 51 76

25 51 76

25 51 76

25 51 76

25 51 76

25 51 76

25 51 76

25 51 76

25 51 76

25 51 76

25 51 76

25 51 76

25 51 76

25 51 76

25 51 76

25 51 76

25 51 76

25 51 76

25 51 76

25 51 76

25 51 76

25 51 76

25 51 76

25 51 76

25 51 76

25 51 76

25 51 76

25 51 76

25 51 76

25 51 76

25 51 76

25 51 76

25 51 76

25 51 76

25 51 76

25 51 76

25 51 76

25 51 76

25 51 76

25 51 76

25 51 76

25 51 76

25 51 76

25 51 76

25 51 76

25 51 76

25 51 76

25 51 76

25 51 76

25 51 76

25 51 76

25 51 76

25 51 76

25 51 76

25 51 76

25 51 76

25 51 76

25 51 76

25 51 76

25 51 76

25 51 76

25 51 76

25 51 76

25 51 76

25 51 76

25 51 76

25 51 76

25 51 76

25 51 76

25 51 76

25 51 76

25 51 76

25 51 76

25 51 76

25 51 76

25 51 76

25 51 76

25 51 76

25 51 76

25 51 76

25 51 76

25 51 76

25 51 76

25 51 76

25 51 76

25 51 76

25 51 76

25 51 76

25 51 76

25 51 76

25 51 76

25 51 76

25 51 76

25 51 76

25 51 76

25 51 76

25 51 76

25 51 76

25 51 76

25 51 76

25 51 76

25 51 76

25 51 76

25 51 76

25 51 76

25 51 76

25 51 76

25 51 76

25 51 76

25 51 76

25 51 76

25 51 76

25 51 76

25 51 76

25 51 76

25 51 76

25 51 76

25 51 76

25 51 76

25 51 76

25 51 76

25 51 76

25 51 76

25 51 76

25 51 76

25 51 76

25 51 76

25 51 76

25 51 76

25 51 76

25 51 76

25 51 76

25 51 76

25 51 76

25 51 76

25 51 76

25 51 76

25 51 76

25 51 76

25 51 76

25 51 76

25 51 76

25 51 76

25 51 76

25 51 76

25 51 76

25 51 76

25 51 76

25 51 76

25 51 76

25 51 76

25 51 76

25 51 76

25 51 76

25 51 76

25 51 76

25 51 76

25 51 76

25 51 76

25 51 76

25 51 76

25 51 76

25 51 76

25 51 76

25 51 76

25 51 76

25 51 76

25 51 76

25 51 76

25 51 76

25 51 76

25 51 76

25 51 76

25 51 76

25 51 76

25 51 76

25 51 76

25 51 76

25 51 76

25 51 76

25 51 76

25 51 76

25 51 76

25 51 76

25 51 76

25 51 76

25 51 76

25 51 76

25 51 76

25 51 76

25 51 76

25 51 76

25 51 76

25 51 76

25 51 76

25 51 76

25 51 76

25 51 76

25 51 76

25 51 76

25 51 76

25 51 76

25 51 76

25 51 76

25 51 76

25 51 76

25 51 76

25 51 76

25 51 76

25 51 76

25 51 76

25 51 76

25 51 76

25 51 76

25 51 76

25 51 76

25 51 76

25 51 76

25 51 76

25 51 76

25 51 76

25 51 76

25 51 76

25 51 76

25 51 76

25 51 76

25 51 76

25 51 76

25 51 76

25 51 76

25 51 76

25 51 76

25 51 76

25 51 76

25 51 76

25 51 76

25 51 76

25 51 76

25 51 76

25 51 76

25 51 76

25 51 76

25 51 76

25 51 76

25 51 76

25 51 76

25 51 76

25 51 76

25 51 76

25 51 76

25 51 76

25 51 76

25 51 76

25 51 76

25 51 76

25 51 76

25 51 76

25 51 76

25 51 76

25 51 76

25 51 76

25 51 76

25 51 76

25 51 76

25 51 76

25 51 76

25 51 76

25 51 76

25 51 76

25 51 76

25 51 76

25 51 76

25 51 76

25 51 76

25 51 76

25 51 76

25 51 76

25 51 76

25 51 76

25 51 76

25 51 76

25 51 76

25 51 76

25 51 76

25 51 76

25 51 76

25 51 76

25 51 76

25 51 76

25 51 76

25 51 76

25 51 76

25 51 76

25 51 76

25 51 76

25 51 76

25 51 76

25 51 76

25 51 76

25 51 76

25 51 76

25 51 76

25 51 76

25 51 76

25 51 76

25 51 76

25 51 76

25 51 76

25 51 76

25 51 76

25 51 76

25 51 76

25 51 76

25 51 76

25 51 76

25 51 76

25 51 76

25 51 76

25 51 76

25 51 76

25 51 76

25 51 76

25 51 76

25 51 76

25 51 76

25 51 76

25 51 76

25 51 76

25 51 76

25 51 76

25 51 76

25 51 76

25 51 76

25 51 76

25 51 76

25 51 76

25 51 76

25 51 76

25 51 76

25 51 76

25 51 76

25 51 76

25 51 76

25 51 76

25 51 76

25 51 76

25 51 76

25 51 76

25 51 76

25 51 76

25 51 76

25 51 76

25 51 76

25 51 76

25 51 76

25 51 76

25 51 76

25 51 76

25 51 76

25 51 76

25 51 76

25 51 76

25 51 76

25 51 76

25 51 76

25 51 76

25 51 76

25 51 76

25 51 76

25 51 76

25 51 76

25 51 76

25 51 76

25 51 76

25 51 76

25 51 76

25 51 76

25 51 76

25 51 76

25 51 76

25 51 76

25 51 76

25 51 76

25 51 76

25 51 76

25 51 76

25 51 76

25 51 76

25 51 76

25 51 76

25 51 76

25 51 76

25 51 76

25 51 76

25 51 76

25 51 76

25 51 76

25 51 76

25 51 76

25 51 76

25 51 76

25 51 76

25 51 76

25 51 76

25 51 76

25 51 76

25 51 76

25 51 76

25 51 76

25 51 76

25 51 76

25 51 76

25 51 76

25 51 76

25 51 76

25 51 76

25 51 76

25 51 76

25 51 76

25 51 76

25 51 76

25 51 76

25 51 76

25 51 76

25 51 76

25 51 76

25 51 76

25 51 76

25 51 76

25 51 76

25 51 76

25 51 76

25 51 76

25 51 76

25 51 76

25 51 76

25 51 76

25 51 76

25 51 76

25 51 76

25 51 76

25 51 76

25 51 76

25 51 76

25 51 76

25 51 76

25 51 76

25 51 76

25 51 76

25 51 76

25 51 76

25 51 76

25 51 76

25 51 76

25 51 76

25 51 76

25 51 76

25 51 76

25 51 76

25 51 76

25 51 76

25 51 76

25 51 76

25 51 76

25 51 76

25 51 76

25 51 76

25 51 76

25 51 76

25 51 76

25 51 76

25 51 76

25 51 76

25 51 76

25 51 76

25 51 76

25 51 76

25 51 76

25 51 76

25 51 76

25 51 76

25 51 76

25 51 76

25 51 76

25 51 76

25 51 76

25 51 76

25 51 76

25 51 76

25 51 76

25 51 76

25 51 76

25 51 76

25 51 76

25 51 76

25 51 76

25 51 76

25 51 76

25 51 76

25 51 76

25 51 76

25 51 76

25 51 76

25 51 76

25 51 76

25 51 76

25 51 76

25 51 76

25 51 76

25 51 76

25 51 76

25 51 76

25 51 76

25 51 76

25 51 76

25 51 76

25 51 76

25 51 76

25 51 76

25 51 76

25 51 76

25 51 76

25 51 76

25 51 76

25 51 76

25 51 76

25 51 76

25 51 76

25 51 76

25 51 76

25 51 76

25 51 76

25 51 76

25 51 76

25 51 76

25 51 76

25 51 76

25 51 76

25 51 76

25 51 76

25 51 76

25 51 76

25 51 76

25 51 76

25 51 76

25 51 76

25 51 76

25 51 76

25 51 76

25 51 76

25 51 76

25 51 76

25 51 76

25 51 76

25 51 76

25 51 76

25 51 76

25 51 76

25 51 76

25 51 76

25 51 76

25 51 76

25 51 76

25 51 76

25 51 76

25 51 76

25 51 76

25 51 76

25 51 76

25 51 76

25 51 76

25 51 76

25 51 76

25 51 76

25 51 76

25 51 76

25 51 76

25 51 76

25 51 76

25 51 76

25 51 76

25 51 76

25 51 76

25 51 76

25 51 76

25 51 76

25 51 76

25 51 76

25 51 76

25 51 76

25 51 76

25 51 76

25 51 76

25 51 76

25 51 76

25 51 76

25 51 76

25 51 76

25 51 76

25 51 76

25 51 76

25 51 76

25 51 76

25 51 76

25 51 76

25 51 76

25 51 76

25 51 76

25 51 76

25 51 76

25 51 76

25 51 76

25 51 76

25 51 76

25 51 76

25 51 76

25 51 76

25 51 76

25 51 76

25 51 76

25 51 76

25 51 76

25 51 76

25 51 76

25 51 76

25 51 76

25 51 76

25 51 76

25 51 76

25 51 76

25 51 76

25 51 76

25 51 76

25 51 76

25 51 76

25 51 76

25 51 76

25 51 76

25 51 76

25 51 76

25 51 76

25 51 76

25 51 76

25 51 76

25 51 76

25 51 76

25 51 76

25 51 76

25 51 76

25 51 76

25 51 76

25 51 76

25 51 76

25 51 76

25 51 76

25 51 76

25 51 76

25 51 76

25 51 76

25 51 76

25 51 76

25 51 76

25 51 76

25 51 76

25 51 76

25 51 76

25 51 76

25 51 76

25 51 76

25 51 76

25 51 76

25 51 76

25 51 76

25 51 76

25 51 76

25 51 76

25 51 76

25 51 76

25 51 76

25 51 76

25 51 76

25 51 76

25 51 76

25 51 76

25 51 76

25 51 76

25 51 76

25 51 76

25 51 76

25 51 76

25 51 76

25 51 76

25 51 76

25 51 76

25 51 76

25 51 76

25 51 76

25 51 76

25 51 76

25 51 76

25 51 76

25 51 76

25 51 76

25 51 76

25 51 76

25 51 76

25 51 76

25 51 76

25 51 76

25 51 76

25 51 76

25 51 76

25 51 76

25 51 76

25 51 76

25 51 76

25 51 76

25 51 76

25 51 76

25 51 76

25 51 76

25 51 76

25 51 76

25 51 76

25 51 76

25 51 76

25 51 76

25 51 76

25 51 76

25 51 76

25 51 76

25 51 76

25 51 76

25 51 76

25 51 76

25 51 76

25 51 76

25 51 76

25 51 76

25 51 76

25 51 76

25 51 76

25 51 76

25 51 76

25 51 76

25 51 76

25 51 76

25 51 76

25 51 76

25 51 76

25 51 76

25 51 76

25 51 76

25 51 76

25 51 76

25 51 76

25 51 76

25 51 76

25 51 76

25 51 76

25 51 76

25 51 76

25 51 76

25 51 76

25 51 76

25 51 76

25 51 76

25 51 76

25 51 76

25 51 76

25 51 76

25 51 76

25 51 76

25 51 76

25 51 76

25 51 76

25 51 76

25 51 76

25 51 76

25 51 76

25 51 76

25 51 76

25 51 76

25 51 76

25 51 76

25 51 76

25 51 76

25 51 76

25 51 76

25 51 76

25 51 76

25 51 76

25 51 76

25 51 76

25 51 76

25 51 76

25 51 76

25 51 76

25 51 76

25 51 76

25 51 76

25 51 76

25 51 76

25 51 76

25 51 76

25 51 76

25 51 76

25 51 76

25 51 76

25 51 76

25 51 76

25 51 76

25 51 76

25 51 76

25 51 76

25 51 76

25 51 76

25 51 76

25 51 76

25 51 76

25 51 76

25 51 76

25 51 76

25 51 76

25 51 76

25 51 76

25 51 76

25 51 76

25 51 76

25 51 76

25 51 76

25 51 76

25 51 76

25 51 76

25 51 76

25 51 76

25 51 76

25 51 76

25 51 76

25 51 76

25 51 76

25 51 76

25 51 76

25 51 76

25 51 76

25 51 76

25 51 76

25 51 76

25 51 76

25 51 76

25 51 76

25 51 76

25 51 76

25 51 76

25 51 76

25 51 76

25 51 76

25 51 76

25 51 76

25 51 76

25 51 76

25 51 76

25 51 76

25 51 76

25 51 76

25 51 76

25 51 76

25 51 76

25 51 76

25 51 76

25 51 76

25 51 76

25 51 76

25 51 76

25 51 76

25 51 76

25 51 76

25 51 76

25 51 76

25 51 76

25 51 76

25 51 76

25 51 76

25 51 76

25 51 76

25 51 76

25 51 76

25 51 76

25 51 76

25 51 76

25 51 76

25 51 76

25 51 76

25 51 76

25 51 76

25 51 76

25 51 76

25 51 76

25 51 76

25 51 76

25 51 76

25 51 76

25 51 76

25 51 76

25 51 76

25 51 76

25 51 76

25 51 76

25 51 76

25 51 76

25 51 76

25 51 76

25 51 76

25 51 76

25 51 76

25 51 76

25 51 76

25 51 76

25 51 76

25 51 76

25 51 76

25 51 76

25 51 76

25 51 76

25 51 76

25 51 76

25 51 76

25 51 76

25 51 76

25 51 76

25 51 76

25 51 76

25 51 76

25 51 76

25 51 76

25 51 76

25 51 76

25 51 76

25 51 76

25 51 76

25 51 76

25 51 76

25 51 76

25 51 76

25 51 76

25 51 76

25 51 76

25 51 76

25 51 76

25 51 76

25 51 76

25 51 76

25 51 76

25 51 76

25 51 76

25 51 76

25 51 76

25 51 76

25 51 76

25 51 76

25 51 76

25 51 76

25 51 76

25 51 76

25 51 76

25 51 76

25 51 76

25 51 76

25 51 76

25 51 76

25 51 76

25 51 76

25 51 76

25 51 76

25 51 76

25 51 76

25 51 76

25 51 76

25 51 76

25 51 76

25 51 76

25 51 76

25 51 76

25 51 76

25 51 76

25 51 76

25 51 76

25 51 76

25 51 76

25 51 76

25 51 76

25 51 76

25 51 76

25 51 76

25 51 76

25 51 76

25 51 76

25 51 76

25 51 76

25 51 76

25 51 76

25 51 76

25 51 76

25 51 76

25 51 76

25 51 76

25 51 76

25 51 76

25 51 76

25 51 76

25 51 76

25 51 76

25 51 76

25 51 76

25 51 76

25 51 76

25 51 76

25 51 76

25 51 76

25 51 76

25 51 76

25 51 76

25 51 76

25 51 76

25 51 76

25 51 76

25 51 76

25 51 76

25 51 76

25 51 76

25 51 76

25 51 76

25 51 76

25 51 76

25 51 76

25 51 76

25 51 76

25 51 76

25 51 76

25 51 76

25 51 76

25 51 76

25 51 76

25 51 76

25 51 76

25 51 76

25 51 76

25 51 76

25 51 76

25 51 76

25 51 76

25 51 76

25 51 76

25 51 76

25 51 76

25 51 76

25 51 76

25 51 76

25 51 76

25 51 76

25 51 76

25 51 76

25 51 76

25 51 76

25 51 76

25 51 76

25 51 76

25 51 76

25 51 76

25 51 76

25 51 76

25 51 76

25 51 76

25 51 76

25 51 76

25 51 76

25 51 76

25 51 76

25 51 76

25 51 76

25 51 76

25 51 76

25 51 76

25 51 76

25 51 76

25 51 76

25 51 76

25 51 76

25 51 76

25 51 76

25 51 76

25 51 76

25 51 76

25 51 76

25 51 76

25 51 76

25 51 76

25 51 76

25 51 76

25 51 76

25 51 76

25 51 76

25 51 76

25 51 76

25 51 76

25 51 76

25 51 76

25 51 76

25 51 76

25 51 76

25 51 76

25 51 76

25 51 76

25 51 76

25 51 76

25 51 76

25 51 76

25 51 76

25 51 76

25 51 76

25 51 76

25 51 76

25 51 76

25 51 76

25 51 76

25 51 76

25 51 76

25 51 76

25 51 76

25 51 76

25 51 76

25 51 76

25 51 76

25 51 76

25 51 76

25 51 76

25 51 76

25 51 76

25 51 76

25 51 76

25 51 76

25 51 76

25 51 76

25 51 76

25 51 76

25 51 76

25 51 76

25 51 76

25 51 76

25 51 76

25 51 76

25 51 76

25 51 76

25 51 76

25 51 76

25 51 76

25 51 76

25 51 76

25 51 76

25 51 76

25 51 76

25 51 76

25 51 76

25 51 76

25 51 76

25 51 76

25 51 76

25 51 76

25 51 76

25 51 76

25 51 76

25 51 76

25 51 76

25 51 76

25 51 76

25 51 76

25 51 76

25 51 76

25 51 76

25 51 76

25 51 76

25 51 76

25 51 76

25 51 76

25 51 76

25 51 76

25 51 76

25 51 76

25 51 76

25 51 76

25 51 76

25 51 76

25 51 76

25 51 76

25 51 76

25 51 76

25 51 76

25 51 76

25 51 76

25 51 76

25 51 76

25 51 76

25 51 76

25 51 76

25 51 76

25 51 76

25 51 76

25 51 76

25 51 76

25 51 76

25 51 76

25 51 76

25 51 76

25 51 76

25 51 76

25 51 76

25 51 76

25 51 76

25 51 76

25 51 76

25 51 76

25 51 76

25 51 76

25 51 76

25 51 76

25 51 76

25 51 76

25 51 76

25 51 76

25 51 76

25 51 76

25 51 76

25 51 76

25 51 76

25 51 76

25 51 76

25 51 76

25 51 76

25 51 76

25 51 76

25 51 76

25 51 76

25 51 76

25 51 76

25 51 76

25 51 76

25 51 76

25 51 76

25 51 76

25 51 76

25 51 76

25 51 76

25 51 76

25 51 76

25 51 76

25 51 76

25 51 76

25 51 76

25 51 76

25 51 76

25 51 76

25 51 76

25 51 76

25 51 76

25 51 76

25 51 76

25 51 76

25 51 76

25 51 76

25 51 76

25 51 76

25 51 76

25 51 76

25 51 76

25 51 76

25 51 76

25 51 76

25 51 76

25 51 76

25 51 76

25 51 76

25 51 76

25 51 76

25 51 76

25 51 76

25 51 76

25 51 76

25 51 76

25 51 76

25 51 76

25 51 76

25 51 76

25 51 76

25 51 76

25 51 76

25 51 76

25 51 76

25 51 76

25 51 76

25 51 76

25 51 76

25 51 76

25 51 76

25 51 76

25 51 76

25 51 76

25 51 76

25 51 76

25 51 76

25 51 76

25 51 76

25 51 76

25 51 76

25 51 76

25 51 76

25 51 76

25 51 76

25 51 76

25 51 76

25 51 76

25 51 76

25 51 76

25 51 76

25 51 76

25 51 76

25 51 76

25 51 76

25 51 76

25 51 76

25 51 76

25 51 76

25 51 76

25 51 76

25 51 76

25 51 76

25 51 76

25 51 76

25 51 76

25 51 76

25 51 76

25 51 76

25 51 76

25 51 76

25 51 76

25 51 76

25 51 76

25 51 76

25 51 76

25 51 76

25 51 76

25 51 76

25 51 76

25 51 76

25 51 76

25 51 76

25 51 76

25 51 76

25 51 76

25 51 76

25 51 76

25 51 76

25 51 76

25 51 76

25 51 76

25 51 76

25 51 76

25 51 76

25 51 76

25 51 76

25 51 76

25 51 76

25 51 76

25 51 76

25 51 76

25 51 76

25 51 76

25 51 76

25 51 76

25 51 76

25 51 76

25 51 76

25 51 76

25 51 76

25 51 76

25 51 76

25 51 76

25 51 76

25 51 76

25 51 76

25 51 76

25 51 76

25 51 76

25 51 76

25 51 76

25 51 76

25 51 76

25 51 76

25 51 76

25 51 76

25 51 76

25 51 76

25 51 76

25 51 76

25 51 76

25 51 76

25 51 76

25 51 76

25 51 76

25 51 76

25 51 76

25 51 76

25 51 76

25 51 76

25 51 76

25 51 76

25 51 76

25 51 76

25 51 76

25 51 76

25 51 76

25 51 76

25 51 76

25 51 76

25 51 76

25 51 76

25 51 76

25 51 76

25 51 76

25 51 76

25 51 76

25 51 76

25 51 76

25 51 76

25 51 76

25 51 76

25 51 76

25 51 76

25 51 76

25 51 76

25 51 76

25 51 76

25 51 76

25 51 76

25 51 76

25 51 76

25 51 76

25 51 76

25 51 76

25 51 76

25 51 76

25 51 76

25 51 76

25 51 76

25 51 76

25 51 76

25 51 76

25 51 76

25 51 76

25 51 76

25 51 76

25 51 76

25 51 76

25 51 76

25 51 76

25 51 76

25 51 76

25 51 76

25 51 76

25 51 76

25 51 76

25 51 76

25 51 76

25 51 76

25 51 76

25 51 76

25 51 76

25 51 76

25 51 76

25 51 76

25 51 76

25 51 76

25 51 76

25 51 76

25 51 76

25 51 76

25 51 76

25 51 76

25 51 76

25 51 76

25 51 76

25 51 76

25 51 76

25 51 76

25 51 76

25 51 76

25 51 76

25 51 76

25 51 76

25 51 76

25 51 76

25 51 76

25 51 76

25 51 76

25 51 76

25 51 76

25 51 76

25 51 76

25 51 76

25 51 76

25 51 76

25 51 76

25 51 76

25 51 76

25 51 76

25 51 76

25 51 76

25 51 76

25 51 76

25 51 76

25 51 76

25 51 76

25 51 76

25 51 76

25 51 76

25 51 76

25 51 76

25 51 76

25 51 76

25 51 76

25 51 76

25 51 76

25 51 76

25 51 76

25 51 76

25 51 76

25 51 76

25 51 76

25 51 76

25 51 76

25 51 76

25 51 76

25 51 76

25 51 76

25 51 76

25 51 76

25 51 76

25 51 76

25 51 76

25 51 76

25 51 76

25 51 76

25 51 76

25 51 76

25 51 76

25 51 76

25 51 76

25 51 76

25 51 76

25 51 76

25 51 76

25 51 76

25 51 76

25 51 76

25 51 76

25 51 76

25 51 76

25 51 76

25 51 76

25 51 76

25 51 76

25 51 76

25 51 76

25 51 76

25 51 76

25 51 76

25 51 76

25 51 76

25 51 76

25 51 76

25 51 76

25 51 76

25 51 76

25 51 76

25 51 76

25 51 76

25 51 76

25 51 76

25 51 76

25 51 76

25 51 76

25 51 76

25 51 76

25 51 76

25 51 76

25 51 76

25 51 76

25 51 76

25 51 76

25 51 76

25 51 76

25 51 76

25 51 76

25 51 76

25 51 76

25 51 76

25 51 76

25 51 76

25 51 76

25 51 76

25 51 76

25 51 76

25 51 76

25 51 76

25 51 76

25 51 76

25 51 76

25 51 76

25 51 76

25 51 76

25 51 76

25 51 76

25 51 76

25 51 76

25 51 76

25 51 76

25 51 76

25 51 76

25 51 76

25 51 76

25 51 76

25 51 76

25 51 76

25 51 76

25 51 76

25 51 76

25 51 76

25 51 76

25 51 76

25 51 76

25 51 76

25 51 76

25 51 76

25 51 76

25 51 76

25 51 76

25 51 76

25 51 76

25 51 76

25 51 76

25 51 76

25 51 76

25 51 76

25 51 76

25 51 76

25 51 76

25 51 76

25 51 76

25 51 76

25 51 76

25 51 76

25 51 76

25 51 76

25 51 76

25 51 76

25 51 76

25 51 76

25 51 76

25 51 76

25 51 76

25 51 76

25 51 76

25 51 76

25 51 76

25 51 76

25 51 76

25 51 76

25 51 76

25 51 76

25 51 76

25 51 76

25 51 76

25 51 76

25 51 76

25 51 76

25 51 76

25 51 76

25 51 76

25 51 76

25 51 76

25 51 76

25 51 76

25 51 76

25 51 76

25 51 76

25 51 76

25 51 76

25 51 76

25 51 76

25 51 76

25 51 76

25 51 76

25 51 76

25 51 76

25 51 76

25 51 76

25 51 76

25 51 76

25 51 76

25 51 76

25 51 76

25 51 76

25 51 76

25 51 76

25 51 76

25 51 76

25 51 76

25 51 76

25 51 76

25 51 76

25 51 76

25 51 76

25 51 76

25 51 76

25 51 76

25 51 76

25 51 76

25 51 76

25 51 76

25 51 76

25 51 76

25 51 76

25 51 76

25 51 76

25 51 76

25 51 76

25 51 76

25 51 76

25 51 76

25 51 76

25 51 76

25 51 76

25 51 76

25 51 76

25 51 76

25 51 76

25 51 76

25 51 76

25 51 76

25 51 76

25 51 76

25 51 76

25 51 76

25 51 76

25 51 76

25 51 76

25 51 76

25 51 76

25 51 76

25 51 76

25 51 76

25 51 76

25 51 76

25 51 76

25 51 76

25 51 76

25 51 76

25 51 76

25 51 76

25 51 76

25 51 76

25 51 76

25 51 76

25 51 76

25 51 76

25 51 76

25 51 76

25 51 76

25 51 76

25 51 76

25 51 76

25 51 76

25 51 76

25 51 76

25 51 76

25 51 76

25 51 76

25 51 76

25 51 76

25 51 76

25 51 76

25 51 76

25 51 76

25 51 76

25 51 76

25 51 76

25 51 76

25 51 76

25 51 76

25 51 76

25 51 76

25 51 76

25 51 76

25 51 76

25 51 76

25 51 76

25 51 76

25 51 76

25 51 76

25 51 76

25 51 76

25 51 76

25 51 76

25 51 76

25 51 76

25 51 76

25 51 76

25 51 76

25 51 76

25 51 76

25 51 76

25 51 76

25 51 76

25 51 76

25 51 76

25 51 76

25 51 76

25 51 76

25 51 76

25 51 76

25 51 76

25 51 76

25 51 76

25 51 76

25 51 76

25 51 76

25 51 76

25 51 76

25 51 76

25 51 76

25 51 76

25 51 76

25 51 76

25 51 76

25 51 76

25 51 76

25 51 76

25 51 76

25 51 76

25 51 76

25 51 76

25 51 76

25 51 76

25 51 76

25 51 76

25 51 76

25 51 76

25 51 76

25 51 76

25 51 76

25 51 76

25 51 76

25 51 76

25 51 76

25 51 76

25 51 76

25 51 76

25 51 76

25 51 76

25 51 76

25 51 76

25 51 76

25 51 76

25 51 76

25 51 76

25 51 76

25 51 76

25 51 76

25 51 76

25 51 76

25 51 76

25 51 76

25 51 76

25 51 76

25 51 76

25 51 76

25 51 76

25 51 76

25 51 76

25 51 76

25 51 76

25 51 76

25 51 76

25 51 76

25 51 76

25 51 76

25 51 76

25 51 76

25 51 76

25 51 76

25 51 76

25 51 76

25 51 76

25 51 76

25 51 76

25 51 76

25 51 76

25 51 76

25 51 76

25 51 76

25 51 76

25 51 76

25 51 76

25 51 76

25 51 76

25 51 76

25 51 76

25 51 76

25 51 76

25 51 76

25 51 76

25 51 76

25 51 76

25 51 76

25 51 76

25 51 76

25 51 76

25 51 76

25 51 76

25 51 76

25 51 76

25 51 76

25 51 76

25 51 76

25 51 76

25 51 76

25 51 76

25 51 76

25 51 76

25 51 76

25 51 76

25 51 76

25 51 76

25 51 76

25 51 76

25 51 76

25 51 76

25 51 76

25 51 76

25 51 76

25 51 76

25 51 76

25 51 76

25 51 76

25 51 76

25 51 76

25 51 76

25 51 76

25 51 76

25 51 76

25 51 76

25 51 76

25 51 76

25 51 76

25 51 76

25 51 76

25 51 76

25 51 76

25 51 76

25 51 76

25 51 76

25 51 76

25 51 76

25 51 76

25 51 76

25 51 76

25 51 76

25 51 76

25 51 76

25 51 76

25 51 76

25 51 76

25 51 76

25 51 76

25 51 76

25 51 76

25 51 76

25 51 76

25 51 76

25 51 76

25 51 76

25 51 76

25 51 76

25 51 76

25 51 76

25 51 76

25 51 76

25 51 76

25 51 76

25 51 76

25 51 76

25 51 76

25 51 76

25 51 76

25 51 76

25 51 76

25 51 76

25 51 76

25 51 76

25 51 76

25 51 76

25 51 76

25 51 76

25 51 76

25 51 76

25 51 76

25 51 76

25 51 76

25 51 76

25 51 76

25 51 76

25 51 76

25 51 76

25 51 76

25 51 76

25 51 76

25 51 76

25 51 76

25 51 76

25 51 76

25 51 76

25 51 76

25 51 76

25 51 76

25 51 76

25 51 76

25 51 76

25 51 76

25 51 76

25 51 76

25 51 76

25 51 76

25 51 76

25 51 76

25 51 76

25 51 76

25 51 76

25 51 76

25 51 76

25 51 76

25 51 76

25 51 76

25 51 76

25 51 76

25 51 76

25 51 76

25 51 76

25 51 76

25 51 76

25 51 76

25 51 76

25 51 76

25 51 76

25 51 76

25 51 76

25 51 76

25 51 76

25 51 76

25 51 76

25 51 76

25 51 76

25 51 76

25 51 76

25 51 76

25 51 76

25 51 76

25 51 76

25 51 76

25 51 76

25 51 76

25 51 76

25 51 76

25 51 76

25 51 76

25 51 76

25 51 76

25 51 76

25 51 76

25 51 76

25 51 76

25 51 76

25 51 76

25 51 76

25 51 76

25 51 76

25 51 76

25 51 76

25 51 76

25 51 76

25 51 76

25 51 76

25 51 76

25 51 76

25 51 76

25 51 76

25 51 76

25 51 76

25 51 76

25 51 76

25 51 76

25 51 76

25 51 76

25 51 76

25 51 76

25 51 76

25 51 76

25 51 76

25 51 76

25 51 76

25 51 76

25 51 76

25 51 76

25 51 76

25 51 76

25 51 76

25 51 76

25 51 76

25 51 76

25 51 76

25 51 76

25 51 76

25 51 76

25 51 76

25 51 76

25 51 76

25 51 76

25 51 76

25 51 76

25 51 76

25 51 76

25 51 76

25 51 76

25 51 76

25 51 76

25 51 76

25 51 76

25 51 76

25 51 76

25 51 76

25 51 76

25 51 76

25 51 76

25 51 76

25 51 76

25 51 76

25 51 76

25 51 76

25 51 76

25 51 76

25 51 76

25 51 76

25 51 76

25 51 76

25 51 76

25 51 76

25 51 76

25 51 76

25 51 76

25 51 76

25 51 76

25 51 76

25 51 76

25 51 76

25 51 76

25 51 76

25 51 76

25 51 76

25 51 76

25 51 76

25 51 76

25 51 76

25 51 76

25 51 76

25 51 76

25 51 76

25 51 76

25 51 76

25 51 76

25 51 76

25 51 76

25 51 76

25 51 76

25 51 76

25 51 76

25 51 76

25 51 76

25 51 76

25 51 76

25 51 76

25 51 76

25 51 76

25 51 76

25 51 76

25 51 76

25 51 76

25 51 76

25 51 76

25 51 76

25 51 76

25 51 76

25 51 76

25 51 76

25 51 76

25 51 76

25 51 76

25 51 76

25 51 76

25 51 76

25 51 76

25 51 76

25 51 76

25 51 76

25 51 76

25 51 76

25 51 76

25 51 76

25 51 76

25 51 76

25 51 76

25 51 76

25 51 76

25 51 76

25 51 76

25 51 76

25 51 76

25 51 76

25 51 76

25 51 76

25 51 76

25 51 76

25 51 76

25 51 76

25 51 76

25 51 76

25 51 76

25 51 76

25 51 76

25 51 76

25 51 76

25 51 76

25 51 76

25 51 76

25 51 76

25 51 76

25 51 76

25 51 76

25 51 76

25 51 76

25 51 76

25 51 76

25 51 76

25 51 76

25 51 76

25 51 76

25 51 76

25 51 76

25 51 76

25 51 76

25 51 76

25 51 76

25 51 76

25 51 76

25 51 76

25 51 76

25 51 76

25 51 76

25 51 76

25 51 76

25 51 76

25 51 76

25 51 76

25 51 76

25 51 76

25 51 76

25 51 76

25 51 76

25 51 76

25 51 76

25 51 76

25 51 76

25 51 76

25 51 76

25 51 76

25 51 76

25 51 76

25 51 76

25 51 76

25 51 76

25 51 76

25 51 76

25 51 76

25 51 76

25 51 76

25 51 76

25 51 76

25 51 76

25 51 76

25 51 76

25 51 76

25 51 76

25 51 76

25 51 76

25 51 76

25 51 76

25 51 76

25 51 76

25 51 76

25 51 76

25 51 76

25 51 76

25 51 76

25 51 76

25 51 76

25 51 76

25 51 76

25 51 76

25 51 76

25 51 76

25 51 76

25 51 76

25 51 76

25 51 76

25 51 76

25 51 76

25 51 76

25 51 76

25 51 76

25 51 76

25 51 76

25 51 76

25 51 76

25 51 76

25 51 76

25 51 76

25 51 76

25 51 76

25 51 76

25 51 76

25 51 76

25 51 76

25 51 76

25 51 76

25 51 76

25 51 76

25 51 76

25 51 76

25 51 76

25 51 76

25 51 76

25 51 76

25 51 76

25 51 76

25 51 76

25 51 76

25 51 76

25 51 76

25 51 76

25 51 76

25 51 76

25 51 76

25 51 76

25 51 76

25 51 76

25 51 76

25 51 76

25 51 76

25 51 76

25 51 76

25 51 76

25 51 76

25 51 76

25 51 76

25 51 76

25 51 76

25 51 76

25 51 76

25 51 76

25 51 76

25 51 76

25 51 76

25 51 76

25 51 76

25 51 76

25 51 76

25 51 76

25 51 76

25 51 76

25 51 76

25 51 76

25 51 76

25 51 76

25 51 76

25 51 76

25 51 76

25 51 76

25 51 76

25 51 76

25 51 76

25 51 76

25 51 76

25 51 76

25 51 76

25 51 76

25 51 76

25 51 76

25 51 76

25 51 76

25 51 76

25 51 76

25 51 76

25 51 76

25 51 76

25 51 76

25 51 76

25 51 76

25 51 76

25 51 76

25 51 76

25 51 76

25 51 76

25 51 76

25 51 76

25 51 76

25 51 76

25 51 76

25 51 76

25 51 76

25 51 76

25 51 76

25 51 76

25 51 76

25 51 76

25 51 76

25 51 76

25 51 76

25 51 76

25 51 76

25 51 76

25 51 76

25 51 76

25 51 76

25 51 76

25 51 76

25 51 76

25 51 76

25 51 76

25 51 76

25 51 76

25 51 76

25 51 76

25 51 76

25 51 76

25 51 76

25 51 76

25 51 76

25 51 76

25 51 76

25 51 76

25 51 76

25 51 76

25 51 76

25 51 76

25 51 76

25 51 76

25 51 76

25 51 76

25 51 76

25 51 76

25 51 76

25 51 76

25 51 76

25 51 76

25 51 76

25 51 76

25 51 76

25 51 76

25 51 76

25 51 76

25 51 76

25 51 76

25 51 76

25 51 76

25 51 76

25 51 76

25 51 76

25 51 76

25 51 76

25 51 76

25 51 76

25 51 76

25 51 76

25 51 76

25 51 76

25 51 76

25 51 76

25 51 76

25 51 76

25 51 76

25 51 76

25 51 76

25 51 76

25 51 76

25 51 76

25 51 76

25 51 76

25 51 76

25 51 76

25 51 76

25 51 76

25 51 76

25 51 76

25 51 76

25 51 76

25 51 76

25 51 76

25 51 76

25 51 76

25 51 76

25 51 76

25 51 76

25 51 76

25 51 76

25 51 76

25 51 76

25 51 76

25 51 76

25 51 76

25 51 76

25 51 76

25 51 76

25 51 76

25 51 76

25 51 76

25 51 76

25 51 76

25 51 76

25 51 76

25 51 76

25 51 76

25 51 76

25 51 76

25 51 76

25 51 76

25 51 76

25 51 76

25 51 76

25 51 76

25 51 76

25 51 76

25 51 76

25 51 76

25 51 76

25 51 76

25 51 76

25 51 76

25 51 76

25 51 76

25 51 76

25 51 76

25 51 76

25 51 76

25 51 76

25 51 76

25 51 76

25 51 76

25 51 76

25 51 76

25 51 76

25 51 76

25 51 76

25 51 76

25 51 76

25 51 76

25 51 76

25 51 76

25 51 76

25 51 76

25 51 76

25 51 76

25 51 76

25 51 76

25 51 76

25 51 76

25 51 76

25 51 76

25 51 76

25 51 76

25 51 76

25 51 76

25 51 76

25 51 76

25 51 76

25 51 76

25 51 76

25 51 76

25 51 76

25 51 76

25 51 76

25 51 76

25 51 76

25 51 76

25 51 76

25 51 76

25 51 76

25 51 76

25 51 76

25 51 76

25 51 76

25 51 76

25 51 76

25 51 76

25 51 76

25 51 76

25 51 76

25 51 76

25 51 76

25 51 76

25 51 76

25 51 76

25 51 76

25 51 76

25 51 76

25 51 76

25 51 76

25 51 76

25 51 76

25 51 76

25 51 76

25 51 76

25 51 76

25 51 76

25 51 76

25 51 76

25 51 76

25 51 76

25 51 76

25 51 76

25 51 76

25 51 76

25 51 76

25 51 76

25 51 76

25 51 76

25 51 76

25 51 76

25 51 76

25 51 76

25 51 76

25 51 76

25 51 76

25 51 76

25 51 76

25 51 76

25 51 76

25 51 76

25 51 76

25 51 76

25 51 76

25 51 76

25 51 76

25 51 76

25 51 76

25 51 76

25 51 76

25 51 76

25 51 76

25 51 76

25 51 76

25 51 76

25 51 76

25 51 76

25 51 76

25 51 76

25 51 76

25 51 76

25 51 76

25 51 76

25 51 76

25 51 76

25 51 76

25 51 76

25 51 76

25 51 76

25 51 76

25 51 76

25 51 76

25 51 76

25 51 76

25 51 76

25 51 76

25 51 76

25 51 76

25 51 76

25 51 76

25 51 76

25 51 76

25 51 76

25 51 76

25 51 76

25 51 76

25 51 76

25 51 76

25 51 76

25 51 76

25 51 76

25 51 76

25 51 76

25 51 76

25 51 76

25 51 76

25 51 76

25 51 76

25 51 76

25 51 76

25 51 76

25 51 76

25 51 76

25 51 76

25 51 76

25 51 76

25 51 76

25 51 76

25 51 76

25 51 76

25 51 76

25 51 76

25 51 76

25 51 76

25 51 76

25 51 76

25 51 76

25 51 76

25 51 76

25 51 76

25 51 76

25 51 76

25 51 76

25 51 76

25 51 76

25 51 76

25 51 76

25 51 76

25 51 76

25 51 76

25 51 76

25 51 76

25 51 76

25 51 76

25 51 76

25 51 76

25 51 76

25 51 76

25 51 76

25 51 76

25 51 76

25 51 76

25 51 76

25 51 76

25 51 76

25 51 76

25 51 76

25 51 76

25 51 76

25 51 76

25 51 76

25 51 76

25 51 76

25 51 76

25 51 76

25 51 76

25 51 76

25 51 76

25 51 76

25 51 76

25 51 76

25 51 76

25 51 76

25 51 76

25 51 76

25 51 76

25 51 76

25 51 76

25 51 76

25 51 76

25 51 76

25 51 76

25 51 76

25 51 76

25 51 76

25 51 76

25 51 76

25 51 76

25 51 76

25 51 76

25 51 76

25 51 76

25 51 76

25 51 76

25 51 76

25 51 76

25 51 76

25 51 76

25 51 76

25 51 76

25 51 76

25 51 76

25 51 76

25 51 76

25 51 76

25 51 76

25 51 76

25 51 76

25 51 76

25 51 76

25 51 76

25 51 76

25 51 76

25 51 76

25 51 76

25 51 76

25 51 76

25 51 76

25 51 76

25 51 76

25 51 76

25 51 76

25 51 76

25 51 76

25 51 76

25 51 76

25 51 76

25 51 76

25 51 76

25 51 76

25 51 76

25 51 76

25 51 76

25 51 76

25 51 76

25 51 76

25 51 76

25 51 76

25 51 76

25 51 76

25 51 76

25 51 76

25 51 76

25 51 76

25 51 76

25 51 76

25 51 76

25 51 76

25 51 76

25 51 76

25 51 76

25 51 76

25 51 76

25 51 76

25 51 76

25 51 76

25 51 76

25 51 76

25 51 76

25 51 76

25 51 76

25 51 76

25 51 76

25 51 76

25 51 76

25 51 76

25 51 76

25 51 76

25 51 76

25 51 76

25 51 76

25 51 76

25 51 76

25 51 76

25 51 76

25 51 76

25 51 76

25 51 76

25 51 76

25 51 76

25 51 76

25 51 76

25 51 76

25 51 76

25 51 76

25 51 76

25 51 76

25 51 76

25 51 76

25 51 76

25 51 76

25 51 76

25 51 76

25 51 76

25 51 76

25 51 76

25 51 76

25 51 76

25 51 76

25 51 76

25 51 76

25 51 76

25 51 76

25 51 76

25 51 76

25 51 76

25 51 76

25 51 76

25 51 76

25 51 76

25 51 76

25 51 76

25 51 76

25 51 76

25 51 76

25 51 76

25 51 76

25 51 76

25 51 76

25 51 76

25 51 76

25 51 76

25 51 76

25 51 76

25 51 76

25 51 76

25 51 76

25 51 76

25 51 76

25 51 76

25 51 76

25 51 76

25 51 76

25 51 76

25 51 76

25 51 76

25 51 76

25 51 76

25 51 76

25 51 76

25 51 76

25 51 76

25 51 76

25 51 76

25 51 76

25 51 76

25 51 76

25 51 76

25 51 76

25 51 76

25 51 76

25 51 76

25 51 76

25 51 76

25 51 76

25 51 76

25 51 76

25 51 76

25 51 76

25 51 76

25 51 76

25 51 76

25 51 76

25 51 76

25 51 76

25 51 76

25 51 76

25 51 76

25 51 76

25 51 76

25 51 76

25 51 76

25 51 76

25 51 76

25 51 76

25 51 76

25 51 76

25 51 76

25 51 76

25 51 76

25 51 76

25 51 76

25 51 76

25 51 76

25 51 76

25 51 76

25 51 76

25 51 76

25 51 76

25 51 76

25 51 76

25 51 76

25 51 76

25 51 76

25 51 76

25 51 76

25 51 76

25 51 76

25 51 76

25 51 76

25 51 76

25 51 76

25 51 76

25 51 76

25 51 76

25 51 76

25 51 76

25 51 76

25 51 76

25 51 76

25 51 76

25 51 76

25 51 76

25 51 76

25 51 76

25 51 76

25 51 76

25 51 76

25 51 76

25 51 76

25 51 76

25 51 76

25 51 76

25 51 76

25 51 76

25 51 76

25 51 76

25 51 76

25 51 76

25 51 76

25 51 76

25 51 76

25 51 76

25 51 76

25 51 76

25 51 76

25 51 76

25 51 76

25 51 76

25 51 76

25 51 76

25 51 76

25 51 76

25 51 76

25 51 76

25 51 76

25 51 76

25 51 76

25 51 76

25 51 76

25 51 76

25 51 76

25 51 76

25 51 76

25 51 76

25 51 76

25 51 76

25 51 76

25 51 76

25 51 76

25 51 76

25 51 76

25 51 76

25 51 76

25 51 76

25 51 76

25 51 76

25 51 76

25 51 76

25 51 76

25 51 76

25 51 76

25 51 76

25 51 76

25 51 76

25 51 76

25 51 76

25 51 76

25 51 76

25 51 76

25 51 76

25 51 76

25 51 76

25 51 76

25 51 76

25 51 76

25 51 76

25 51 76

25 51 76

25 51 76

25 51 76

25 51 76

25 51 76

25 51 76

25 51 76

25 51 76

25 51 76

25 51 76

25 51 76

25 51 76

25 51 76

25 51 76

25 51 76

25 51 76

25 51 76

25 51 76

25 51 76

25 51 76

25 51 76

25 51 76

25 51 76

25 51 76

25 51 76

25 51 76

25 51 76

25 51 76

25 51 76

25 51 76

25 51 76

25 51 76

25 51 76

25 51 76

25 51 76

25 51 76

25 51 76

25 51 76

25 51 76

25 51 76

25 51 76

25 51 76

25 51 76

25 51 76

25 51 76

25 51 76

25 51 76

25 51 76

25 51 76

25 51 76

25 51 76

25 51 76

25 51 76

25 51 76

25 51 76

25 51 76

25 51 76

25 51 76

25 51 76

25 51 76

25 51 76

25 51 76

25 51 76

25 51 76

25 51 76

25 51 76

25 51 76

25 51 76

25 51 76

25 51 76

25 51 76

25 51 76

25 51 76

25 51 76

25 51 76

25 51 76

25 51 76

25 51 76

25 51 76

25 51 76

25 51 76

25 51 76

25 51 76

25 51 76

25 51 76

25 51 76

25 51 76

25 51 76

25 51 76

25 51 76

25 51 76

25 51 76

25 51 76

25 51 76

25 51 76

25 51 76

25 51 76

25 51 76

25 51 76

25 51 76

25 51 76

25 51 76

25 51 76

25 51 76

25 51 76

25 51 76

25 51 76

25 51 76

25 51 76

25 51 76

25 51 76

25 51 76

25 51 76

25 51 76

25 51 76

25 51 76

25 51 76

25 51 76

25 51 76

25 51 76

25 51 76

25 51 76

25 51 76

25 51 76

25 51 76

25 51 76

25 51 76

25 51 76

25 51 76

25 51 76

25 51 76

25 51 76

25 51 76

25 51 76

25 51 76

25 51 76

25 51 76

25 51 76

25 51 76

25 51 76

25 51 76

25 51 76

25 51 76

25 51 76

25 51 76

25 51 76

25 51 76

25 51 76

25 51 76

25 51 76

25 51 76

25 51 76

25 51 76

25 51 76

25 51 76

25 51 76

25 51 76

25 51 76

25 51 76

25 51 76

25 51 76

25 51 76

25 51 76

25 51 76

25 51 76

25 51 76

25 51 76

25 51 76

25 51 76

25 51 76

25 51 76

25 51 76

25 51 76

25 51 76

25 51 76

25 51 76

25 51 76

25 51 76

25 51 76

25 51 76

25 51 76

25 51 76

25 51 76

25 51 76

25 51 76

25 51 76

25 51 76

25 51 76

25 51 76

25 51 76

25 51 76

25 51 76

25 51 76

25 51 76

25 51 76

25 51 76

25 51 76

25 51 76

25 51 76

25 51 76

25 51 76

25 51 76

25 51 76

25 51 76

25 51 76

25 51 76

25 51 76

25 51 76

25 51 76

25 51 76

25 51 76

25 51 76

25 51 76

25 51 76

25 51 76

25 51 76

25 51 76

25 51 76

25 51 76

25 51 76

25 51 76

25 51 76

25 51 76

25 51 76

25 51 76

25 51 76

25 51 76

25 51 76

25 51 76

25 51 76

25 51 76

25 51 76

25 51 76

25 51 76

25 51 76

25 51 76

25 51 76

25 51 76

25 51 76

25 51 76

25 51 76

25 51 76

25 51 76

25 51 76

25 51 76

25 51 76

25 51 76

25 51 76

25 51 76

25 51 76

25 51 76

25 51 76

25 51 76

25 51 76

25 51 76

25 51 76

25 51 76

25 51 76

25 51 76

25 51 76

25 51 76

25 51 76

25 51 76

25 51 76

25 51 76

25 51 76

25 51 76

25 51 76

25 51 76

25 51 76

25 51 76

25 51 76

25 51 76

25 51 76

25 51 76

25 51 76

25 51 76

25 51 76

25 51 76

25 51 76

25 51 76

25 51 76

25 51 76

25 51 76

25 51 76

25 51 76

25 51 76

25 51 76

25 51 76

25 51 76

25 51 76

25 51 76

25 51 76

25 51 76

25 51 76

25 51 76

25 51 76

25 51 76

25 51 76

25 51 76

25 51 76

25 51 76

25 51 76

25 51 76

25 51 76

25 51 76

25 51 76

25 51 76

25 51 76

25 51 76

25 51 76

25 51 76

25 51 76

25 51 76

25 51 76

25 51 76

25 51 76

25 51 76

25 51 76

25 51 76

25 51 76

25 51 76

25 51 76

25 51 76

25 51 76

25 51 76

25 51 76

25 51 76

25 51 76

25 51 76

25 51 76

25 51 76

25 51 76

25 51 76

25 51 76

25 51 76

25 51 76

25 51 76

25 51 76

25 51 76

25 51 76

25 51 76

25 51 76

25 51 76

25 51 76

25 51 76

25 51 76

25 51 76

25 51 76

25 51 76

25 51 76

25 51 76

25 51 76

25 51 76

25 51 76

25 51 76

25 51 76

25 51 76

25 51 76

25 51 76

25 51 76

25 51 76

25 51 76

25 51 76

25 51 76

25 51 76

25 51 76

25 51 76

25 51 76

25 51 76

25 51 76

25 51 76

25 51 76

25 51 76

25 51 76

25 51 76

25 51 76

25 51 76

25 51 76

25 51 76

25 51 76

25 51 76

25 51 76

25 51 76

25 51 76

25 51 76

25 51 76

25 51 76

25 51 76

25 51 76

25 51 76

25 51 76

25 51 76

25 51 76

25 51 76

25 51 76

25 51 76

25 51 76

25 51 76

25 51 76

25 51 76

25 51 76

25 51 76

25 51 76

25 51 76

25 51 76

25 51 76

25 51 76

25 51 76

25 51 76

25 51 76

25 51 76

25 51 76

25 51 76

25 51 76

25 51 76

25 51 76

25 51 76

25 51 76

25 51 76

25 51 76

25 51 76

25 51 76

25 51 76

25 51 76

25 51 76

25 51 76

25 51 76

25 51 76

25 51 76

25 51 76

25 51 76

25 51 76

25 51 76

25 51 76

25 51 76

25 51 76

25 51 76

25 51 76

25 51 76

25 51 76

25 51 76

25 51 76

25 51 76

25 51 76

25 51 76

25 51 76

25 51 76

25 51 76

25 51 76

25 51 76

25 51 76

25 51 76

25 51 76

25 51 76

25 51 76

25 51 76

25 51 76

25 51 76

25 51 76

25 51 76

25 51 76

25 51 76

25 51 76

25 51 76

25 51 76

25 51 76

25 51 76

25 51 76

25 51 76

25 51 76

25 51 76

25 51 76

25 51 76

25 51 76

25 51 76

25 51 76

25 51 76

25 51 76

25 51 76

25 51 76

25 51 76

25 51 76

25 51 76

25 51 76

25 51 76

25 51 76

25 51 76

25 51 76

25 51 76

25 51 76

25 51 76

25 51 76

25 51 76

25 51 76

25 51 76

25 51 76

25 51 76

25 51 76

25 51 76

25 51 76

25 51 76

25 51 76

25 51 76

25 51 76

25 51 76

25 51 76

25 51 76

25 51 76

25 51 76

25 51 76

25 51 76

25 51 76

25 51 76

25 51 76

25 51 76

25 51 76

25 51 76

25 51 76

25 51 76

25 51 76

25 51 76

25 51 76

25 51 76

25 51 76

25 51 76

25 51 76

25 51 76

25 51 76

25 51 76

25 51 76

25 51 76

25 51 76

25 51 76

25 51 76

25 51 76

25 51 76

25 51 76

25 51 76

25 51 76

25 51 76

25 51 76

25 51 76

25 51 76

25 51 76

25 51 76

25 51 76

25 51 76

25 51 76

25 51 76

25 51 76

25 51 76

25 51 76

25 51 76

25 51 76

25 51 76

25 51 76

25 51 76

25 51 76

25 51 76

25 51 76

25 51 76

25 51 76

25 51 76

25 51 76

25 51 76

25 51 76

25 51 76

25 51 76

25 51 76

25 51 76

25 51 76

25 51 76

25 51 76

25 51 76

25 51 76

25 51 76

25 51 76

25 51 76

25 51 76

25 51 76

25 51 76

25 51 76

25 51 76

25 51 76

25 51 76

25 51 76

25 51 76

25 51 76

25 51 76

25 51 76

25 51 76

25 51 76

25 51 76

25 51 76

25 51 76

25 51 76

25 51 76

25 51 76

25 51 76

25 51 76

25 51 76

25 51 76

25 51 76

25 51 76

25 51 76

25 51 76

25 51 76

25 51 76

25 51 76

25 51 76

25 51 76

25 51 76

25 51 76

25 51 76

25 51 76

25 51 76

25 51 76

25 51 76

25 51 76

25 51 76

25 51 76

25 51 76

25 51 76

25 51 76

25 51 76

25 51 76

25 51 76

25 51 76

25 51 76

25 51 76

25 51 76

25 51 76

25 51 76

25 51 76

25 51 76

25 51 76

25 51 76

25 51 76

25 51 76

25 51 76

25 51 76

25 51 76

25 51 76

25 51 76

25 51 76

25 51 76

25 51 76

25 51 76

25 51 76

25 51 76

25 51 76

25 51 76

25 51 76

25 51 76

25 51 76

25 51 76

25 51 76

25 51 76

25 51 76

25 51 76

25 51 76

25 51 76

25 51 76

25 51 76

25 51 76

25 51 76

25 51 76

25 51 76

25 51 76

25 51 76

25 51 76

25 51 76

25 51 76

25 51 76

25 51 76

25 51 76

25 51 76

25 51 76

25 51 76

25 51 76

25 51 76

25 51 76

25 51 76

25 51 76

25 51 76

25 51 76

25 51 76

25 51 76

25 51 76

25 51 76

25 51 76

25 51 76

25 51 76

25 51 76

25 51 76

25 51 76

25 51 76

25 51 76

25 51 76

25 51 76

25 51 76

25 51 76

25 51 76

25 51 76

25 51 76

25 51 76

25 51 76

25 51 76

25 51 76

25 51 76

25 51 76

25 51 76

25 51 76

25 51 76

25 51 76

25 51 76

25 51 76

25 51 76

25 51 76

25 51 76

25 51 76

25 51 76

25 51 76

25 51 76

25 51 76

25 51 76

25 51 76

25 51 76

25 51 76

25 51 76

25 51 76

25 51 76

25 51 76

25 51 76

25 51 76

25 51 76

25 51 76

25 51 76

25 51 76

25 51 76

25 51 76

25 51 76

25 51 76

25 51 76

25 51 76

25 51 76

25 51 76

25 51 76

25 51 76

25 51 76

25 51 76

25 51 76

25 51 76

25 51 76

25 51 76

25 51 76

25 51 76

25 51 76

25 51 76

25 51 76

25 51 76

25 51 76

25 51 76

25 51 76

25 51 76

25 51 76

25 51 76

25 51 76

25 51 76

25 51 76

25 51 76

25 51 76

25 51 76

25 51 76

25 51 76

25 51 76

25 51 76

25 51 76

25 51 76

25 51 76

25 51 76

25 51 76

25 51 76

25 51 76

25 51 76

25 51 76

25 51 76

25 51 76

25 51 76

25 51 76

25 51 76

25 51 76

25 51 76

25 51 76

25 51 76

25 51 76

25 51 76

25 51 76

25 51 76

25 51 76

25 51 76

25 51 76

25 51 76

25 51 76

25 51 76

25 51 76

25 51 76

25 51 76

25 51 76

25 51 76

25 51 76

25 51 76

25 51 76

25 51 76

25 51 76

25 51 76

25 51 76

25 51 76

25 51 76

25 51 76

25 51 76

25 51 76

25 51 76

25 51 76

25 51 76

25 51 76

25 51 76

25 51 76

25 51 76

25 51 76

25 51 76

25 51 76

25 51 76

25 51 76

25 51 76

25 51 76

25 51 76

25 51 76

25 51 76

25 51 76

25 51 76

25 51 76

25 51 76

25 51 76

25 51 76

25 51 76

25 51 76

25 51 76

25 51 76

25 51 76

25 51 76

25 51 76

25 51 76

25 51 76

25 51 76

25 51 76

25 51 76

25 51 76

25 51 76

25 51 76

25 51 76

25 51 76

25 51 76

25 51 76

25 51 76

25 51 76

25 51 76

25 51 76

25 51 76

25 51 76

25 51 76

25 51 76

25 51 76

25 51 76

25 51 76

25 51 76

25 51 76

25 51 76

25 51 76

25 51 76

25 51 76

25 51 76

25 51 76

25 51 76

25 51 76

25 51 76

25 51 76

25 51 76

25 51 76

25 51 76

25 51 76

25 51 76

25 51 76

25 51 76

25 51 76

25 51 76

25 51 76

25 51 76

25 51 76

25 51 76

25 51 76

25 51 76

25 51 76

25 51 76

25 51 76

25 51 76

25 51 76

25 51 76

25 51 76

25 51 76

25 51 76

25 51 76

25 51 76

25 51 76

25 51 76

25 51 76

25 51 76

25 51 76

25 51 76

25 51 76

25 51 76

25 51 76

25 51 76

25 51 76

25 51 76

25 51 76

25 51 76

25 51 76

25 51 76

25 51 76

25 51 76

25 51 76

25 51 76

25 51 76

25 51 76

25 51 76

25 51 76

25 51 76

25 51 76

25 51 76

25 51 76

25 51 76

25 51 76

25 51 76

25 51 76

25 51 76

25 51 76

25 51 76

25 51 76

25 51 76

25 51 76

25 51 76

25 51 76

25 51 76

25 51 76

25 51 76

25 51 76

25 51 76

25 51 76

25 51 76

25 51 76

25 51 76

25 51 76

25 51 76

25 51 76

25 51 76

25 51 76

25 51 76

25 51 76

25 51 76

25 51 76

25 51 76

25 51 76

25 51 76

25 51 76

25 51 76

25 51 76

25 51 76

25 51 76

25 51 76

25 51 76

25 51 76

25 51 76

25 51 76

25 51 76

25 51 76

25 51 76

25 51 76

25 51 76

25 51 76

25 51 76

25 51 76

25 51 76

25 51 76

25 51 76

25 51 76

25 51 76

25 51 76

25 51 76

25 51 76

25 51 76

25 51 76

25 51 76

25 51 76

25 51 76

25 51 76

25 51 76

25 51 76

25 51 76

25 51 76

25 51 76

25 51 76

25 51 76

25 51 76

25 51 76

25 51 76

25 51 76

25 51 76

25 51 76

25 51 76

25 51 76

25 51 76

25 51 76

25 51 76

25 51 76

25 51 76

25 51 76

25 51 76

25 51 76

25 51 76

25 51 76

25 51 76

25 51 76

25 51 76

25 51 76

25 51 76

25 51 76

25 51 76

25 51 76

25 51 76

25 51 76

25 51 76

25 51 76

25 51 76

25 51 76

25 51 76

25 51 76

25 51 76

25 51 76

25 51 76

25 51 76

25 51 76

25 51 76

25 51 76

25 51 76

25 51 76

25 51 76

25 51 76

25 51 76

25 51 76

25 51 76

25 51 76

25 51 76

25 51 76

25 51 76

25 51 76

25 51 76

25 51 76

25 51 76

25 51 76

25 51 76

25 51 76

25 51 76

25 51 76

25 51 76

25 51 76

25 51 76

25 51 76

25 51 76

25 51 76

25 51 76

25 51 76

25 51 76

25 51 76

25 51 76

25 51 76

25 51 76

25 51 76

25 51 76

25 51 76

25 51 76

25 51 76

25 51 76

25 51 76

25 51 76

25 51 76

25 51 76

25 51 76

25 51 76

25 51 76

25 51 76

25 51 76

25 51 76

25 51 76

25 51 76

25 51 76

25 51 76

25 51 76

25 51 76

25 51 76

25 51 76

25 51 76

25 51 76

25 51 76

25 51 76

25 51 76

25 51 76

25 51 76

25 51 76

25 51 76

25 51 76

25 51 76

25 51 76

25 51 76

25 51 76

25 51 76

25 51 76

25 51 76

25 51 76

25 51 76

25 51 76

25 51 76

25 51 76

25 51 76

25 51 76

25 51 76

25 51 76

25 51 76

25 51 76

25 51 76

25 51 76

25 51 76

25 51 76

25 51 76

25 51 76

25 51 76

25 51 76

25 51 76

25 51 76

25 51 76

25 51 76

25 51 76

25 51 76

25 51 76

25 51 76

25 51 76

25 51 76

25 51 76

25 51 76

25 51 76

25 51 76

25 51 76

25 51 76

25 51 76

25 51 76

25 51 76

25 51 76

25 51 76

25 51 76

25 51 76

25 51 76

25 51 76

25 51 76

25 51 76

25 51 76

25 51 76

25 51 76

25 51 76

25 51 76

25 51 76

25 51 76

25 51 76

25 51 76

25 51 76

25 51 76

25 51 76

25 51 76

25 51 76

25 51 76

25 51 76

25 51 76

25 51 76

25 51 76

25 51 76

25 51 76

25 51 76

25 51 76

25 51 76

25 51 76

25 51 76

25 51 76

25 51 76

25 51 76

25 51 76

25 51 76

25 51 76

25 51 76

25 51 76

25 51 76

25 51 76

25 51 76

25 51 76

25 51 76

25 51 76

25 51 76

25 51 76

25 51 76

25 51 76

25 51 76

25 51 76

25 51 76

25 51 76

25 51 76

25 51 76

25 51 76

25 51 76

25 51 76

25 51 76

25 51 76

25 51 76

25 51 76

25 51 76

25 51 76

25 51 76

25 51 76

25 51 76

25 51 76

25 51 76

25 51 76

25 51 76

25 51 76

25 51 76

25 51 76

25 51 76

25 51 76

25 51 76

25 51 76

25 51 76

25 51 76

25 51 76

25 51 76

25 51 76

25 51 76

25 51 76

25 51 76

25 51 76

25 51 76

25 51 76

25 51 76

25 51 76

25 51 76

25 51 76

25 51 76

25 51 76

25 51 76

25 51 76

25 51 76

25 51 76

25 51 76

25 51 76

25 51 76

25 51 76

25 51 76

25 51 76

25 51 76

25 51 76

25 51 76

25 51 76

25 51 76

25 51 76

25 51 76

25 51 76

25 51 76

25 51 76

25 51 76

25 51 76

25 51 76

25 51 76

25 51 76

25 51 76

25 51 76

25 51 76

25 51 76

25 51 76

25 51 76

25 51 76

25 51 76

25 51 76

25 51 76

25 51 76

25 51 76

25 51 76

25 51 76

25 51 76

25 51 76

25 51 76

25 51 76

25 51 76

25 51 76

25 51 76

25 51 76

25 51 76

25 51 76

25 51 76

25 51 76

25 51 76

25 51 76

25 51 76

25 51 76

25 51 76

25 51 76

25 51 76

25 51 76

25 51 76

25 51 76

25 51 76

25 51 76

25 51 76

25 51 76

25 51 76

25 51 76

25 51 76

25 51 76

25 51 76

25 51 76

25 51 76

25 51 76

25 51 76

25 51 76

25 51 76

25 51 76

25 51 76

25 51 76

25 51 76

25 51 76

25 51 76

25 51 76

25 51 76

25 51 76

25 51 76

25 51 76

25 51 76

25 51 76

25 51 76

25 51 76

25 51 76

25 51 76

25 51 76

25 51 76

25 51 76

25 51 76

25 51 76

25 51 76

25 51 76

25 51 76

25 51 76

25 51 76

25 51 76

25 51 76

25 51 76

25 51 76

25 51 76

25 51 76

25 51 76

25 51 76

25 51 76

25 51 76

25 51 76

25 51 76

25 51 76

25 51 76

25 51 76

25 51 76

25 51 76

25 51 76

25 51 76

25 51 76

25 51 76

25 51 76

25 51 76

25 51 76

25 51 76

25 51 76

25 51 76

25 51 76

25 51 76

25 51 76

25 51 76

25 51 76

25 51 76

25 51 76

25 51 76

25 51 76

25 51 76

25 51 76

25 51 76

25 51 76

25 51 76

25 51 76

25 51 76

25 51 76

25 51 76

25 51 76

25 51 76

25 51 76

25 51 76

25 51 76

25 51 76

25 51 76

25 51 76

25 51 76

25 51 76

25 51 76

25 51 76

25 51 76

25 51 76

25 51 76

25 51 76

25 51 76

25 51 76

25 51 76

25 51 76

25 51 76

25 51 76

25 51 76

25 51 76

25 51 76

25 51 76

25 51 76

25 51 76

25 51 76

25 51 76

25 51 76

25 51 76

25 51 76

25 51 76

25 51 76

25 51 76

25 51 76

25 51 76

25 51 76

25 51 76

25 51 76

25 51 76

25 51 76

25 51 76

25 51 76

25 51 76

25 51 76

25 51 76

25 51 76

25 51 76

25 51 76

25 51 76

25 51 76

25 51 76

25 51 76

25 51 76

25 51 76

25 51 76

25 51 76

25 51 76

25 51 76

25 51 76

25 51 76

25 51 76

25 51 76

25 51 76

25 51 76

25 51 76

25 51 76

25 51 76

25 51 76

25 51 76

25 51 76

25 51 76

25 51 76

25 51 76

25 51 76

25 51 76

25 51 76

25 51 76

25 51 76

25 51 76

25 51 76

25 51 76

25 51 76

25 51 76

25 51 76

25 51 76

25 51 76

25 51 76

25 51 76

25 51 76

25 51 76

25 51 76

25 51 76

25 51 76

25 51 76

25 51 76

25 51 76

25 51 76

25 51 76

25 51 76

25 51 76

25 51 76

25 51 76

25 51 76

25 51 76

25 51 76

25 51 76

25 51 76

25 51 76

25 51 76

25 51 76

25 51 76

25 51 76

25 51 76

25 51 76

25 51 76

25 51 76

25 51 76

25 51 76

25 51 76

25 51 76

25 51 76

25 51 76

25 51 76

25 51 76

25 51 76

25 51 76

25 51 76

25 51 76

25 51 76

25 51 76

25 51 76

25 51 76

25 51 76

25 51 76

25 51 76

25 51 76

25 51 76

25 51 76

25 51 76

25 51 76

25 51 76

25 51 76

25 51 76

25 51 76

25 51 76

25 51 76

25 51 76

25 51 76

25 51 76

25 51 76

25 51 76

25 51 76

25 51 76

25 51 76

25 51 76

25 51 76

25 51 76

25 51 76

25 51 76

25 51 76

25 51 76

25 51 76

25 51 76

25 51 76

25 51 76

25 51 76

25 51 76

25 51 76

25 51 76

25 51 76

25 51 76

25 51 76

25 51 76

25 51 76

25 51 76

25 51 76

25 51 76

25 51 76

25 51 76

25 51 76

25 51 76

25 51 76

25 51 76

25 51 76

25 51 76

25 51 76

25 51 76

25 51 76

25 51 76

25 51 76

25 51 76

25 51 76

25 51 76

25 51 76

25 51 76

25 51 76

25 51 76

25 51 76

25 51 76

25 51 76

25 51 76

25 51 76

25 51 76

25 51 76

25 51 76

25 51 76

25 51 76

25 51 76

25 51 76

25 51 76

25 51 76

25 51 76

25 51 76

25 51 76

25 51 76

25 51 76

25 51 76

25 51 76

25 51 76

25 51 76

25 51 76

25 51 76

25 51 76

25 51 76

25 51 76

25 51 76

25 51 76

25 51 76

25 51 76

25 51 76

25 51 76

25 51 76

25 51 76

25 51 76

25 51 76

25 51 76

25 51 76

25 51 76

25 51 76

25 51 76

25 51 76

25 51 76

25 51 76

25 51 76

25 51 76

25 51 76

25 51 76

25 51 76

25 51 76

25 51 76

25 51 76

25 51 76

25 51 76

25 51 76

25 51 76

25 51 76

25 51 76

25 51 76

25 51 76

25 51 76

25 51 76

25 51 76

25 51 76

25 51 76

25 51 76

25 51 76

25 51 76

25 51 76

25 51 76

25 51 76

25 51 76

25 51 76

25 51 76

25 51 76

25 51 76

25 51 76

25 51 76

25 51 76

25 51 76

25 51 76

25 51 76

25 51 76

25 51 76

25 51 76

25 51 76

25 51 76

25 51 76

25 51 76

25 51 76

25 51 76

25 51 76

25 51 76

25 51 76

25 51 76

25 51 76

25 51 76

25 51 76

25 51 76

25 51 76

25 51 76

25 51 76

25 51 76

25 51 76

25 51 76

25 51 76

25 51 76

25 51 76

25 51 76

25 51 76

25 51 76

25 51 76

25 51 76

25 51 76

25 51 76

25 51 76

25 51 76

25 51 76

25 51 76

25 51 76

25 51 76

25 51 76

25 51 76

25 51 76

25 51 76

25 51 76

25 51 76

25 51 76

25 51 76

25 51 76

25 51 76

25 51 76

25 51 76

25 51 76

25 51 76

25 51 76

25 51 76

25 51 76

25 51 76

25 51 76

25 51 76

25 51 76

25 51 76

25 51 76

25 51 76

25 51 76

25 51 76

25 51 76

25 51 76

25 51 76

25 51 76

25 51 76

25 51 76

25 51 76

25 51 76

25 51 76

25 51 76

25 51 76

25 51 76

25 51 76

25 51 76

25 51 76

25 51 76

25 51 76

25 51 76

25 51 76

25 51 76

25 51 76

25 51 76

25 51 76

25 51 76

25 51 76

25 51 76

25 51 76

25 51 76

25 51 76

25 51 76

25 51 76

25 51 76

25 51 76

25 51 76

25 51 76

25 51 76

25 51 76

25 51 76

25 51 76

25 51 76

25 51 76

25 51 76

25 51 76

25 51 76

25 51 76

25 51 76

25 51 76

25 51 76

25 51 76

25 51 76

25 51 76

25 51 76

25 51 76

25 51 76

25 51 76

25 51 76

25 51 76

25 51 76

25 51 76

25 51 76

25 51 76

25 51 76

25 51 76

25 51 76

25 51 76

25 51 76

25 51 76

25 51 76

25 51 76

25 51 76

25 51 76

25 51 76

25 51 76

25 51 76

25 51 76

25 51 76

25 51 76

25 51 76

25 51 76

25 51 76

25 51 76

25 51 76

25 51 76

25 51 76

25 51 76

25 51 76

25 51 76

25 51 76

25 51 76

25 51 76

25 51 76

25 51 76

25 51 76

25 51 76

25 51 76

25 51 76

25 51 76

25 51 76

25 51 76

25 51 76

25 51 76

25 51 76

25 51 76

25 51 76

25 51 76

25 51 76

25 51 76

25 51 76

25 51 76

25 51 76

25 51 76

25 51 76

25 51 76

25 51 76

25 51 76

25 51 76

25 51 76

25 51 76

25 51 76

25 51 76

25 51 76

25 51 76

25 51 76

25 51 76

25 51 76

25 51 76

25 51 76

25 51 76

25 51 76

25 51 76

25 51 76

25 51 76

25 51 76

25 51 76

25 51 76

25 51 76

25 51 76

25 51 76

25 51 76

25 51 76

25 51 76

25 51 76

25 51 76

25 51 76

25 51 76

25 51 76

25 51 76

25 51 76

25 51 76

25 51 76

25 51 76

25 51 76

25 51 76

25 51 76

25 51 76

25 51 76

25 51 76

25 51 76

25 51 76

25 51 76

25 51 76

25 51 76

25 51 76

25 51 76

25 51 76

25 51 76

25 51 76

25 51 76

25 51 76

25 51 76

25 51 76

25 51 76

25 51 76

25 51 76

25 51 76

25 51 76

25 51 76

25 51 76

25 51 76

25 51 76

25 51 76

25 51 76

25 51 76

25 51 76

25 51 76

25 51 76

25 51 76

25 51 76

25 51 76

25 51 76

25 51 76

25 51 76

25 51 76

25 51 76

25 51 76

25 51 76

25 51 76

25 51 76

25 51 76

25 51 76

25 51 76

25 51 76

25 51 76

25 51 76

25 51 76

25 51 76

25 51 76

25 51 76

25 51 76

25 51 76

25 51 76

25 51 76

25 51 76

25 51 76

25 51 76

25 51 76

25 51 76

25 51 76

25 51 76

25 51 76

25 51 76

25 51 76

25 51 76

25 51 76

25 51 76

25 51 76

25 51 76

25 51 76

25 51 76

25 51 76

25 51 76

25 51 76

25 51 76

25 51 76

25 51 76

25 51 76

25 51 76

25 51 76

25 51 76

25 51 76

25 51 76

25 51 76

25 51 76

25 51 76

25 51 76

25 51 76

25 51 76

25 51 76

25 51 76

25 51 76

25 51 76

25 51 76

25 51 76

25 51 76

25 51 76

25 51 76

25 51 76

25 51 76

25 51 76

25 51 76

25 51 76

25 51 76

25 51 76

25 51 76

25 51 76

25 51 76

25 51 76

25 51 76

25 51 76

25 51 76

25 51 76

25 51 76

25 51 76

25 51 76

25 51 76

25 51 76

25 51 76

25 51 76

25 51 76

25 51 76

25 51 76

25 51 76

25 51 76

25 51 76

25 51 76

25 51 76

25 51 76

25 51 76

25 51 76

25 51 76

25 51 76

25 51 76

25 51 76

25 51 76

25 51 76

25 51 76

25 51 76

25 51 76

25 51 76

25 51 76

25 51 76

25 51 76

25 51 76

25 51 76

25 51 76

25 51 76

25 51 76

25 51 76

25 51 76

25 51 76

25 51 76

25 51 76

25 51 76

25 51 76

25 51 76

25 51 76

25 51 76

25 51 76

25 51 76

25 51 76

25 51 76

25 51 76

25 51 76

25 51 76

25 51 76

25 51 76

25 51 76

25 51 76

25 51 76

25 51 76

25 51 76

25 51 76

25 51 76

25 51 76

25 51 76

25 51 76

25 51 76

25 51 76

25 51 76

25 51 76

25 51 76

25 51 76

25 51 76

25 51 76

25 51 76

25 51 76

25 51 76

25 51 76

25 51 76

25 51 76

25 51 76

25 51 76

25 51 76

25 51 76

25 51 76

25 51 76

25 51 76

25 51 76

25 51 76

25 51 76

25 51 76

25 51 76

25 51 76

25 51 76

25 51 76

25 51 76

25 51 76

25 51 76

25 51 76

25 51 76

25 51 76

25 51 76

25 51 76

25 51 76

25 51 76

25 51 76

25 51 76

25 51 76

25 51 76

25 51 76

25 51 76

25 51 76

25 51 76

25 51 76

25 51 76

25 51 76

25 51 76

25 51 76

25 51 76

25 51 76

25 51 76

25 51 76

25 51 76

25 51 76

25 51 76

25 51 76

25 51 76

25 51 76

25 51 76

25 51 76

25 51 76

25 51 76

25 51 76

25 51 76

25 51 76

25 51 76

25 51 76

25 51 76

25 51 76

25 51 76

25 51 76

25 51 76

25 51 76

25 51 76

25 51 76

25 51 76

25 51 76

25 51 76

25 51 76

25 51 76

25 51 76

25 51 76

25 51 76

25 51 76

25 51 76

25 51 76

25 51 76

25 51 76

25 51 76

25 51 76

25 51 76

25 51 76

25 51 76

25 51 76

25 51 76

25 51 76

25 51 76

25 51 76

25 51 76

25 51 76

25 51 76

25 51 76

25 51 76

25 51 76

25 51 76

25 51 76

25 51 76

25 51 76

25 51 76

25 51 76

25 51 76

25 51 76

25 51 76

25 51 76

25 51 76

25 51 76

25 51 76

25 51 76

25 51 76

25 51 76

25 51 76

25 51 76

25 51 76

25 51 76

25 51 76

25 51 76

25 51 76

25 51 76

25 51 76

25 51 76

25 51 76

25 51 76

25 51 76

25 51 76

25 51 76

25 51 76

25 51 76

25 51 76

25 51 76

25 51 76

25 51 76

25 51 76

25 51 76

25 51 76

25 51 76

25 51 76

25 51 76

25 51 76

25 51 76

25 51 76

25 51 76

25 51 76

25 51 76

25 51 76

25 51 76

25 51 76

25 51 76

25 51 76

25 51 76

25 51 76

25 51 76

25 51 76

25 51 76

25 51 76

25 51 76

25 51 76

25 51 76

25 51 76

25 51 76

25 51 76

25 51 76

25 51 76

25 51 76

25 51 76

25 51 76

25 51 76

25 51 76

25 51 76

25 51 76

25 51 76

25 51 76

25 51 76

25 51 76

25 51 76

25 51 76

25 51 76

25 51 76

25 51 76

25 51 76

25 51 76

25 51 76

25 51 76

25 51 76

25 51 76

25 51 76

25 51 76

25 51 76

25 51 76

25 51 76

25 51 76

25 51 76

25 51 76

25 51 76

25 51 76

25 51 76

25 51 76

25 51 76

25 51 76

25 51 76

25 51 76

25 51 76

25 51 76

25 51 76

25 51 76

25 51 76

25 51 76

25 51 76

25 51 76

25 51 76

25 51 76

25 51 76

25 51 76

25 51 76

25 51 76

25 51 76

25 51 76

25 51 76

25 51 76

25 51 76

25 51 76

25 51 76

25 51 76

25 51 76

25 51 76

25 51 76

25 51 76

25 51 76

25 51 76

25 51 76

25 51 76

25 51 76

25 51 76

25 51 76

25 51 76

25 51 76

25 51 76

25 51 76

25 51 76

25 51 76

25 51 76

25 51 76

25 51 76

25 51 76

25 51 76

25 51 76

25 51 76

25 51 76

25 51 76

25 51 76

25 51 76

25 51 76

25 51 76

25 51 76

25 51 76

25 51 76

25 51 76

25 51 76

25 51 76

25 51 76

25 51 76

25 51 76

25 51 76

25 51 76

25 51 76

25 51 76

25 51 76

25 51 76

25 51 76

25 51 76

25 51 76

25 51 76

25 51 76

25 51 76

25 51 76

25 51 76

25 51 76

25 51 76

25 51 76

25 51 76

25 51 76

25 51 76

25 51 76

25 51 76

25 51 76

25 51 76

25 51 76

25 51 76

25 51 76

25 51 76

25 51 76

25 51 76

25 51 76

25 51 76

25 51 76

25 51 76

25 51 76

25 51 76

25 51 76

25 51 76

25 51 76

25 51 76

25 51 76

25 51 76

25 51 76

25 51 76

25 51 76

25 51 76

25 51 76

25 51 76

25 51 76

25 51 76

25 51 76

25 51 76

25 51 76

25 51 76

25 51 76

25 51 76

25 51 76

25 51 76

25 51 76

25 51 76

25 51 76

25 51 76

25 51 76

25 51 76

25 51 76

25 51 76

25 51 76

25 51 76

25 51 76

25 51 76

25 51 76

25 51 76

25 51 76

25 51 76

25 51 76

25 51 76

25 51 76

25 51 76

25 51 76

25 51 76

25 51 76

25 51 76

25 51 76

25 51 76

25 51 76

25 51 76

25 51 76

25 51 76

25 51 76

25 51 76

25 51 76

25 51 76

25 51 76

25 51 76

25 51 76

25 51 76

25 51 76

25 51 76

25 51 76

25 51 76

25 51 76

25 51 76

25 51 76

25 51 76

25 51 76

25 51 76

25 51 76

25 51 76

25 51 76

25 51 76

25 51 76

25 51 76

25 51 76

25 51 76

25 51 76

25 51 76

25 51 76

25 51 76

25 51 76

25 51 76

25 51 76

25 51 76

25 51 76

25 51 76

25 51 76

25 51 76

25 51 76

25 51 76

25 51 76

25 51 76

25 51 76

25 51 76

25 51 76

25 51 76

25 51 76

25 51 76

25 51 76

25 51 76

25 51 76

25 51 76

25 51 76

25 51 76

25 51 76

25 51 76

25 51 76

25 51 76

25 51 76

25 51 76

25 51 76

25 51 76

25 51 76

25 51 76

25 51 76

25 51 76

25 51 76

25 51 76

25 51 76

25 51 76

25 51 76

25 51 76

25 51 76

25 51 76

25 51 76

25 51 76

25 51 76

25 51 76

25 51 76

25 51 76

25 51 76

25 51 76

25 51 76

25 51 76

25 51 76

25 51 76

25 51 76

25 51 76

25 51 76

25 51 76

25 51 76

25 51 76

25 51 76

25 51 76

25 51 76

25 51 76

25 51 76

25 51 76

25 51 76

25 51 76

25 51 76

25 51 76

25 51 76

25 51 76

25 51 76

25 51 76

25 51 76

25 51 76

25 51 76

25 51 76

25 51 76

25 51 76

25 51 76

25 51 76

25 51 76

25 51 76

25 51 76

25 51 76

25 51 76

25 51 76

25 51 76

25 51 76

25 51 76

25 51 76

25 51 76

25 51 76

25 51 76

25 51 76

25 51 76

25 51 76

25 51 76

25 51 76

25 51 76

25 51 76

25 51 76

25 51 76

25 51 76

25 51 76

25 51 76

25 51 76

25 51 76

25 51 76

25 51 76

25 51 76

25 51 76

25 51 76

25 51 76

25 51 76

25 51 76

25 51 76

25 51 76

25 51 76

25 51 76

25 51 76

25 51 76

25 51 76

25 51 76

25 51 76

25 51 76

25 51 76

25 51 76

25 51 76

25 51 76

25 51 76

25 51 76

25 51 76

25 51 76

25 51 76

25 51 76

25 51 76

25 51 76

25 51 76

25 51 76

25 51 76

25 51 76

25 51 76

25 51 76

25 51 76

25 51 76

25 51 76

25 51 76

25 51 76

25 51 76

25 51 76

25 51 76

25 51 76

25 51 76

25 51 76

25 51 76

25 51 76

25 51 76

25 51 76

25 51 76

25 51 76

25 51 76

25 51 76

25 51 76

25 51 76

25 51 76

25 51 76

25 51 76

25 51 76

25 51 76

25 51 76

25 51 76

25 51 76

25 51 76

25 51 76

25 51 76

25 51 76

25 51 76

25 51 76

25 51 76

25 51 76

25 51 76

25 51 76

25 51 76

25 51 76

25 51 76

25 51 76

25 51 76

25 51 76

25 51 76

25 51 76

25 51 76

25 51 76

25 51 76

25 51 76

25 51 76

25 51 76

25 51 76

25 51 76

25 51 76

25 51 76

25 51 76

25 51 76

25 51 76

25 51 76

25 51 76

25 51 76

25 51 76

25 51 76

25 51 76

25 51 76

25 51 76

25 51 76

25 51 76

25 51 76

25 51 76

25 51 76

25 51 76

25 51 76

25 51 76

25 51 76

25 51 76

25 51 76

25 51 76

25 51 76

25 51 76

25 51 76

25 51 76

25 51 76

25 51 76

25 51 76

25 51 76

25 51 76

25 51 76

25 51 76

25 51 76

25 51 76

25 51 76

25 51 76

25 51 76

25 51 76

25 51 76

25 51 76

25 51 76

25 51 76

25 51 76

25 51 76

25 51 76

25 51 76

25 51 76

25 51 76

25 51 76

25 51 76

25 51 76

25 51 76

25 51 76

25 51 76

25 51 76

25 51 76

25 51 76

25 51 76

25 51 76

25 51 76

25 51 76

25 51 76

25 51 76

25 51 76

25 51 76

25 51 76

25 51 76

25 51 76

25 51 76

25 51 76

25 51 76

25 51 76

25 51 76

25 51 76

25 51 76

25 51 76

25 51 76

25 51 76

25 51 76

25 51 76

25 51 76

25 51 76

25 51 76

25 51 76

25 51 76

25 51 76

25 51 76

25 51 76

25 51 76

25 51 76

25 51 76

25 51 76

25 51 76

25 51 76

25 51 76

25 51 76

25 51 76

25 51 76

25 51 76

25 51 76

25 51 76

25 51 76

25 51 76

25 51 76

25 51 76

25 51 76

25 51 76

25 51 76

25 51 76

25 51 76

25 51 76

25 51 76

25 51 76

25 51 76

25 51 76

25 51 76

25 51 76

25 51 76

25 51 76

25 51 76

25 51 76

25 51 76

25 51 76

25 51 76

25 51 76

25 51 76

25 51 76

25 51 76

25 51 76

25 51 76

25 51 76

25 51 76

25 51 76

25 51 76

25 51 76

25 51 76

25 51 76

25 51 76

25 51 76

25 51 76

25 51 76

25 51 76

25 51 76

25 51 76

25 51 76

25 51 76

25 51 76

25 51 76

25 51 76

25 51 76

25 51 76

25 51 76

25 51 76

25 51 76

25 51 76

25 51 76

25 51 76

25 51 76

25 51 76

25 51 76

25 51 76

25 51 76

25 51 76

25 51 76

25 51 76

25 51 76

25 51 76

25 51 76

25 51 76

25 51 76

25 51 76

25 51 76

25 51 76

25 51 76

25 51 76

25 51 76

25 51 76

25 51 76

25 51 76

25 51 76

25 51 76

25 51 76

25 51 76

25 51 76

25 51 76

25 51 76

25 51 76

25 51 76

25 51 76

25 51 76

25 51 76

25 51 76

25 51 76

25 51 76

25 51 76

25 51 76

25 51 76

25 51 76

25 51 76

25 51 76

25 51 76

25 51 76

25 51 76

25 51 76

25 51 76

25 51 76

25 51 76

25 51 76

25 51 76

25 51 76

25 51 76

25 51 76

25 51 76

25 51 76

25 51 76

25 51 76

25 51 76

25 51 76

25 51 76

25 51 76

25 51 76

25 51 76

25 51 76

25 51 76

25 51 76

25 51 76

25 51 76

25 51 76

25 51 76

25 51 76

25 51 76

25 51 76

25 51 76

25 51 76

25 51 76

25 51 76

25 51 76

25 51 76

25 51 76

25 51 76

25 51 76

25 51 76

25 51 76

25 51 76

25 51 76

25 51 76

25 51 76

25 51 76

25 51 76

25 51 76

25 51 76

25 51 76

25 51 76

25 51 76

25 51 76

25 51 76

25 51 76

25 51 76

25 51 76

25 51 76

25 51 76

25 51 76

25 51 76

25 51 76

25 51 76

25 51 76

25 51 76

25 51 76

25 51 76

25 51 76

25 51 76

25 51 76

25 51 76

25 51 76

25 51 76

25 51 76

25 51 76

25 51 76

25 51 76

25 51 76

25 51 76

25 51 76

25 51 76

25 51 76

25 51 76

25 51 76

25 51 76

25 51 76

25 51 76

25 51 76

25 51 76

25 51 76

25 51 76

25 51 76

25 51 76

25 51 76

25 51 76

25 51 76

25 51 76

25 51 76

25 51 76

25 51 76

25 51 76

25 51 76

25 51 76

25 51 76

25 51 76

25 51 76

25 51 76

25 51 76

25 51 76

25 51 76

25 51 76

25 51 76

25 51 76

25 51 76

25 51 76

25 51 76

25 51 76

25 51 76

25 51 76

25 51 76

25 51 76

25 51 76

25 51 76

25 51 76

25 51 76

25 51 76

25 51 76

25 51 76

25 51 76

25 51 76

25 51 76

25 51 76

25 51 76

25 51 76

25 51 76

25 51 76

25 51 76

25 51 76

25 51 76

25 51 76

25 51 76

25 51 76

25 51 76

25 51 76

25 51 76

25 51 76

25 51 76

25 51 76

25 51 76

25 51 76

25 51 76

25 51 76

25 51 76

25 51 76

25 51 76

25 51 76

25 51 76

25 51 76

25 51 76

25 51 76

25 51 76

25 51 76

25 51 76

25 51 76

25 51 76

25 51 76

25 51 76

25 51 76

25 51 76

25 51 76

25 51 76

25 51 76

25 51 76

25 51 76

25 51 76

25 51 76

25 51 76

25 51 76

25 51 76

25 51 76

25 51 76

25 51 76

25 51 76

25 51 76

25 51 76

25 51 76

25 51 76

25 51 76

25 51 76

25 51 76

25 51 76

25 51 76

25 51 76

25 51 76

25 51 76

25 51 76

25 51 76

25 51 76

25 51 76

25 51 76

25 51 76

25 51 76

25 51 76

25 51 76

25 51 76

25 51 76

25 51 76

25 51 76

25 51 76

25 51 76

25 51 76

25 51 76

25 51 76

25 51 76

25 51 76

25 51 76

25 51 76

25 51 76

25 51 76

25 51 76

25 51 76

25 51 76

25 51 76

25 51 76

25 51 76

25 51 76

25 51 76

25 51 76

25 51 76

25 51 76

25 51 76

25 51 76

25 51 76

25 51 76

25 51 76

25 51 76

25 51 76

25 51 76

25 51 76

25 51 76

25 51 76

25 51 76

25 51 76

25 51 76

25 51 76

25 51 76

25 51 76

25 51 76

25 51 76

25 51 76

25 51 76

25 51 76

25 51 76

25 51 76

25 51 76

25 51 76

25 51 76

25 51 76

25 51 76

25 51 76

25 51 76

25 51 76

25 51 76

25 51 76

25 51 76

25 51 76

25 51 76

25 51 76

25 51 76

25 51 76

25 51 76

25 51 76

25 51 76

25 51 76

25 51 76

25 51 76

25 51 76

25 51 76

25 51 76

25 51 76

25 51 76

25 51 76

25 51 76

25 51 76

25 51 76

25 51 76

25 51 76

25 51 76

25 51 76

25 51 76

25 51 76

25 51 76

25 51 76

25 51 76

25 51 76

25 51 76

25 51 76

25 51 76

25 51 76

25 51 76

25 51 76

25 51 76

25 51 76

25 51 76

25 51 76

25 51 76

25 51 76

25 51 76

25 51 76

25 51 76

25 51 76

25 51 76

25 51 76

25 51 76

25 51 76

25 51 76

25 51 76

25 51 76

25 51 76

25 51 76

25 51 76

25 51 76

25 51 76

25 51 76

25 51 76

25 51 76

25 51 76

25 51 76

25 51 76

25 51 76

25 51 76

25 51 76

25 51 76

25 51 76

25 51 76

25 51 76

25 51 76

25 51 76

25 51 76

25 51 76

25 51 76

25 51 76

25 51 76

25 51 76

25 51 76

25 51 76

25 51 76

25 51 76

25 51 76

25 51 76

25 51 76

25 51 76

25 51 76

25 51 76

25 51 76

25 51 76

25 51 76

25 51 76

25 51 76

25 51 76

25 51 76

25 51 76

25 51 76

25 51 76

25 51 76

25 51 76

25 51 76

25 51 76

25 51 76

25 51 76

25 51 76

25 51 76

25 51 76

25 51 76

25 51 76

25 51 76

25 51 76

25 51 76

25 51 76

25 51 76

25 51 76

25 51 76

25 51 76

25 51 76

25 51 76

25 51 76

25 51 76

25 51 76

25 51 76

25 51 76

25 51 76

25 51 76

25 51 76

25 51 76

25 51 76

25 51 76

25 51 76

25 51 76

25 51 76

25 51 76

25 51 76

25 51 76

25 51 76

25 51 76

25 51 76

25 51 76

25 51 76

25 51 76

25 51 76

25 51 76

25 51 76

25 51 76

25 51 76

25 51 76

25 51 76

25 51 76

25 51 76

25 51 76

25 51 76

25 51 76

25 51 76

25 51 76

25 51 76

25 51 76

25 51 76

25 51 76

25 51 76

25 51 76

25 51 76

25 51 76

25 51 76

25 51 76

25 51 76

25 51 76

25 51 76

25 51 76

25 51 76

25 51 76

25 51 76

25 51 76

25 51 76

25 51 76

25 51 76

25 51 76

25 51 76

25 51 76

25 51 76

25 51 76

25 51 76

25 51 76

25 51 76

25 51 76

25 51 76

25 51 76

25 51 76

25 51 76

25 51 76

25 51 76

25 51 76

25 51 76

25 51 76

25 51 76

25 51 76

25 51 76

25 51 76

25 51 76

25 51 76

25 51 76

25 51 76

25 51 76

25 51 76

25 51 76

25 51 76

25 51 76

25 51 76

25 51 76

25 51 76

25 51 76

25 51 76

25 51 76

25 51 76

25 51 76

25 51 76

25 51 76

25 51 76

25 51 76

25 51 76

25 51 76

25 51 76

25 51 76

25 51 76

25 51 76

25 51 76

25 51 76

25 51 76

25 51 76

25 51 76

25 51 76

25 51 76

25 51 76

25 51 76

25 51 76

25 51 76

25 51 76

25 51 76

25 51 76

25 51 76

25 51 76

25 51 76

25 51 76

25 51 76

25 51 76

25 51 76

25 51 76

25 51 76

25 51 76

25 51 76

25 51 76

25 51 76

25 51 76

25 51 76

25 51 76

25 51 76

25 51 76

25 51 76

25 51 76

25 51 76

25 51 76

25 51 76

25 51 76

25 51 76

25 51 76

25 51 76

25 51 76

25 51 76

25 51 76

25 51 76

25 51 76

25 51 76

25 51 76

25 51 76

25 51 76

25 51 76

25 51 76

25 51 76

25 51 76

25 51 76

25 51 76

25 51 76

25 51 76

25 51 76

25 51 76

25 51 76

25 51 76

25 51 76

25 51 76

25 51 76

25 51 76

25 51 76

25 51 76

25 51 76

25 51 76

25 51 76

25 51 76

25 51 76

25 51 76

25 51 76

25 51 76

25 51 76

25 51 76

25 51 76

25 51 76

25 51 76

25 51 76

25 51 76

25 51 76

25 51 76

25 51 76

25 51 76

25 51 76

25 51 76

25 51 76

25 51 76

25 51 76

25 51 76

25 51 76

25 51 76

25 51 76

25 51 76

25 51 76

25 51 76

25 51 76

25 51 76

25 51 76

25 51 76

25 51 76

25 51 76

25 51 76

25 51 76

25 51 76

25 51 76

25 51 76

25 51 76

25 51 76

25 51 76

25 51 76

25 51 76

25 51 76

25 51 76

25 51 76

25 51 76

25 51 76

25 51 76

25 51 76

25 51 76

25 51 76

25 51 76

25 51 76

25 51 76

25 51 76

25 51 76

25 51 76

25 51 76

25 51 76

25 51 76

25 51 76

25 51 76

25 51 76

25 51 76

25 51 76

25 51 76

25 51 76

25 51 76

25 51 76

25 51 76

25 51 76

25 51 76

25 51 76

25 51 76

25 51 76

25 51 76

25 51 76

25 51 76

25 51 76

25 51 76

25 51 76

25 51 76

25 51 76

25 51 76

25 51 76

25 51 76

25 51 76

25 51 76

25 51 76

25 51 76

25 51 76

25 51 76

25 51 76

25 51 76

25 51 76

25 51 76

25 51 76

25 51 76

25 51 76

25 51 76

25 51 76

25 51 76

25 51 76

25 51 76

25 51 76

25 51 76

25 51 76

25 51 76

25 51 76

25 51 76

25 51 76

25 51 76

25 51 76

25 51 76

25 51 76

25 51 76

25 51 76

25 51 76

25 51 76

25 51 76

25 51 76

25 51 76

25 51 76

25 51 76

25 51 76

25 51 76

25 51 76

25 51 76

25 51 76

25 51 76

25 51 76

25 51 76

25 51 76

25 51 76

25 51 76

25 51 76

25 51 76

25 51 76

25 51 76

25 51 76

25 51 76

25 51 76

25 51 76

25 51 76

25 51 76

25 51 76

25 51 76

25 51 76

25 51 76

25 51 76

25 51 76

25 51 76

25 51 76

25 51 76

25 51 76

25 51 76

25 51 76

25 51 76

25 51 76

25 51 76

25 51 76

25 51 76

25 51 76

25 51 76

25 51 76

25 51 76

25 51 76

25 51 76

25 51 76

25 51 76

25 51 76

25 51 76

25 51 76

25 51 76

25 51 76

25 51 76

25 51 76

25 51 76

25 51 76

25 51 76

25 51 76

25 51 76

25 51 76

25 51 76

25 51 76

25 51 76

25 51 76

25 51 76

25 51 76

25 51 76

25 51 76

25 51 76

25 51 76

25 51 76

25 51 76

25 51 76

25 51 76

25 51 76

25 51 76

25 51 76

25 51 76

25 51 76

25 51 76

25 51 76

25 51 76

25 51 76

25 51 76

25 51 76

25 51 76

25 51 76

25 51 76

25 51 76

25 51 76

25 51 76

25 51 76

25 51 76

25 51 76

25 51 76

25 51 76

25 51 76

25 51 76

25 51 76

25 51 76

25 51 76

25 51 76

25 51 76

25 51 76

25 51 76

25 51 76

25 51 76

25 51 76

25 51 76

25 51 76

25 51 76

25 51 76

25 51 76

25 51 76

25 51 76

25 51 76

25 51 76

25 51 76

25 51 76

25 51 76

25 51 76

25 51 76

25 51 76

25 51 76

25 51 76

25 51 76

25 51 76

25 51 76

25 51 76

25 51 76

25 51 76

25 51 76

25 51 76

25 51 76

25 51 76

25 51 76

25 51 76

25 51 76

25 51 76

25 51 76

25 51 76

25 51 76

25 51 76

25 51 76

25 51 76

25 51 76

25 51 76

25 51 76

25 51 76

25 51 76

25 51 76

25 51 76

25 51 76

25 51 76

25 51 76

25 51 76

25 51 76

25 51 76

25 51 76

25 51 76

25 51 76

25 51 76

25 51 76

25 51 76

25 51 76

25 51 76

25 51 76

25 51 76

25 51 76

25 51 76

25 51 76

25 51 76

25 51 76

25 51 76

25 51 76

25 51 76

25 51 76

25 51 76

25 51 76

25 51 76

25 51 76

25 51 76

25 51 76

25 51 76

25 51 76

25 51 76

25 51 76

25 51 76

25 51 76

25 51 76

25 51 76

25 51 76

25 51 76

25 51 76

25 51 76

25 51 76

25 51 76

25 51 76

25 51 76

25 51 76

25 51 76

25 51 76

25 51 76

25 51 76

25 51 76

25 51 76

25 51 76

25 51 76

25 51 76

25 51 76

25 51 76

25 51 76

25 51 76

25 51 76

25 51 76

25 51 76

25 51 76

25 51 76

25 51 76

25 51 76

25 51 76

25 51 76

25 51 76

25 51 76

25 51 76

25 51 76

25 51 76

25 51 76

25 51 76

25 51 76

25 51 76

25 51 76

25 51 76

25 51 76

25 51 76

25 51 76

25 51 76

25 51 76

25 51 76

25 51 76

25 51 76

25 51 76

25 51 76

25 51 76

25 51 76

25 51 76

25 51 76

25 51 76

25 51 76

25 51 76

25 51 76

25 51 76

25 51 76

25 51 76

25 51 76

25 51 76

25 51 76

25 51 76

25 51 76

25 51 76

25 51 76

25 51 76

25 51 76

25 51 76

25 51 76

25 51 76

25 51 76

25 51 76

25 51 76

25 51 76

25 51 76

25 51 76

25 51 76

25 51 76

25 51 76

25 51 76

25 51 76

25 51 76

25 51 76

25 51 76

25 51 76

25 51 76

25 51 76

25 51 76

25 51 76

25 51 76

25 51 76

25 51 76

25 51 76

25 51 76

25 51 76

25 51 76

25 51 76

25 51 76

25 51 76

25 51 76

25 51 76

25 51 76

25 51 76

25 51 76

25 51 76

25 51 76

25 51 76

25 51 76

25 51 76

25 51 76

25 51 76

25 51 76

25 51 76

25 51 76

25 51 76

25 51 76

25 51 76

25 51 76

25 51 76

25 51 76

25 51 76

25 51 76

25 51 76

25 51 76

25 51 76

25 51 76

25 51 76

25 51 76

25 51 76

25 51 76

25 51 76

25 51 76

25 51 76

25 51 76

25 51 76

25 51 76

25 51 76

25 51 76

25 51 76

25 51 76

25 51 76

25 51 76

25 51 76

25 51 76

25 51 76

25 51 76

25 51 76

25 51 76

25 51 76

25 51 76

25 51 76

25 51 76

25 51 76

25 51 76

25 51 76

25 51 76

25 51 76

25 51 76

25 51 76

25 51 76

25 51 76

25 51 76

25 51 76

25 51 76

25 51 76

25 51 76

25 51 76

25 51 76

25 51 76

25 51 76

25 51 76

25 51 76

25 51 76

25 51 76

25 51 76

25 51 76

25 51 76

25 51 76

25 51 76

25 51 76

25 51 76

25 51 76

25 51 76

25 51 76

25 51 76

25 51 76

25 51 76

25 51 76

25 51 76

25 51 76

25 51 76

25 51 76

25 51 76

25 51 76

25 51 76

25 51 76

25 51 76

25 51 76

25 51 76

25 51 76

25 51 76

25 51 76

25 51 76

25 51 76

25 51 76

25 51 76

25 51 76

25 51 76

25 51 76

25 51 76

25 51 76

25 51 76

25 51 76

25 51 76

25 51 76

25 51 76

25 51 76

25 51 76

25 51 76

25 51 76

25 51 76

25 51 76

25 51 76

25 51 76

25 51 76

25 51 76

25 51 76

25 51 76

25 51 76

25 51 76

25 51 76

25 51 76

25 51 76

25 51 76

25 51 76

25 51 76

25 51 76

25 51 76

25 51 76

25 51 76

25 51 76

25 51 76

25 51 76

25 51 76

25 51 76

25 51 76

25 51 76

25 51 76

25 51 76

25 51 76

25 51 76

25 51 76

25 51 76

25 51 76

25 51 76

25 51 76

25 51 76

25 51 76

25 51 76

25 51 76

25 51 76

25 51 76

25 51 76

25 51 76

25 51 76

25 51 76

25 51 76

25 51 76

25 51 76

25 51 76

25 51 76

25 51 76

25 51 76

25 51 76

25 51 76

25 51 76

25 51 76

25 51 76

25 51 76

25 51 76

25 51 76

25 51 76

25 51 76

25 51 76

25 51 76

25 51 76

25 51 76

25 51 76

25 51 76

25 51 76

25 51 76

25 51 76

25 51 76

25 51 76

25 51 76

25 51 76

25 51 76

25 51 76

25 51 76

25 51 76

25 51 76

25 51 76

25 51 76

25 51 76

25 51 76

25 51 76

25 51 76

25 51 76

25 51 76

25 51 76

25 51 76

25 51 76

25 51 76

25 51 76

25 51 76

25 51 76

25 51 76

25 51 76

25 51 76

25 51 76

25 51 76

25 51 76

25 51 76

25 51 76

25 51 76

25 51 76

25 51 76

25 51 76

25 51 76

25 51 76

25 51 76

25 51 76

25 51 76

25 51 76

25 51 76

25 51 76

25 51 76

25 51 76

25 51 76

25 51 76

25 51 76

25 51 76

25 51 76

25 51 76

25 51 76

25 51 76

25 51 76

25 51 76

25 51 76

25 51 76

25 51 76

25 51 76

25 51 76

25 51 76

25 51 76

25 51 76

25 51 76

25 51 76

25 51 76

25 51 76

25 51 76

25 51 76

25 51 76

25 51 76

25 51 76

25 51 76

25 51 76

25 51 76

25 51 76

25 51 76

25 51 76

25 51 76

25 51 76

25 51 76

25 51 76

25 51 76

25 51 76

25 51 76

25 51 76

25 51 76

25 51 76

25 51 76

25 51 76

25 51 76

25 51 76

25 51 76

25 51 76

25 51 76

25 51 76

25 51 76

25 51 76

25 51 76

25 51 76

25 51 76

25 51 76

25 51 76

25 51 76

25 51 76

25 51 76

25 51 76

25 51 76

25 51 76

25 51 76

25 51 76

25 51 76

25 51 76

25 51 76

25 51 76

25 51 76

25 51 76

25 51 76

25 51 76

25 51 76

25 51 76

25 51 76

25 51 76

25 51 76

25 51 76

25 51 76

25 51 76

25 51 76

25 51 76

25 51 76

25 51 76

25 51 76

25 51 76

25 51 76

25 51 76

25 51 76

25 51 76

25 51 76

25 51 76

25 51 76

25 51 76

25 51 76

25 51 76

25 51 76

25 51 76

25 51 76

25 51 76

25 51 76

25 51 76

25 51 76

25 51 76

25 51 76

25 51 76

25 51 76

25 51 76

25 51 76

25 51 76

25 51 76

25 51 76

25 51 76

25 51 76

25 51 76

25 51 76

25 51 76

25 51 76

25 51 76

25 51 76

25 51 76

25 51 76

25 51 76

25 51 76

25 51 76

25 51 76

25 51 76

25 51 76

25 51 76

25 51 76

25 51 76

25 51 76

25 51 76

25 51 76

25 51 76

25 51 76

25 51 76

25 51 76

25 51 76

25 51 76

25 51 76

25 51 76

25 51 76

25 51 76

25 51 76

25 51 76

25 51 76

25 51 76

25 51 76

25 51 76

25 51 76

25 51 76

25 51 76

25 51 76

25 51 76

25 51 76

25 51 76

25 51 76

25 51 76

25 51 76

25 51 76

25 51 76

25 51 76

25 51 76

25 51 76

25 51 76

25 51 76

25 51 76

25 51 76

25 51 76

25 51 76

25 51 76

25 51 76

25 51 76

25 51 76

25 51 76

25 51 76

25 51 76

25 51 76

25 51 76

25 51 76

25 51 76

25 51 76

25 51 76

25 51 76

25 51 76

25 51 76

25 51 76

25 51 76

25 51 76

25 51 76

25 51 76

25 51 76

25 51 76

25 51 76

25 51 76

25 51 76

25 51 76

25 51 76

25 51 76

25 51 76

25 51 76

25 51 76

25 51 76

25 51 76

25 51 76

25 51 76

25 51 76

25 51 76

25 51 76

25 51 76

25 51 76

25 51 76

25 51 76

25 51 76

25 51 76

25 51 76

25 51 76

25 51 76

25 51 76

25 51 76

25 51 76

25 51 76

25 51 76

25 51 76

25 51 76

25 51 76

25 51 76

25 51 76

25 51 76

25 51 76

25 51 76

25 51 76

25 51 76

25 51 76

25 51 76

25 51 76

25 51 76

25 51 76

25 51 76

25 51 76

25 51 76

25 51 76

25 51 76

25 51 76

25 51 76

25 51 76

25 51 76

25 51 76

25 51 76

25 51 76

25 51 76

25 51 76

25 51 76

25 51 76

25 51 76

25 51 76

25 51 76

25 51 76

25 51 76

25 51 76

25 51 76

25 51 76

25 51 76

25 51 76

25 51 76

25 51 76

25 51 76

25 51 76

25 51 76

25 51 76

25 51 76

25 51 76

25 51 76

25 51 76

25 51 76

25 51 76

25 51 76

25 51 76

25 51 76

25 51 76

25 51 76

25 51 76

25 51 76

25 51 76

25 51 76

25 51 76

25 51 76

25 51 76

25 51 76

25 51 76

25 51 76

25 51 76

25 51 76

25 51 76

25 51 76

25 51 76

25 51 76

25 51 76

25 51 76

25 51 76

25 51 76

25 51 76

25 51 76

25 51 76

25 51 76

25 51 76

25 51 76

25 51 76

25 51 76

25 51 76

25 51 76

25 51 76

25 51 76

25 51 76

25 51 76

25 51 76

25 51 76

25 51 76

25 51 76

25 51 76

25 51 76

25 51 76

25 51 76

25 51 76

25 51 76

25 51 76

25 51 76

25 51 76

25 51 76

25 51 76

25 51 76

25 51 76

25 51 76

25 51 76

25 51 76

25 51 76

25 51 76

25 51 76

25 51 76

25 51 76

25 51 76

25 51 76

25 51 76

25 51 76

25 51 76

25 51 76

25 51 76

25 51 76

25 51 76

25 51 76

25 51 76

25 51 76

25 51 76

25 51 76

25 51 76

25 51 76

25 51 76

25 51 76

25 51 76

25 51 76

25 51 76

25 51 76

25 51 76

25 51 76

25 51 76

25 51 76

25 51 76

25 51 76

25 51 76

25 51 76

25 51 76

25 51 76

25 51 76

25 51 76

25 51 76

25 51 76

25 51 76

25 51 76

25 51 76

25 51 76

25 51 76

25 51 76

25 51 76

25 51 76

25 51 76

25 51 76

25 51 76

25 51 76

25 51 76

25 51 76

25 51 76

25 51 76

25 51 76

25 51 76

25 51 76

25 51 76

25 51 76

25 51 76

25 51 76

25 51 76

25 51 76

25 51 76

25 51 76

25 51 76

25 51 76

25 51 76

25 51 76

25 51 76

25 51 76

25 51 76

25 51 76

25 51 76

25 51 76

25 51 76

25 51 76

25 51 76

25 51 76

25 51 76

25 51 76

25 51 76

25 51 76

25 51 76

25 51 76

25 51 76

25 51 76

25 51 76

25 51 76

25 51 76

25 51 76

25 51 76

25 51 76

25 51 76

25 51 76

25 51 76

25 51 76

25 51 76

25 51 76

25 51 76

25 51 76

25 51 76

25 51 76

25 51 76

25 51 76

25 51 76

25 51 76

25 51 76

25 51 76

25 51 76

25 51 76

25 51 76

25 51 76

25 51 76

25 51 76

25 51 76

25 51 76

25 51 76

25 51 76

25 51 76

25 51 76

25 51 76

25 51 76

25 51 76

25 51 76

25 51 76

25 51 76

25 51 76

25 51 76

25 51 76

25 51 76

25 51 76

25 51 76

25 51 76

25 51 76

25 51 76

25 51 76

25 51 76

25 51 76

25 51 76

25 51 76

25 51 76

25 51 76

25 51 76

25 51 76

25 51 76

25 51 76

25 51 76

25 51 76

25 51 76

25 51 76

25 51 76

25 51 76

25 51 76

25 51 76

25 51 76

25 51 76

25 51 76

25 51 76

25 51 76

25 51 76

25 51 76

25 51 76

25 51 76

25 51 76

25 51 76

25 51 76

25 51 76

25 51 76

25 51 76

25 51 76

25 51 76

25 51 76

25 51 76

25 51 76

25 51 76

25 51 76

25 51 76

25 51 76

25 51 76

25 51 76

25 51 76

25 51 76

25 51 76

25 51 76

25 51 76

25 51 76

25 51 76

25 51 76

25 51 76

25 51 76

25 51 76

25 51 76

25 51 76

25 51 76

25 51 76

25 51 76

25 51 76

25 51 76

25 51 76

25 51 76

25 51 76

25 51 76

25 51 76

25 51 76

25 51 76

25 51 76

25 51 76

25 51 76

25 51 76

25 51 76

25 51 76

25 51 76

25 51 76

25 51 76

25 51 76

25 51 76

25 51 76

25 51 76

25 51 76

25 51 76

25 51 76

25 51 76

25 51 76

25 51 76

25 51 76

25 51 76

25 51 76

25 51 76

25 51 76

25 51 76

25 51 76

25 51 76

25 51 76

25 51 76

25 51 76

25 51 76

25 51 76

25 51 76

25 51 76

25 51 76

25 51 76

25 51 76

25 51 76

25 51 76

25 51 76

25 51 76

25 51 76

25 51 76

25 51 76

25 51 76

25 51 76

25 51 76

25 51 76

25 51 76

25 51 76

25 51 76

25 51 76

25 51 76

25 51 76

25 51 76

25 51 76

25 51 76

25 51 76

25 51 76

25 51 76

25 51 76

25 51 76

25 51 76

25 51 76

25 51 76

25 51 76

25 51 76

25 51 76

25 51 76

25 51 76

25 51 76

25 51 76

25 51 76

25 51 76

25 51 76

25 51 76

25 51 76

25 51 76

25 51 76

25 51 76

25 51 76

25 51 76

25 51 76

25 51 76

25 51 76

25 51 76

25 51 76

25 51 76

25 51 76

25 51 76

25 51 76

25 51 76

25 51 76

25 51 76

25 51 76

25 51 76

25 51 76

25 51 76

25 51 76

25 51 76

25 51 76

25 51 76

25 51 76

25 51 76

25 51 76

25 51 76

25 51 76

25 51 76

25 51 76

25 51 76

25 51 76

25 51 76

25 51 76

25 51 76

25 51 76

25 51 76

25 51 76

25 51 76

25 51 76

25 51 76

25 51 76

25 51 76

25 51 76

25 51 76

25 51 76

25 51 76

25 51 76

25 51 76

25 51 76

25 51 76

25 51 76

25 51 76

25 51 76

25 51 76

25 51 76

25 51 76

25 51 76

25 51 76

25 51 76

25 51 76

25 51 76

25 51 76

25 51 76

25 51 76

25 51 76

25 51 76

25 51 76

25 51 76

25 51 76

25 51 76

25 51 76

25 51 76

25 51 76

25 51 76

25 51 76

25 51 76

25 51 76

25 51 76

25 51 76

25 51 76

25 51 76

25 51 76

25 51 76

25 51 76

25 51 76

25 51 76

25 51 76

25 51 76

25 51 76

25 51 76

25 51 76

25 51 76

25 51 76

25 51 76

25 51 76

25 51 76

25 51 76

25 51 76

25 51 76

25 51 76

25 51 76

25 51 76

25 51 76

25 51 76

25 51 76

25 51 76

25 51 76

25 51 76

25 51 76

25 51 76

25 51 76

25 51 76

25 51 76

25 51 76

25 51 76

25 51 76

25 51 76

25 51 76

25 51 76

25 51 76

25 51 76

25 51 76

25 51 76

25 51 76

25 51 76

25 51 76

25 51 76

25 51 76

25 51 76

25 51 76

25 51 76

25 51 76

25 51 76

25 51 76

25 51 76

25 51 76

25 51 76

25 51 76

25 51 76

25 51 76

25 51 76

25 51 76

25 51 76

25 51 76

25 51 76

25 51 76

25 51 76

25 51 76

25 51 76

25 51 76

25 51 76

25 51 76

25 51 76

25 51 76

25 51 76

25 51 76

25 51 76

25 51 76

25 51 76

25 51 76

25 51 76

25 51 76

25 51 76

25 51 76

25 51 76

25 51 76

25 51 76

25 51 76

25 51 76

25 51 76

25 51 76

25 51 76

25 51 76

25 51 76

25 51 76

25 51 76

25 51 76

25 51 76

25 51 76

25 51 76

25 51 76

25 51 76

25 51 76

25 51 76

25 51 76

25 51 76

25 51 76

25 51 76

25 51 76

25 51 76

25 51 76

25 51 76

25 51 76

25 51 76

25 51 76

25 51 76

25 51 76

25 51 76

25 51 76

25 51 76

25 51 76

25 51 76

25 51 76

25 51 76

25 51 76

25 51 76

25 51 76

25 51 76

25 51 76

25 51 76

25 51 76

25 51 76

25 51 76

25 51 76

25 51 76

25 51 76

25 51 76

25 51 76

25 51 76

25 51 76

25 51 76

25 51 76

25 51 76

25 51 76

25 51 76

25 51 76

25 51 76

25 51 76

25 51 76

25 51 76

25 51 76

25 51 76

25 51 76

25 51 76

25 51 76

25 51 76

25 51 76

25 51 76

25 51 76

25 51 76

25 51 76

25 51 76

25 51 76

25 51 76

25 51 76

25 51 76

25 51 76

25 51 76

25 51 76

25 51 76

25 51 76

25 51 76

25 51 76

25 51 76

25 51 76

25 51 76

25 51 76

25 51 76

25 51 76

25 51 76

25 51 76

25 51 76

25 51 76

25 51 76

25 51 76

25 51 76

25 51 76

25 51 76

25 51 76

25 51 76

25 51 76

25 51 76

25 51 76

25 51 76

25 51 76

25 51 76

25 51 76

25 51 76

25 51 76

25 51 76

25 51 76

25 51 76

25 51 76

25 51 76

25 51 76

25 51 76

25 51 76

25 51 76

25 51 76

25 51 76

25 51 76

25 51 76

25 51 76

25 51 76

25 51 76

25 51 76

25 51 76

25 51 76

25 51 76

25 51 76

25 51 76

25 51 76

25 51 76

25 51 76

25 51 76

25 51 76

25 51 76

25 51 76

25 51 76

25 51 76

25 51 76

25 51 76

25 51 76

25 51 76

25 51 76

25 51 76

25 51 76

25 51 76

25 51 76

25 51 76

25 51 76

25 51 76

25 51 76

25 51 76

25 51 76

25 51 76

25 51 76

25 51 76

25 51 76

25 51 76

25 51 76

25 51 76

25 51 76

25 51 76

25 51 76

25 51 76

25 51 76

25 51 76

25 51 76

25 51 76

25 51 76

25 51 76

25 51 76

25 51 76

25 51 76

25 51 76

25 51 76

25 51 76

25 51 76

25 51 76

25 51 76

25 51 76

25 51 76

25 51 76

25 51 76

25 51 76

25 51 76

25 51 76

25 51 76

25 51 76

25 51 76

25 51 76

25 51 76

25 51 76

25 51 76

25 51 76

25 51 76

25 51 76

25 51 76

25 51 76

25 51 76

25 51 76

25 51 76

25 51 76

25 51 76

25 51 76

25 51 76

25 51 76

25 51 76

25 51 76

25 51 76

25 51 76

25 51 76

25 51 76

25 51 76

25 51 76

25 51 76

25 51 76

25 51 76

25 51 76

25 51 76

25 51 76

25 51 76

25 51 76

25 51 76

25 51 76

25 51 76

25 51 76

25 51 76

25 51 76

25 51 76

25 51 76

25 51 76

25 51 76

25 51 76

25 51 76

25 51 76

25 51 76

25 51 76

25 51 76

25 51 76

25 51 76

25 51 76

25 51 76

25 51 76

25 51 76

25 51 76

25 51 76

25 51 76

25 51 76

25 51 76

25 51 76

25 51 76

25 51 76

25 51 76

25 51 76

25 51 76

25 51 76

25 51 76

25 51 76

25 51 76

25 51 76

25 51 76

25 51 76

25 51 76

25 51 76

25 51 76

25 51 76

25 51 76

25 51 76

25 51 76

25 51 76

25 51 76

25 51 76

25 51 76

25 51 76

25 51 76

25 51 76

25 51 76

25 51 76

25 51 76

25 51 76

25 51 76

25 51 76

25 51 76

25 51 76

25 51 76

25 51 76

25 51 76

25 51 76

25 51 76

25 51 76

25 51 76

25 51 76

25 51 76

25 51 76

25 51 76

25 51 76

25 51 76

25 51 76

25 51 76

25 51 76

25 51 76

25 51 76

25 51 76

25 51 76

25 51 76

25 51 76

25 51 76

25 51 76

25 51 76

25 51 76

25 51 76

25 51 76

25 51 76

25 51 76

25 51 76

25 51 76

25 51 76

25 51 76

25 51 76

25 51 76

25 51 76

25 51 76

25 51 76

25 51 76

25 51 76

25 51 76

25 51 76

25 51 76

25 51 76

25 51 76

25 51 76

25 51 76

25 51 76

25 51 76

25 51 76

25 51 76

25 51 76

25 51 76

25 51 76

25 51 76

25 51 76

25 51 76

25 51 76

25 51 76

25 51 76

25 51 76

25 51 76

25 51 76

25 51 76

25 51 76

25 51 76

25 51 76

25 51 76

25 51 76

25 51 76

25 51 76

25 51 76

25 51 76

25 51 76

25 51 76

25 51 76

25 51 76

25 51 76

25 51 76

25 51 76

25 51 76

25 51 76

25 51 76

25 51 76

25 51 76

25 51 76

25 51 76

25 51 76

25 51 76

25 51 76

25 51 76

25 51 76

25 51 76

25 51 76

25 51 76

25 51 76

25 51 76

25 51 76

25 51 76

25 51 76

25 51 76

25 51 76

25 51 76

25 51 76

25 51 76

25 51 76

25 51 76

25 51 76

25 51 76

25 51 76

25 51 76

25 51 76

25 51 76

25 51 76

25 51 76

25 51 76

25 51 76

25 51 76

25 51 76

25 51 76

25 51 76

25 51 76

25 51 76

25 51 76

25 51 76

25 51 76

25 51 76

25 51 76

25 51 76

25 51 76

25 51 76

25 51 76

25 51 76

25 51 76

25 51 76

25 51 76

25 51 76

25 51 76

25 51 76

25 51 76

25 51 76

25 51 76

25 51 76

25 51 76

25 51 76

25 51 76

25 51 76

25 51 76

25 51 76

25 51 76

25 51 76

25 51 76

25 51 76

25 51 76

25 51 76

25 51 76

25 51 76

25 51 76

25 51 76

25 51 76

25 51 76

25 51 76

25 51 76

25 51 76

25 51 76

25 51 76

25 51 76

25 51 76

25 51 76

25 51 76

25 51 76

25 51 76

25 51 76

25 51 76

25 51 76

25 51 76

25 51 76

25 51 76

25 51 76

25 51 76

25 51 76

25 51 76

25 51 76

25 51 76

25 51 76

25 51 76

25 51 76

25 51 76

25 51 76

25 51 76

25 51 76

25 51 76

25 51 76

25 51 76

25 51 76

25 51 76

25 51 76

25 51 76

25 51 76

25 51 76

25 51 76

25 51 76

25 51 76

25 51 76

25 51 76

25 51 76

25 51 76

25 51 76

25 51 76

25 51 76

25 51 76

25 51 76

25 51 76

25 51 76

25 51 76

25 51 76

25 51 76

25 51 76

25 51 76

25 51 76

25 51 76

25 51 76

25 51 76

25 51 76

25 51 76

25 51 76

25 51 76

25 51 76

25 51 76

25 51 76

25 51 76

25 51 76

25 51 76

25 51 76

25 51 76

25 51 76

25 51 76

25 51 76

25 51 76

25 51 76

25 51 76

25 51 76

25 51 76

25 51 76

25 51 76

25 51 76

25 51 76

25 51 76

25 51 76

25 51 76

25 51 76

25 51 76

25 51 76

25 51 76

25 51 76

25 51 76

25 51 76

25 51 76

25 51 76

25 51 76

25 51 76

25 51 76

25 51 76

25 51 76

25 51 76

25 51 76

25 51 76

25 51 76

25 51 76

25 51 76

25 51 76

25 51 76

25 51 76

25 51 76

25 51 76

25 51 76

25 51 76

25 51 76

25 51 76

25 51 76

25 51 76

25 51 76

25 51 76

25 51 76

25 51 76

25 51 76

25 51 76

25 51 76

25 51 76

25 51 76

25 51 76

25 51 76

25 51 76

25 51 76

25 51 76

25 51 76

25 51 76

25 51 76

25 51 76

25 51 76

25 51 76

25 51 76

25 51 76

25 51 76

25 51 76

25 51 76

25 51 76

25 51 76

25 51 76

25 51 76

25 51 76

25 51 76

25 51 76

25 51 76

25 51 76

25 51 76

25 51 76

25 51 76

25 51 76

25 51 76

25 51 76

25 51 76

25 51 76

25 51 76

25 51 76

25 51 76

25 51 76

25 51 76

25 51 76

25 51 76

25 51 76

25 51 76

25 51 76

25 51 76

25 51 76

25 51 76

25 51 76

25 51 76

25 51 76

25 51 76

25 51 76

25 51 76

25 51 76

25 51 76

25 51 76

25 51 76

25 51 76

25 51 76

25 51 76

25 51 76

25 51 76

25 51 76

25 51 76

25 51 76

25 51 76

25 51 76

25 51 76

25 51 76

25 51 76

25 51 76

25 51 76

25 51 76

25 51 76

25 51 76

25 51 76

25 51 76

25 51 76

25 51 76

25 51 76

25 51 76

25 51 76

25 51 76

25 51 76

25 51 76

25 51 76

25 51 76

25 51 76

25 51 76

25 51 76

25 51 76

25 51 76

25 51 76

25 51 76

25 51 76

25 51 76

25 51 76

25 51 76

25 51 76

25 51 76

25 51 76

25 51 76

25 51 76

25 51 76

25 51 76

25 51 76

25 51 76

25 51 76

25 51 76

25 51 76

25 51 76

25 51 76

25 51 76

25 51 76

25 51 76

25 51 76

25 51 76

25 51 76

25 51 76

25 51 76

25 51 76

25 51 76

25 51 76

25 51 76

25 51 76

25 51 76

25 51 76

25 51 76

25 51 76

25 51 76

25 51 76

25 51 76

25 51 76

25 51 76

25 51 76

25 51 76

25 51 76

25 51 76

25 51 76

25 51 76

25 51 76

25 51 76

25 51 76

25 51 76

25 51 76

25 51 76

25 51 76

25 51 76

25 51 76

25 51 76

25 51 76

25 51 76

25 51 76

25 51 76

25 51 76

25 51 76

25 51 76

25 51 76

25 51 76

25 51 76

25 51 76

25 51 76

25 51 76

25 51 76

25 51 76

25 51 76

25 51 76

25 51 76

25 51 76

25 51 76

25 51 76

25 51 76

25 51 76

25 51 76

25 51 76

25 51 76

25 51 76

25 51 76

25 51 76

25 51 76

25 51 76

25 51 76

25 51 76

25 51 76

25 51 76

25 51 76

25 51 76

25 51 76

25 51 76

25 51 76

25 51 76

25 51 76

25 51 76

25 51 76

25 51 76

25 51 76

25 51 76

25 51 76

25 51 76

25 51 76

25 51 76

25 51 76

25 51 76

25 51 76

25 51 76

25 51 76

25 51 76

25 51 76

25 51 76

25 51 76

25 51 76

25 51 76

25 51 76

25 51 76

25 51 76

25 51 76

25 51 76

25 51 76

25 51 76

25 51 76

25 51 76

25 51 76

25 51 76

25 51 76

25 51 76

25 51 76

25 51 76

25 51 76

25 51 76

25 51 76

25 51 76

25 51 76

25 51 76

25 51 76

25 51 76

25 51 76

25 51 76

25 51 76

25 51 76

25 51 76

25 51 76

25 51 76

25 51 76

25 51 76

25 51 76

25 51 76

25 51 76

25 51 76

25 51 76

25 51 76

25 51 76

25 51 76

25 51 76

25 51 76

25 51 76

25 51 76

25 51 76

25 51 76

25 51 76

25 51 76

25 51 76

25 51 76

25 51 76

25 51 76

25 51 76

25 51 76

25 51 76

25 51 76

25 51 76

25 51 76

25 51 76

25 51 76

25 51 76

25 51 76

25 51 76

25 51 76

25 51 76

25 51 76

25 51 76

25 51 76

25 51 76

25 51 76

25 51 76

25 51 76

25 51 76

25 51 76

25 51 76

25 51 76

25 51 76

25 51 76

25 51 76

25 51 76

25 51 76

25 51 76

25 51 76

25 51 76

25 51 76

25 51 76

25 51 76

25 51 76

25 51 76

25 51 76

25 51 76

25 51 76

25 51 76

25 51 76

25 51 76

25 51 76

25 51 76

25 51 76

25 51 76

25 51 76

25 51 76

25 51 76

25 51 76

25 51 76

25 51 76

25 51 76

25 51 76

25 51 76

25 51 76

25 51 76

25 51 76

25 51 76

25 51 76

25 51 76

25 51 76

25 51 76

25 51 76

25 51 76

25 51 76

25 51 76

25 51 76

25 51 76

25 51 76

25 51 76

25 51 76

25 51 76

25 51 76

25 51 76

25 51 76

25 51 76

25 51 76

25 51 76

25 51 76

25 51 76

25 51 76

25 51 76

25 51 76

25 51 76

25 51 76

25 51 76

25 51 76

25 51 76

25 51 76

25 51 76

25 51 76

25 51 76

25 51 76

25 51 76

25 51 76

25 51 76

25 51 76

25 51 76

25 51 76

25 51 76

25 51 76

25 51 76

25 51 76

25 51 76

25 51 76

25 51 76

25 51 76

25 51 76

25 51 76

25 51 76

25 51 76

25 51 76

25 51 76

25 51 76

25 51 76

25 51 76

25 51 76

25 51 76

25 51 76

25 51 76

25 51 76

25 51 76

25 51 76

25 51 76

25 51 76

25 51 76

25 51 76

25 51 76

25 51 76

25 51 76

25 51 76

25 51 76

25 51 76

25 51 76

25 51 76

25 51 76

25 51 76

25 51 76

25 51 76

25 51 76

25 51 76

25 51 76

25 51 76

25 51 76

25 51 76

25 51 76

25 51 76

25 51 76

25 51 76

25 51 76

25 51 76

25 51 76

25 51 76

25 51 76

25 51 76

25 51 76

25 51 76

25 51 76

25 51 76

25 51 76

25 51 76

25 51 76

25 51 76

25 51 76

25 51 76

25 51 76

25 51 76

25 51 76

25 51 76

25 51 76

25 51 76

25 51 76

25 51 76

25 51 76

25 51 76

25 51 76

25 51 76

25 51 76

25 51 76

25 51 76

25 51 76

25 51 76

25 51 76

25 51 76

25 51 76

25 51 76

25 51 76

25 51 76

25 51 76

25 51 76

25 51 76

25 51 76

25 51 76

25 51 76

25 51 76

25 51 76

25 51 76

25 51 76

25 51 76

25 51 76

25 51 76

25 51 76

25 51 76

25 51 76

25 51 76

25 51 76

25 51 76

25 51 76

25 51 76

25 51 76

25 51 76

25 51 76

25 51 76

25 51 76

25 51 76

25 51 76

25 51 76

25 51 76

25 51 76

25 51 76

25 51 76

25 51 76

25 51 76

25 51 76

25 51 76

25 51 76

25 51 76

25 51 76

25 51 76

25 51 76

25 51 76

25 51 76

25 51 76

25 51 76

25 51 76

25 51 76

25 51 76

25 51 76

25 51 76

25 51 76

25 51 76

25 51 76

25 51 76

25 51 76

25 51 76

25 51 76

25 51 76

25 51 76

25 51 76

25 51 76

25 51 76

25 51 76

25 51 76

25 51 76

25 51 76

25 51 76

25 51 76

25 51 76

25 51 76

25 51 76

25 51 76

25 51 76

25 51 76

25 51 76

25 51 76

25 51 76

25 51 76

25 51 76

25 51 76

25 51 76

25 51 76

25 51 76

25 51 76

25 51 76

25 51 76

25 51 76

25 51 76

25 51 76

25 51 76

25 51 76

25 51 76

25 51 76

25 51 76

25 51 76

25 51 76

25 51 76

25 51 76

25 51 76

25 51 76

25 51 76

25 51 76

25 51 76

25 51 76

25 51 76

25 51 76

25 51 76

25 51 76

25 51 76

25 51 76

25 51 76

25 51 76

25 51 76

25 51 76

25 51 76

25 51 76

25 51 76

25 51 76

25 51 76

25 51 76

25 51 76

25 51 76

25 51 76

25 51 76

25 51 76

25 51 76

25 51 76

25 51 76

25 51 76

25 51 76

25 51 76

25 51 76

25 51 76

25 51 76

25 51 76

25 51 76

25 51 76

25 51 76

25 51 76

25 51 76

25 51 76

25 51 76

25 51 76

25 51 76

25 51 76

25 51 76

25 51 76

25 51 76

25 51 76

25 51 76

25 51 76

25 51 76

25 51 76

25 51 76

25 51 76

25 51 76

25 51 76

25 51 76

25 51 76

25 51 76

25 51 76

25 51 76

25 51 76

25 51 76

25 51 76

25 51 76

25 51 76

25 51 76

25 51 76

25 51 76

25 51 76

25 51 76

25 51 76

25 51 76

25 51 76

25 51 76

25 51 76

25 51 76

25 51 76

25 51 76

25 51 76

25 51 76

25 51 76

25 51 76

25 51 76

25 51 76

25 51 76

25 51 76

25 51 76

25 51 76

25 51 76

25 51 76

25 51 76

25 51 76

25 51 76

25 51 76

25 51 76

25 51 76

25 51 76

25 51 76

25 51 76

25 51 76

25 51 76

25 51 76

25 51 76

25 51 76

25 51 76

25 51 76

25 51 76

25 51 76

25 51 76

25 51 76

25 51 76

25 51 76

25 51 76

25 51 76

25 51 76

25 51 76

25 51 76

25 51 76

25 51 76

25 51 76

25 51 76

25 51 76

25 51 76

25 51 76

25 51 76

25 51 76

25 51 76

25 51 76

25 51 76

25 51 76

25 51 76

25 51 76

25 51 76

25 51 76

25 51 76

25 51 76

25 51 76

25 51 76

25 51 76

25 51 76

25 51 76

25 51 76

25 51 76

25 51 76

25 51 76

25 51 76

25 51 76

25 51 76

25 51 76

25 51 76

25 51 76

25 51 76

25 51 76

25 51 76

25 51 76

25 51 76

25 51 76

25 51 76

25 51 76

25 51 76

25 51 76

25 51 76

25 51 76

25 51 76

25 51 76

25 51 76

25 51 76

25 51 76

25 51 76

25 51 76

25 51 76

25 51 76

25 51 76

25 51 76

25 51 76

25 51 76

25 51 76

25 51 76

25 51 76

25 51 76

25 51 76

25 51 76

25 51 76

25 51 76

25 51 76

25 51 76

25 51 76

25 51 76

25 51 76

25 51 76

25 51 76

25 51 76

25 51 76

25 51 76

25 51 76

25 51 76

25 51 76

25 51 76

25 51 76

25 51 76

25 51 76

25 51 76

25 51 76

25 51 76

25 51 76

25 51 76

25 51 76

25 51 76

25 51 76

25 51 76

25 51 76

25 51 76

25 51 76

25 51 76

25 51 76

25 51 76

25 51 76

25 51 76

25 51 76

25 51 76

25 51 76

25 51 76

25 51 76

25 51 76

25 51 76

25 51 76

25 51 76

25 51 76

25 51 76

25 51 76

25 51 76

25 51 76

25 51 76

25 51 76

25 51 76

25 51 76

25 51 76

25 51 76

25 51 76

25 51 76

25 51 76

25 51 76

25 51 76

25 51 76

25 51 76

25 51 76

25 51 76

25 51 76

25 51 76

25 51 76

25 51 76

25 51 76

25 51 76

25 51 76

25 51 76

25 51 76

25 51 76

25 51 76

25 51 76

25 51 76

25 51 76

25 51 76

25 51 76

25 51 76

25 51 76

25 51 76

25 51 76

25 51 76

25 51 76

25 51 76

25 51 76

25 51 76

25 51 76

25 51 76

25 51 76

25 51 76

25 51 76

25 51 76

25 51 76

25 51 76

25 51 76

25 51 76

25 51 76

25 51 76

25 51 76

25 51 76

25 51 76

25 51 76

25 51 76

25 51 76

25 51 76

25 51 76

25 51 76

25 51 76

25 51 76

25 51 76

25 51 76

25 51 76

25 51 76

25 51 76

25 51 76

25 51 76

25 51 76

25 51 76

25 51 76

25 51 76

25 51 76

25 51 76

25 51 76

25 51 76

25 51 76

25 51 76

25 51 76

25 51 76

25 51 76

25 51 76

25 51 76

25 51 76

25 51 76

25 51 76

25 51 76

25 51 76

25 51 76

25 51 76

25 51 76

25 51 76

25 51 76

25 51 76

25 51 76

25 51 76

25 51 76

25 51 76

25 51 76

25 51 76

25 51 76

25 51 76

25 51 76

25 51 76

25 51 76

25 51 76

25 51 76

25 51 76

25 51 76

25 51 76

25 51 76

25 51 76

25 51 76

25 51 76

25 51 76

25 51 76

25 51 76

25 51 76

25 51 76

25 51 76

25 51 76

25 51 76

25 51 76

25 51 76

25 51 76

25 51 76

25 51 76

25 51 76

25 51 76

25 51 76

25 51 76

25 51 76

25 51 76

25 51 76

25 51 76

25 51 76

25 51 76

25 51 76

25 51 76

25 51 76

25 51 76

25 51 76

25 51 76

25 51 76

25 51 76

25 51 76

25 51 76

25 51 76

25 51 76

25 51 76

25 51 76

25 51 76

25 51 76

25 51 76

25 51 76

25 51 76

25 51 76

25 51 76

25 51 76

25 51 76

25 51 76

25 51 76

25 51 76

25 51 76

25 51 76

25 51 76

25 51 76

25 51 76

25 51 76

25 51 76

25 51 76

25 51 76

25 51 76

25 51 76

25 51 76

25 51 76

25 51 76

25 51 76

25 51 76

25 51 76

25 51 76

25 51 76

25 51 76

25 51 76

25 51 76

25 51 76

25 51 76

25 51 76

25 51 76

25 51 76

25 51 76

25 51 76

25 51 76

25 51 76

25 51 76

25 51 76

25 51 76

25 51 76

25 51 76

25 51 76

25 51 76

25 51 76

25 51 76

25 51 76

25 51 76

25 51 76

25 51 76

25 51 76

25 51 76

25 51 76

25 51 76

25 51 76

25 51 76

25 51 76

25 51 76

25 51 76

25 51 76

25 51 76

25 51 76

25 51 76

25 51 76

25 51 76

25 51 76

25 51 76

25 51 76

25 51 76

25 51 76

25 51 76

25 51 76

25 51 76

25 51 76

25 51 76

25 51 76

25 51 76

25 51 76

25 51 76

25 51 76

25 51 76

25 51 76

25 51 76

25 51 76

25 51 76

25 51 76

25 51 76

25 51 76

25 51 76

25 51 76

25 51 76

25 51 76

25 51 76

25 51 76

25 51 76

25 51 76

25 51 76

25 51 76

25 51 76

25 51 76

25 51 76

25 51 76

25 51 76

25 51 76

25 51 76

25 51 76

25 51 76

25 51 76

25 51 76

25 51 76

25 51 76

25 51 76

25 51 76

25 51 76

25 51 76

25 51 76

25 51 76

25 51 76

25 51 76

25 51 76

25 51 76

25 51 76

25 51 76

25 51 76

25 51 76

25 51 76

25 51 76

25 51 76

25 51 76

25 51 76

25 51 76

25 51 76

25 51 76

25 51 76

25 51 76

25 51 76

25 51 76

25 51 76

25 51 76

25 51 76

25 51 76

25 51 76

25 51 76

25 51 76

25 51 76

25 51 76

25 51 76

25 51 76

25 51 76

25 51 76

25 51 76

25 51 76

25 51 76

25 51 76

25 51 76

25 51 76

25 51 76

25 51 76

25 51 76

25 51 76

25 51 76

25 51 76

25 51 76

25 51 76

25 51 76

25 51 76

25 51 76

25 51 76

25 51 76

25 51 76

25 51 76

25 51 76

25 51 76

25 51 76

25 51 76

25 51 76

25 51 76

25 51 76

25 51 76

25 51 76

25 51 76

25 51 76

25 51 76

25 51 76

25 51 76

25 51 76

25 51 76

25 51 76

25 51 76

25 51 76

25 51 76

25 51 76

25 51 76

25 51 76

25 51 76

25 51 76

25 51 76

25 51 76

25 51 76

25 51 76

25 51 76

25 51 76

25 51 76

25 51 76

25 51 76

25 51 76

25 51 76

25 51 76

25 51 76

25 51 76

25 51 76

25 51 76

25 51 76

25 51 76

25 51 76

25 51 76

25 51 76

25 51 76

25 51 76

25 51 76

25 51 76

25 51 76

25 51 76

25 51 76

25 51 76

25 51 76

25 51 76

25 51 76

25 51 76

25 51 76

25 51 76

25 51 76

25 51 76

25 51 76

25 51 76

25 51 76

25 51 76

25 51 76

25 51 76

25 51 76

25 51 76

25 51 76

25 51 76

25 51 76

25 51 76

25 51 76

25 51 76

25 51 76

25 51 76

25 51 76

25 51 76

25 51 76

25 51 76

25 51 76

25 51 76

25 51 76

25 51 76

25 51 76

25 51 76

25 51 76

25 51 76

25 51 76

25 51 76

25 51 76

25 51 76

25 51 76

25 51 76

25 51 76

25 51 76

25 51 76

25 51 76

25 51 76

25 51 76

25 51 76

25 51 76

25 51 76

25 51 76

25 51 76

25 51 76

25 51 76

25 51 76

25 51 76

25 51 76

25 51 76

25 51 76

25 51 76

25 51 76

25 51 76

25 51 76

25 51 76

25 51 76

25 51 76

25 51 76

25 51 76

25 51 76

25 51 76

25 51 76

25 51 76

25 51 76

25 51 76

25 51 76

25 51 76

25 51 76

25 51 76

25 51 76

25 51 76

25 51 76

25 51 76

25 51 76

25 51 76

25 51 76

25 51 76

25 51 76

25 51 76

25 51 76

25 51 76

25 51 76

25 51 76

25 51 76

25 51 76

25 51 76

25 51 76

25 51 76

25 51 76

25 51 76

25 51 76

25 51 76

25 51 76

25 51 76

25 51 76

25 51 76

25 51 76

25 51 76

25 51 76

25 51 76

25 51 76

25 51 76

25 51 76

25 51 76

25 51 76

25 51 76

25 51 76

25 51 76

25 51 76

25 51 76

25 51 76

25 51 76

25 51 76

25 51 76

25 51 76

25 51 76

25 51 76

25 51 76

25 51 76

25 51 76

25 51 76

25 51 76

25 51 76

25 51 76

25 51 76

25 51 76

25 51 76

25 51 76

25 51 76

25 51 76

25 51 76

25 51 76

25 51 76

25 51 76

25 51 76

25 51 76

25 51 76

25 51 76

25 51 76

25 51 76

25 51 76

25 51 76

25 51 76

25 51 76

25 51 76

25 51 76

25 51 76

25 51 76

25 51 76

25 51 76

25 51 76

25 51 76

25 51 76

25 51 76

25 51 76

25 51 76

25 51 76

25 51 76

25 51 76

25 51 76

25 51 76

25 51 76

25 51 76

25 51 76

25 51 76

25 51 76

25 51 76

25 51 76

25 51 76

25 51 76

25 51 76

25 51 76

25 51 76

25 51 76

25 51 76

25 51 76

25 51 76

25 51 76

25 51 76

25 51 76

25 51 76

25 51 76

25 51 76

25 51 76

25 51 76

25 51 76

25 51 76

25 51 76

25 51 76

25 51 76

25 51 76

25 51 76

25 51 76

25 51 76

25 51 76

25 51 76

25 51 76

25 51 76

25 51 76

25 51 76

25 51 76

25 51 76

25 51 76

25 51 76

25 51 76

25 51 76

25 51 76

25 51 76

25 51 76

25 51 76

25 51 76

25 51 76

25 51 76

25 51 76

25 51 76

25 51 76

25 51 76

25 51 76

25 51 76

25 51 76

25 51 76

25 51 76

25 51 76

25 51 76

25 51 76

25 51 76

25 51 76

25 51 76

25 51 76

25 51 76

25 51 76

25 51 76

25 51 76

25 51 76

25 51 76

25 51 76

25 51 76

25 51 76

25 51 76

25 51 76

25 51 76

25 51 76

25 51 76

25 51 76

25 51 76

25 51 76

25 51 76

25 51 76

25 51 76

25 51 76

25 51 76

25 51 76

25 51 76

25 51 76

25 51 76

25 51 76

25 51 76

25 51 76

25 51 76

25 51 76

25 51 76

25 51 76

25 51 76

25 51 76

25 51 76

25 51 76

25 51 76

25 51 76

25 51 76

25 51 76

25 51 76

25 51 76

25 51 76

25 51 76

25 51 76

25 51 76

25 51 76

25 51 76

25 51 76

25 51 76

25 51 76

25 51 76

25 51 76

25 51 76

25 51 76

25 51 76

25 51 76

25 51 76

25 51 76

25 51 76

25 51 76

25 51 76

25 51 76

25 51 76

25 51 76

25 51 76

25 51 76

25 51 76

25 51 76

25 51 76

25 51 76

25 51 76

25 51 76

25 51 76

25 51 76

25 51 76

25 51 76

25 51 76

25 51 76

25 51 76

25 51 76

25 51 76

25 51 76

25 51 76

25 51 76

25 51 76

25 51 76

25 51 76

25 51 76

25 51 76

25 51 76

25 51 76

25 51 76

25 51 76

25 51 76

25 51 76

25 51 76

25 51 76

25 51 76

25 51 76

25 51 76

25 51 76

25 51 76

25 51 76

25 51 76

25 51 76

25 51 76

25 51 76

25 51 76

25 51 76

25 51 76

25 51 76

25 51 76

25 51 76

25 51 76

25 51 76

25 51 76

25 51 76

25 51 76

25 51 76

25 51 76

25 51 76

25 51 76

25 51 76

25 51 76

25 51 76

25 51 76

25 51 76

25 51 76

25 51 76

25 51 76

25 51 76

25 51 76

25 51 76

25 51 76

25 51 76

25 51 76

25 51 76

25 51 76

25 51 76

25 51 76

25 51 76

25 51 76

25 51 76

25 51 76

25 51 76

25 51 76

25 51 76

25 51 76

25 51 76

25 51 76

25 51 76

25 51 76

25 51 76

25 51 76

25 51 76

25 51 76

25 51 76

25 51 76

25 51 76

25 51 76

25 51 76

25 51 76

25 51 76

25 51 76

25 51 76

25 51 76

25 51 76

25 51 76

25 51 76

25 51 76

25 51 76

25 51 76

25 51 76

25 51 76

25 51 76

25 51 76

25 51 76

25 51 76

25 51 76

25 51 76

25 51 76

25 51 76

25 51 76

25 51 76

25 51 76

25 51 76

25 51 76

25 51 76

25 51 76

25 51 76

25 51 76

25 51 76

25 51 76

25 51 76

25 51 76

25 51 76

25 51 76

25 51 76

25 51 76

25 51 76

25 51 76

25 51 76

25 51 76

25 51 76

25 51 76

25 51 76

25 51 76

25 51 76

25 51 76

25 51 76

25 51 76

25 51 76

25 51 76

25 51 76

25 51 76

25 51 76

25 51 76

25 51 76

25 51 76

25 51 76

25 51 76

25 51 76

25 51 76

25 51 76

25 51 76

25 51 76

25 51 76

25 51 76

25 51 76

25 51 76

25 51 76

25 51 76

25 51 76

25 51 76

25 51 76

25 51 76

25 51 76

25 51 76

25 51 76

25 51 76

25 51 76

25 51 76

25 51 76

25 51 76

25 51 76

25 51 76

25 51 76

25 51 76

25 51 76

25 51 76

25 51 76

25 51 76

25 51 76

25 51 76

25 51 76

25 51 76

25 51 76

25 51 76

25 51 76

25 51 76

25 51 76

25 51 76

25 51 76

25 51 76

25 51 76

25 51 76

25 51 76

25 51 76

25 51 76

25 51 76

25 51 76

25 51 76

25 51 76

25 51 76

25 51 76

25 51 76

25 51 76

25 51 76

25 51 76

25 51 76

25 51 76

25 51 76

25 51 76

25 51 76

25 51 76

25 51 76

25 51 76

25 51 76

25 51 76

25 51 76

25 51 76

25 51 76

25 51 76

25 51 76

25 51 76

25 51 76

25 51 76

25 51 76

25 51 76

25 51 76

25 51 76

25 51 76

25 51 76

25 51 76

25 51 76

25 51 76

25 51 76

25 51 76

25 51 76

25 51 76

25 51 76

25 51 76

25 51 76

25 51 76

25 51 76

25 51 76

25 51 76

25 51 76

25 51 76

25 51 76

25 51 76

25 51 76

25 51 76

25 51 76

25 51 76

25 51 76

25 51 76

25 51 76

25 51 76

25 51 76

25 51 76

25 51 76

25 51 76

25 51 76

25 51 76

25 51 76

25 51 76

25 51 76

25 51 76

25 51 76

25 51 76

25 51 76

25 51 76

25 51 76

25 51 76

25 51 76

25 51 76

25 51 76

25 51 76

25 51 76

25 51 76

25 51 76

25 51 76

25 51 76

25 51 76

25 51 76

25 51 76

25 51 76

25 51 76

25 51 76

25 51 76

25 51 76

25 51 76

25 51 76

25 51 76

25 51 76

25 51 76

25 51 76

25 51 76

25 51 76

25 51 76

25 51 76

25 51 76

25 51 76

25 51 76

25 51 76

25 51 76

25 51 76

25 51 76

25 51 76

25 51 76

25 51 76

25 51 76

25 51 76

25 51 76

25 51 76

25 51 76

25 51 76

25 51 76

25 51 76

25 51 76

25 51 76

25 51 76

25 51 76

25 51 76

25 51 76

25 51 76

25 51 76

25 51 76

25 51 76

25 51 76

25 51 76

25 51 76

25 51 76

25 51 76

25 51 76

25 51 76

25 51 76

25 51 76

25 51 76

25 51 76

25 51 76

25 51 76

25 51 76

25 51 76

25 51 76

25 51 76

25 51 76

25 51 76

25 51 76

25 51 76

25 51 76

25 51 76

25 51 76

25 51 76

25 51 76

25 51 76

25 51 76

25 51 76

25 51 76

25 51 76

25 51 76

25 51 76

25 51 76

25 51 76

25 51 76

25 51 76

25 51 76

25 51 76

25 51 76

25 51 76

25 51 76

25 51 76

25 51 76

25 51 76

25 51 76

25 51 76

25 51 76

25 51 76

25 51 76

25 51 76

25 51 76

25 51 76

25 51 76

25 51 76

25 51 76

25 51 76

25 51 76

25 51 76

25 51 76

25 51 76

25 51 76

25 51 76

25 51 76

25 51 76

25 51 76

25 51 76

25 51 76

25 51 76

25 51 76

25 51 76

25 51 76

25 51 76

25 51 76

25 51 76

25 51 76

25 51 76

25 51 76

25 51 76

25 51 76

25 51 76

25 51 76

25 51 76

25 51 76

25 51 76

25 51 76

25 51 76

25 51 76

25 51 76

25 51 76

25 51 76

25 51 76

25 51 76

25 51 76

25 51 76

25 51 76

25 51 76

25 51 76

25 51 76

25 51 76

25 51 76

25 51 76

25 51 76

25 51 76

25 51 76

25 51 76

25 51 76

25 51 76

25 51 76

25 51 76

25 51 76

25 51 76

25 51 76

25 51 76

25 51 76

25 51 76

25 51 76

25 51 76

25 51 76

25 51 76

25 51 76

25 51 76

25 51 76

25 51 76

25 51 76

25 51 76

25 51 76

25 51 76

25 51 76

25 51 76

25 51 76

25 51 76

25 51 76

25 51 76

25 51 76

25 51 76

25 51 76

25 51 76

25 51 76

25 51 76

25 51 76

25 51 76

25 51 76

25 51 76

25 51 76

25 51 76

25 51 76

25 51 76

25 51 76

25 51 76

25 51 76

25 51 76

25 51 76

25 51 76

25 51 76

25 51 76

25 51 76

25 51 76

25 51 76

25 51 76

25 51 76

25 51 76

25 51 76

25 51 76

25 51 76

25 51 76

25 51 76

25 51 76

25 51 76

25 51 76

25 51 76

25 51 76

25 51 76

25 51 76

25 51 76

25 51 76

25 51 76

25 51 76

25 51 76

25 51 76

25 51 76

25 51 76

25 51 76

25 51 76

25 51 76

25 51 76

25 51 76

25 51 76

25 51 76

25 51 76

25 51 76

25 51 76

25 51 76

25 51 76

25 51 76

25 51 76

25 51 76

25 51 76

25 51 76

25 51 76

25 51 76

25 51 76

25 51 76

25 51 76

25 51 76

25 51 76

25 51 76

25 51 76

25 51 76

25 51 76

25 51 76

25 51 76

25 51 76

25 51 76

25 51 76

25 51 76

25 51 76

25 51 76

25 51 76

25 51 76

25 51 76

25 51 76

25 51 76

25 51 76

25 51 76

25 51 76

25 51 76

25 51 76

25 51 76

25 51 76

25 51 76

25 51 76

25 51 76

25 51 76

25 51 76

25 51 76

25 51 76

25 51 76

25 51 76

25 51 76

25 51 76

25 51 76

25 51 76

25 51 76

25 51 76

25 51 76

25 51 76

25 51 76

25 51 76

25 51 76

25 51 76

25 51 76

25 51 76

25 51 76

25 51 76

25 51 76

25 51 76

25 51 76

25 51 76

25 51 76

25 51 76

25 51 76

25 51 76

25 51 76

25 51 76

25 51 76

25 51 76

25 51 76

25 51 76

25 51 76

25 51 76

25 51 76

25 51 76

25 51 76

25 51 76

25 51 76

25 51 76

25 51 76

25 51 76

25 51 76

25 51 76

25 51 76

25 51 76

25 51 76

25 51 76

25 51 76

25 51 76

25 51 76

25 51 76

25 51 76

25 51 76

25 51 76

25 51 76

25 51 76

25 51 76

25 51 76

25 51 76

25 51 76

25 51 76

25 51 76

25 51 76

25 51 76

25 51 76

25 51 76

25 51 76

25 51 76

25 51 76

25 51 76

25 51 76

25 51 76

25 51 76

25 51 76

25 51 76

25 51 76

25 51 76

25 51 76

25 51 76

25 51 76

25 51 76

25 51 76

25 51 76

25 51 76

25 51 76

25 51 76

25 51 76

25 51 76

25 51 76

25 51 76

25 51 76

25 51 76

25 51 76

25 51 76

25 51 76

25 51 76

25 51 76

25 51 76

25 51 76

25 51 76

25 51 76

25 51 76

25 51 76

25 51 76

25 51 76

25 51 76

25 51 76

25 51 76

25 51 76

25 51 76

25 51 76

25 51 76

25 51 76

25 51 76

25 51 76

25 51 76

25 51 76

25 51 76

25 51 76

25 51 76

25 51 76

25 51 76

25 51 76

25 51 76

25 51 76

25 51 76

25 51 76

25 51 76

25 51 76

25 51 76

25 51 76

25 51 76

25 51 76

25 51 76

25 51 76

25 51 76

25 51 76

25 51 76

25 51 76

25 51 76

25 51 76

25 51 76

25 51 76

25 51 76

25 51 76

25 51 76

25 51 76

25 51 76

25 51 76

25 51 76

25 51 76

25 51 76

25 51 76

25 51 76

25 51 76

25 51 76

25 51 76

25 51 76

25 51 76

25 51 76

25 51 76

25 51 76

25 51 76

25 51 76

25 51 76

25 51 76

25 51 76

25 51 76

25 51 76

25 51 76

25 51 76

25 51 76

25 51 76

25 51 76

25 51 76

25 51 76

25 51 76

25 51 76

25 51 76

25 51 76

25 51 76

25 51 76

25 51 76

25 51 76

25 51 76

25 51 76

25 51 76

25 51 76

25 51 76

25 51 76

25 51 76

25 51 76

25 51 76

25 51 76

25 51 76

25 51 76

25 51 76

25 51 76

25 51 76

25 51 76

25 51 76

25 51 76

25 51 76

25 51 76

25 51 76

25 51 76

25 51 76

25 51 76

25 51 76

25 51 76

25 51 76

25 51 76

25 51 76

25 51 76

25 51 76

25 51 76

25 51 76

25 51 76

25 51 76

25 51 76

25 51 76

25 51 76

25 51 76

25 51 76

25 51 76

25 51 76

25 51 76

25 51 76

25 51 76

25 51 76

25 51 76

25 51 76

25 51 76

25 51 76

25 51 76

25 51 76

25 51 76

25 51 76

25 51 76

25 51 76

25 51 76

25 51 76

25 51 76

25 51 76

25 51 76

25 51 76

25 51 76

25 51 76

25 51 76

25 51 76

25 51 76

25 51 76

25 51 76

25 51 76

25 51 76

25 51 76

25 51 76

25 51 76

25 51 76

25 51 76

25 51 76

25 51 76

25 51 76

25 51 76

25 51 76

25 51 76

25 51 76

25 51 76

25 51 76

25 51 76

25 51 76

25 51 76

25 51 76

25 51 76

25 51 76

25 51 76

25 51 76

25 51 76

25 51 76

25 51 76

25 51 76

25 51 76

25 51 76

25 51 76

25 51 76

25 51 76

25 51 76

25 51 76

25 51 76

25 51 76

25 51 76

25 51 76

25 51 76

25 51 76

25 51 76

25 51 76

25 51 76

25 51 76

25 51 76

25 51 76

25 51 76

25 51 76

25 51 76

25 51 76

25 51 76

25 51 76

25 51 76

25 51 76

25 51 76

25 51 76

25 51 76

25 51 76

25 51 76

25 51 76

25 51 76

25 51 76

25 51 76

25 51 76

25 51 76

25 51 76

25 51 76

25 51 76

25 51 76

25 51 76

25 51 76

25 51 76

25 51 76

25 51 76

25 51 76

25 51 76

25 51 76

25 51 76

25 51 76

25 51 76

25 51 76

25 51 76

25 51 76

25 51 76

25 51 76

25 51 76

25 51 76

25 51 76

25 51 76

25 51 76

25 51 76

25 51 76

25 51 76

25 51 76

25 51 76

25 51 76

25 51 76

25 51 76

25 51 76

25 51 76

25 51 76

25 51 76

25 51 76

25 51 76

25 51 76

25 51 76

25 51 76

25 51 76

25 51 76

25 51 76

25 51 76

25 51 76

25 51 76

25 51 76

25 51 76

25 51 76

25 51 76

25 51 76

25 51 76

25 51 76

25 51 76

25 51 76

25 51 76

25 51 76

25 51 76

25 51 76

25 51 76

25 51 76

25 51 76

25 51 76

25 51 76

25 51 76

25 51 76

25 51 76

25 51 76

25 51 76

25 51 76

25 51 76

25 51 76

25 51 76

25 51 76

25 51 76

25 51 76

25 51 76

25 51 76

25 51 76

25 51 76

25 51 76

25 51 76

25 51 76

25 51 76

25 51 76

25 51 76

25 51 76

25 51 76

25 51 76

25 51 76

25 51 76

25 51 76

25 51 76

25 51 76

25 51 76

25 51 76

25 51 76

25 51 76

25 51 76

25 51 76

25 51 76

25 51 76

25 51 76

25 51 76

25 51 76

25 51 76

25 51 76

25 51 76

25 51 76

25 51 76

25 51 76

25 51 76

25 51 76

25 51 76

25 51 76

25 51 76

25 51 76

25 51 76

25 51 76

25 51 76

25 51 76

25 51 76

25 51 76

25 51 76

25 51 76

25 51 76

25 51 76

25 51 76

25 51 76

25 51 76

25 51 76

25 51 76

25 51 76

25 51 76

25 51 76

25 51 76

25 51 76

25 51 76

25 51 76

25 51 76

25 51 76

25 51 76

25 51 76

25 51 76

25 51 76

25 51 76

25 51 76

25 51 76

25 51 76

25 51 76

25 51 76

25 51 76

25 51 76

25 51 76

25 51 76

25 51 76

25 51 76

25 51 76

25 51 76

25 51 76

25 51 76

25 51 76

25 51 76

25 51 76

25 51 76

25 51 76

25 51 76

25 51 76

25 51 76

25 51 76

25 51 76

25 51 76

25 51 76

25 51 76

25 51 76

25 51 76

25 51 76

25 51 76

25 51 76

25 51 76

25 51 76

25 51 76

25 51 76

25 51 76

25 51 76

25 51 76

25 51 76

25 51 76

25 51 76

25 51 76

25 51 76

25 51 76

25 51 76

25 51 76

25 51 76

25 51 76

25 51 76

25 51 76

25 51 76

25 51 76

25 51 76

25 51 76

25 51 76

25 51 76

25 51 76

25 51 76

25 51 76

25 51 76

25 51 76

25 51 76

25 51 76

25 51 76

25 51 76

25 51 76

25 51 76

25 51 76

25 51 76

25 51 76

25 51 76

25 51 76

25 51 76

25 51 76

25 51 76

25 51 76

25 51 76

25 51 76

25 51 76

25 51 76

25 51 76

25 51 76

25 51 76

25 51 76

25 51 76

25 51 76

25 51 76

25 51 76

25 51 76

25 51 76

25 51 76

25 51 76

25 51 76

25 51 76

25 51 76

25 51 76

25 51 76

25 51 76

25 51 76

25 51 76

25 51 76

25 51 76

25 51 76

25 51 76

25 51 76

25 51 76

25 51 76

25 51 76

25 51 76

25 51 76

25 51 76

25 51 76

25 51 76

25 51 76

25 51 76

25 51 76

25 51 76

25 51 76

25 51 76

25 51 76

25 51 76

25 51 76

25 51 76

25 51 76

25 51 76

25 51 76

25 51 76

25 51 76

25 51 76

25 51 76

25 51 76

25 51 76

25 51 76

25 51 76

25 51 76

25 51 76

25 51 76

25 51 76

25 51 76

25 51 76

25 51 76

25 51 76

25 51 76

25 51 76

25 51 76

25 51 76

25 51 76

25 51 76

25 51 76

25 51 76

25 51 76

25 51 76

25 51 76

25 51 76

25 51 76

25 51 76

25 51 76

25 51 76

25 51 76

25 51 76

25 51 76

25 51 76

25 51 76

25 51 76

25 51 76

25 51 76

25 51 76

25 51 76

25 51 76

25 51 76

25 51 76

25 51 76

25 51 76

25 51 76

25 51 76

25 51 76

25 51 76

25 51 76

25 51 76

25 51 76

25 51 76

25 51 76

25 51 76

25 51 76

25 51 76

25 51 76

25 51 76

25 51 76

25 51 76

25 51 76

25 51 76

25 51 76

25 51 76

25 51 76

25 51 76

25 51 76

25 51 76

25 51 76

25 51 76

25 51 76

25 51 76

25 51 76

25 51 76

25 51 76

25 51 76

25 51 76

25 51 76

25 51 76

25 51 76

25 51 76

25 51 76

25 51 76

25 51 76

25 51 76

25 51 76

25 51 76

25 51 76

25 51 76

25 51 76

25 51 76

25 51 76

25 51 76

25 51 76

25 51 76

25 51 76

25 51 76

25 51 76

25 51 76

25 51 76

25 51 76

25 51 76

25 51 76

25 51 76

25 51 76

25 51 76

25 51 76

25 51 76

25 51 76

25 51 76

25 51 76

25 51 76

25 51 76

25 51 76

25 51 76

25 51 76

25 51 76

25 51 76

25 51 76

25 51 76

25 51 76

25 51 76

25 51 76

25 51 76

25 51 76

25 51 76

25 51 76

25 51 76

25 51 76

25 51 76

25 51 76

25 51 76

25 51 76

25 51 76

25 51 76

25 51 76

25 51 76

25 51 76

25 51 76

25 51 76

25 51 76

25 51 76

25 51 76

25 51 76

25 51 76

25 51 76

25 51 76

25 51 76

25 51 76

25 51 76

25 51 76

25 51 76

25 51 76

25 51 76

25 51 76

25 51 76

25 51 76

25 51 76

25 51 76

25 51 76

25 51 76

25 51 76

25 51 76

25 51 76

25 51 76

25 51 76

25 51 76

25 51 76

25 51 76

25 51 76

25 51 76

25 51 76

25 51 76

25 51 76

25 51 76

25 51 76

25 51 76

25 51 76

25 51 76

25 51 76

25 51 76

25 51 76

25 51 76

25 51 76

25 51 76

25 51 76

25 51 76

25 51 76

25 51 76

25 51 76

25 51 76

25 51 76

25 51 76

25 51 76

25 51 76

25 51 76

25 51 76

25 51 76

25 51 76

25 51 76

25 51 76

25 51 76

25 51 76

25 51 76

25 51 76

25 51 76

25 51 76

25 51 76

25 51 76

25 51 76

25 51 76

25 51 76

25 51 76

25 51 76

25 51 76

25 51 76

25 51 76

25 51 76

25 51 76

25 51 76

25 51 76

25 51 76

25 51 76

25 51 76

25 51 76

25 51 76

25 51 76

25 51 76

25 51 76

25 51 76

25 51 76

25 51 76

25 51 76

25 51 76

25 51 76

25 51 76

25 51 76

25 51 76

25 51 76

25 51 76

25 51 76

25 51 76

25 51 76

25 51 76

25 51 76

25 51 76

25 51 76

25 51 76

25 51 76

25 51 76

25 51 76

25 51 76

25 51 76

25 51 76

25 51 76

25 51 76

25 51 76

25 51 76

25 51 76

25 51 76

25 51 76

25 51 76

25 51 76

25 51 76

25 51 76

25 51 76

25 51 76

25 51 76

25 51 76

25 51 76

25 51 76

25 51 76

25 51 76

25 51 76

25 51 76

25 51 76

25 51 76

25 51 76

25 51 76

25 51 76

25 51 76

25 51 76

25 51 76

25 51 76

25 51 76

25 51 76

25 51 76

25 51 76

25 51 76

25 51 76

25 51 76

25 51 76

25 51 76

25 51 76

25 51 76

25 51 76

25 51 76

25 51 76

25 51 76

25 51 76

25 51 76

25 51 76

25 51 76

25 51 76

25 51 76

25 51 76

25 51 76

25 51 76

25 51 76

25 51 76

25 51 76

25 51 76

25 51 76

25 51 76

25 51 76

25 51 76

25 51 76

25 51 76

25 51 76

25 51 76

25 51 76

25 51 76

25 51 76

25 51 76

25 51 76

25 51 76

25 51 76

25 51 76

25 51 76

25 51 76

25 51 76

25 51 76

25 51 76

25 51 76

25 51 76

25 51 76

25 51 76

25 51 76

25 51 76

25 51 76

25 51 76

25 51 76

25 51 76

25 51 76

25 51 76

25 51 76

25 51 76

25 51 76

25 51 76

25 51 76

25 51 76

25 51 76

25 51 76

25 51 76

25 51 76

25 51 76

25 51 76

25 51 76

25 51 76

25 51 76

25 51 76

25 51 76

25 51 76

25 51 76

25 51 76

25 51 76

25 51 76

25 51 76

25 51 76

25 51 76

25 51 76

25 51 76

25 51 76

25 51 76

25 51 76

25 51 76

25 51 76

25 51 76

25 51 76

25 51 76

25 51 76

25 51 76

25 51 76

25 51 76

25 51 76

25 51 76

25 51 76

25 51 76

25 51 76

25 51 76

25 51 76

25 51 76

25 51 76

25 51 76

25 51 76

25 51 76

25 51 76

25 51 76

25 51 76

25 51 76

25 51 76

25 51 76

25 51 76

25 51 76

25 51 76

25 51 76

25 51 76

25 51 76

25 51 76

25 51 76

25 51 76

25 51 76

25 51 76

25 51 76

25 51 76

25 51 76

25 51 76

25 51 76

25 51 76

25 51 76

25 51 76

25 51 76

25 51 76

25 51 76

25 51 76

25 51 76

25 51 76

25 51 76

25 51 76

25 51 76

25 51 76

25 51 76

25 51 76

25 51 76

25 51 76

25 51 76

25 51 76

25 51 76

25 51 76

25 51 76

25 51 76

25 51 76

25 51 76

25 51 76

25 51 76

25 51 76

25 51 76

25 51 76

25 51 76

25 51 76

25 51 76

25 51 76

25 51 76

25 51 76

25 51 76

25 51 76

25 51 76

25 51 76

25 51 76

25 51 76

25 51 76

25 51 76

25 51 76

25 51 76

25 51 76

25 51 76

25 51 76

25 51 76

25 51 76

25 51 76

25 51 76

25 51 76

25 51 76

25 51 76

25 51 76

25 51 76

25 51 76

25 51 76

25 51 76

25 51 76

25 51 76

25 51 76

25 51 76

25 51 76

25 51 76

25 51 76

25 51 76

25 51 76

25 51 76

25 51 76

25 51 76

25 51 76

25 51 76

25 51 76

25 51 76

25 51 76

25 51 76

25 51 76

25 51 76

25 51 76

25 51 76

25 51 76

25 51 76

25 51 76

25 51 76

25 51 76

25 51 76

25 51 76

25 51 76

25 51 76

25 51 76

25 51 76

25 51 76

25 51 76

25 51 76

25 51 76

25 51 76

25 51 76

25 51 76

25 51 76

25 51 76

25 51 76

25 51 76

25 51 76

25 51 76

25 51 76

25 51 76

25 51 76

25 51 76

25 51 76

25 51 76

25 51 76

25 51 76

25 51 76

25 51 76

25 51 76

25 51 76

25 51 76

25 51 76

25 51 76

25 51 76

25 51 76

25 51 76

25 51 76

25 51 76

25 51 76

25 51 76

25 51 76

25 51 76

25 51 76

25 51 76

25 51 76

25 51 76

25 51 76

25 51 76

25 51 76

25 51 76

25 51 76

25 51 76

25 51 76

25 51 76

25 51 76

25 51 76

25 51 76

25 51 76

25 51 76

25 51 76

25 51 76

25 51 76

25 51 76

25 51 76

25 51 76

25 51 76

25 51 76

25 51 76

25 51 76

25 51 76

25 51 76

25 51 76

25 51 76

25 51 76

25 51 76

25 51 76

25 51 76

25 51 76

25 51 76

25 51 76

25 51 76

25 51 76

25 51 76

25 51 76

25 51 76

25 51 76

25 51 76

25 51 76

25 51 76

25 51 76

25 51 76

25 51 76

25 51 76

25 51 76

25 51 76

25 51 76

25 51 76

25 51 76

25 51 76

25 51 76

25 51 76

25 51 76

25 51 76

25 51 76

25 51 76

25 51 76

25 51 76

25 51 76

25 51 76

25 51 76

25 51 76

25 51 76

25 51 76

25 51 76

25 51 76

25 51 76

25 51 76

25 51 76

25 51 76

25 51 76

25 51 76

25 51 76

25 51 76

25 51 76

25 51 76

25 51 76

25 51 76

25 51 76

25 51 76

25 51 76

25 51 76

25 51 76

25 51 76

25 51 76

25 51 76

25 51 76

25 51 76

25 51 76

25 51 76

25 51 76

25 51 76

25 51 76

25 51 76

25 51 76

25 51 76

25 51 76

25 51 76

25 51 76

25 51 76

25 51 76

25 51 76

25 51 76

25 51 76

25 51 76

25 51 76

25 51 76

25 51 76

25 51 76

25 51 76

25 51 76

25 51 76

25 51 76

25 51 76

25 51 76

25 51 76

25 51 76

25 51 76

25 51 76

25 51 76

25 51 76

25 51 76

25 51 76

25 51 76

25 51 76

25 51 76

25 51 76

25 51 76

25 51 76

25 51 76

25 51 76

25 51 76

25 51 76

25 51 76

25 51 76

25 51 76

25 51 76

25 51 76

25 51 76

25 51 76

25 51 76

25 51 76

25 51 76

25 51 76

25 51 76

25 51 76

25 51 76

25 51 76

25 51 76

25 51 76

25 51 76

25 51 76

25 51 76

25 51 76

25 51 76

25 51 76

25 51 76

25 51 76

25 51 76

25 51 76

25 51 76

25 51 76

25 51 76

25 51 76

25 51 76

25 51 76

25 51 76

25 51 76

25 51 76

25 51 76

25 51 76

25 51 76

25 51 76

25 51 76

25 51 76

25 51 76

25 51 76

25 51 76

25 51 76

25 51 76

25 51 76

25 51 76

25 51 76

25 51 76

25 51 76

25 51 76

25 51 76

25 51 76

25 51 76

25 51 76

25 51 76

25 51 76

25 51 76

25 51 76

25 51 76

25 51 76

25 51 76

25 51 76

25 51 76

25 51 76

25 51 76

25 51 76

25 51 76

25 51 76

25 51 76

25 51 76

25 51 76

25 51 76

25 51 76

25 51 76

25 51 76

25 51 76

25 51 76

25 51 76

25 51 76

25 51 76

25 51 76

25 51 76

25 51 76

25 51 76

25 51 76

25 51 76

25 51 76

25 51 76

25 51 76

25 51 76

25 51 76

25 51 76

25 51 76

25 51 76

25 51 76

25 51 76

25 51 76

25 51 76

25 51 76

25 51 76

25 51 76

25 51 76

25 51 76

25 51 76

25 51 76

25 51 76

25 51 76

25 51 76

25 51 76

25 51 76

25 51 76

25 51 76

25 51 76

25 51 76

25 51 76

25 51 76

25 51 76

25 51 76

25 51 76

25 51 76

25 51 76

25 51 76

25 51 76

25 51 76

25 51 76

25 51 76

25 51 76

25 51 76

25 51 76

25 51 76

25 51 76

25 51 76

25 51 76

25 51 76

25 51 76

25 51 76

25 51 76

25 51 76

25 51 76

25 51 76

25 51 76

25 51 76

25 51 76

25 51 76

25 51 76

25 51 76

25 51 76

25 51 76

25 51 76

25 51 76

25 51 76

25 51 76

25 51 76

25 51 76

25 51 76

25 51 76

25 51 76

25 51 76

25 51 76

25 51 76

25 51 76

25 51 76

25 51 76

25 51 76

25 51 76

25 51 76

25 51 76

25 51 76

25 51 76

25 51 76

25 51 76

25 51 76

25 51 76

25 51 76

25 51 76

25 51 76

25 51 76

25 51 76

25 51 76

25 51 76

25 51 76

25 51 76

25 51 76

25 51 76

25 51 76

25 51 76

25 51 76

25 51 76

25 51 76

25 51 76

25 51 76

25 51 76

25 51 76

25 51 76

25 51 76

25 51 76

25 51 76

25 51 76

25 51 76

25 51 76

25 51 76

25 51 76

25 51 76

25 51 76

25 51 76

25 51 76

25 51 76

25 51 76

25 51 76

25 51 76

25 51 76

25 51 76

25 51 76

25 51 76

25 51 76

25 51 76

25 51 76

25 51 76

25 51 76

25 51 76

25 51 76

25 51 76

25 51 76

25 51 76

25 51 76

25 51 76

25 51 76

25 51 76

25 51 76

25 51 76

25 51 76

25 51 76

25 51 76

25 51 76

25 51 76

25 51 76

25 51 76

25 51 76

25 51 76

25 51 76

25 51 76

25 51 76

25 51 76

25 51 76

25 51 76

25 51 76

25 51 76

25 51 76

25 51 76

25 51 76

25 51 76

25 51 76

25 51 76

25 51 76

25 51 76

25 51 76

25 51 76

25 51 76

25 51 76

25 51 76

25 51 76

25 51 76

25 51 76

25 51 76

25 51 76

25 51 76

25 51 76

25 51 76

25 51 76

25 51 76

25 51 76

25 51 76

25 51 76

25 51 76

25 51 76

25 51 76

25 51 76

25 51 76

25 51 76

25 51 76

25 51 76

25 51 76

25 51 76

25 51 76

25 51 76

25 51 76

25 51 76

25 51 76

25 51 76

25 51 76

25 51 76

25 51 76

25 51 76

25 51 76

25 51 76

25 51 76

25 51 76

25 51 76

25 51 76

25 51 76

25 51 76

25 51 76

25 51 76

25 51 76

25 51 76

25 51 76

25 51 76

25 51 76

25 51 76

25 51 76

25 51 76

25 51 76

25 51 76

25 51 76

25 51 76

25 51 76

25 51 76

25 51 76

25 51 76

25 51 76

25 51 76

25 51 76

25 51 76

25 51 76

25 51 76

25 51 76

25 51 76

25 51 76

25 51 76

25 51 76

25 51 76

25 51 76

25 51 76

25 51 76

25 51 76

25 51 76

25 51 76

25 51 76

25 51 76

25 51 76

25 51 76

25 51 76

25 51 76

25 51 76

25 51 76

25 51 76

25 51 76

25 51 76

25 51 76

25 51 76

25 51 76

25 51 76

25 51 76

25 51 76

25 51 76

25 51 76

25 51 76

25 51 76

25 51 76

25 51 76

25 51 76

25 51 76

25 51 76

25 51 76

25 51 76

25 51 76

25 51 76

25 51 76

25 51 76

25 51 76

25 51 76

25 51 76

25 51 76

25 51 76

25 51 76

25 51 76

25 51 76

25 51 76

25 51 76

25 51 76

25 51 76

25 51 76

25 51 76

25 51 76

25 51 76

25 51 76

25 51 76

25 51 76

25 51 76

25 51 76

25 51 76

25 51 76

25 51 76

25 51 76

25 51 76

25 51 76

25 51 76

25 51 76

25 51 76

25 51 76

25 51 76

25 51 76

25 51 76

25 51 76

25 51 76

25 51 76

25 51 76

25 51 76

25 51 76

25 51 76

25 51 76

25 51 76

25 51 76

25 51 76

25 51 76

25 51 76

25 51 76

25 51 76

25 51 76

25 51 76

25 51 76

25 51 76

25 51 76

25 51 76

25 51 76

25 51 76

25 51 76

25 51 76

25 51 76

25 51 76

25 51 76

25 51 76

25 51 76

25 51 76

25 51 76

25 51 76

25 51 76

25 51 76

25 51 76

25 51 76

25 51 76

25 51 76

25 51 76

25 51 76

25 51 76

25 51 76

25 51 76

25 51 76

25 51 76

25 51 76

25 51 76

25 51 76

25 51 76

25 51 76

25 51 76

25 51 76

25 51 76

25 51 76

25 51 76

25 51 76

25 51 76

25 51 76

25 51 76

25 51 76

25 51 76

25 51 76

25 51 76

25 51 76

25 51 76

25 51 76

25 51 76

25 51 76

25 51 76

25 51 76

25 51 76

25 51 76

25 51 76

25 51 76

25 51 76

25 51 76

25 51 76

25 51 76

25 51 76

25 51 76

25 51 76

25 51 76

25 51 76

25 51 76

25 51 76

25 51 76

25 51 76

25 51 76

25 51 76

25 51 76

25 51 76

25 51 76

25 51 76

25 51 76

25 51 76

25 51 76

25 51 76

25 51 76

25 51 76

25 51 76

25 51 76

25 51 76

25 51 76

25 51 76

25 51 76

25 51 76

25 51 76

25 51 76

25 51 76

25 51 76

25 51 76

25 51 76

25 51 76

25 51 76

25 51 76

25 51 76

25 51 76

25 51 76

25 51 76

25 51 76

25 51 76

25 51 76

25 51 76

25 51 76

25 51 76

25 51 76

25 51 76

25 51 76

25 51 76

25 51 76

25 51 76

25 51 76

25 51 76

25 51 76

25 51 76

25 51 76

25 51 76

25 51 76

25 51 76

25 51 76

25 51 76

25 51 76

25 51 76

25 51 76

25 51 76

25 51 76

25 51 76

25 51 76

25 51 76

25 51 76

25 51 76

25 51 76

25 51 76

25 51 76

25 51 76

25 51 76

25 51 76

25 51 76

25 51 76

25 51 76

25 51 76

25 51 76

25 51 76

25 51 76

25 51 76

25 51 76

25 51 76

25 51 76

25 51 76

25 51 76

25 51 76

25 51 76

25 51 76

25 51 76

25 51 76

25 51 76

25 51 76

25 51 76

25 51 76

25 51 76

25 51 76

25 51 76

25 51 76

25 51 76

25 51 76

25 51 76

25 51 76

25 51 76

25 51 76

25 51 76

25 51 76

25 51 76

25 51 76

25 51 76

25 51 76

25 51 76

25 51 76

25 51 76

25 51 76

25 51 76

25 51 76

25 51 76

25 51 76

25 51 76

25 51 76

25 51 76

25 51 76

25 51 76

25 51 76

25 51 76

25 51 76

25 51 76

25 51 76

25 51 76

25 51 76

25 51 76

25 51 76

25 51 76

25 51 76

25 51 76

25 51 76

25 51 76

25 51 76

25 51 76

25 51 76

25 51 76

25 51 76

25 51 76

25 51 76

25 51 76

25 51 76

25 51 76

25 51 76

25 51 76

25 51 76

25 51 76

25 51 76

25 51 76

25 51 76

25 51 76

25 51 76

25 51 76

25 51 76

25 51 76

25 51 76

25 51 76

25 51 76

25 51 76

25 51 76

25 51 76

25 51 76

25 51 76

25 51 76

25 51 76

25 51 76

25 51 76

25 51 76

25 51 76

25 51 76

25 51 76

25 51 76

25 51 76

25 51 76

25 51 76

25 51 76

25 51 76

25 51 76

25 51 76

25 51 76

25 51 76

25 51 76

25 51 76

25 51 76

25 51 76

25 51 76

25 51 76

25 51 76

25 51 76

25 51 76

25 51 76

25 51 76

25 51 76

25 51 76

25 51 76

25 51 76

25 51 76

25 51 76

25 51 76

25 51 76

25 51 76

25 51 76

25 51 76

25 51 76

25 51 76

25 51 76

25 51 76

25 51 76

25 51 76

25 51 76

25 51 76

25 51 76

25 51 76

25 51 76

25 51 76

25 51 76

25 51 76

25 51 76

25 51 76

25 51 76

25 51 76

25 51 76

25 51 76

25 51 76

25 51 76

25 51 76

25 51 76

25 51 76

25 51 76

25 51 76

25 51 76

25 51 76

25 51 76

25 51 76

25 51 76

25 51 76

25 51 76

25 51 76

25 51 76

25 51 76

25 51 76

25 51 76

25 51 76

25 51 76

25 51 76

25 51 76

25 51 76

25 51 76

25 51 76

25 51 76

25 51 76

25 51 76

25 51 76

25 51 76

25 51 76

25 51 76

25 51 76

25 51 76

25 51 76

25 51 76

25 51 76

25 51 76

25 51 76

25 51 76

25 51 76

25 51 76

25 51 76

25 51 76

25 51 76

25 51 76

25 51 76

25 51 76

25 51 76

25 51 76

25 51 76

25 51 76

25 51 76

25 51 76

25 51 76

25 51 76

25 51 76

25 51 76

25 51 76

25 51 76

25 51 76

25 51 76

25 51 76

25 51 76

25 51 76

25 51 76

25 51 76

25 51 76

25 51 76

25 51 76

25 51 76

25 51 76

25 51 76

25 51 76

25 51 76

25 51 76

25 51 76

25 51 76

25 51 76

25 51 76

25 51 76

25 51 76

25 51 76

25 51 76

25 51 76

25 51 76

25 51 76

25 51 76

25 51 76

25 51 76

25 51 76

25 51 76

25 51 76

25 51 76

25 51 76

25 51 76

25 51 76

25 51 76

25 51 76

25 51 76

25 51 76

25 51 76

25 51 76

25 51 76

25 51 76

25 51 76

25 51 76

25 51 76

25 51 76

25 51 76

25 51 76

25 51 76

25 51 76

25 51 76

25 51 76

25 51 76

25 51 76

25 51 76

25 51 76

25 51 76

25 51 76

25 51 76

25 51 76

25 51 76

25 51 76

25 51 76

25 51 76

25 51 76

25 51 76

25 51 76

25 51 76

25 51 76

25 51 76

25 51 76

25 51 76

25 51 76

25 51 76

25 51 76

25 51 76

25 51 76

25 51 76

25 51 76

25 51 76

25 51 76

25 51 76

25 51 76

25 51 76

25 51 76

25 51 76

25 51 76

25 51 76

25 51 76

25 51 76

25 51 76

25 51 76

25 51 76

25 51 76

25 51 76

25 51 76

25 51 76

25 51 76

25 51 76

25 51 76

25 51 76

25 51 76

25 51 76

25 51 76

25 51 76

25 51 76

25 51 76

25 51 76

25 51 76

25 51 76

25 51 76

25 51 76

25 51 76

25 51 76

25 51 76

25 51 76

25 51 76

25 51 76

25 51 76

25 51 76

25 51 76

25 51 76

25 51 76

25 51 76

25 51 76

25 51 76

25 51 76

25 51 76

25 51 76

25 51 76

25 51 76

25 51 76

25 51 76

25 51 76

25 51 76

25 51 76

25 51 76

25 51 76

25 51 76

25 51 76

25 51 76

25 51 76

25 51 76

25 51 76

25 51 76

25 51 76

25 51 76

25 51 76

25 51 76

25 51 76

25 51 76

25 51 76

25 51 76

25 51 76

25 51 76

25 51 76

25 51 76

25 51 76

25 51 76

25 51 76

25 51 76

25 51 76

25 51 76

25 51 76

25 51 76

25 51 76

25 51 76

25 51 76

25 51 76

25 51 76

25 51 76

25 51 76

25 51 76

25 51 76

25 51 76

25 51 76

25 51 76

25 51 76

25 51 76

25 51 76

25 51 76

25 51 76

25 51 76

25 51 76

25 51 76

25 51 76

25 51 76

25 51 76

25 51 76

25 51 76

25 51 76

25 51 76

25 51 76

25 51 76

25 51 76

25 51 76

25 51 76

25 51 76

25 51 76

25 51 76

25 51 76

25 51 76

25 51 76

25 51 76

25 51 76

25 51 76

25 51 76

25 51 76

25 51 76

25 51 76

25 51 76

25 51 76

25 51 76

25 51 76

25 51 76

25 51 76

25 51 76

25 51 76

25 51 76

25 51 76

25 51 76

25 51 76

25 51 76

25 51 76

25 51 76

25 51 76

25 51 76

25 51 76

25 51 76

25 51 76

25 51 76

25 51 76

25 51 76

25 51 76

25 51 76

25 51 76

25 51 76

25 51 76

25 51 76

25 51 76

25 51 76

25 51 76

25 51 76

25 51 76

25 51 76

25 51 76

25 51 76

25 51 76

25 51 76

25 51 76

25 51 76

25 51 76

25 51 76

25 51 76

25 51 76

25 51 76

25 51 76

25 51 76

25 51 76

25 51 76

25 51 76

25 51 76

25 51 76

25 51 76

25 51 76

25 51 76

25 51 76

25 51 76

25 51 76

25 51 76

25 51 76

25 51 76

25 51 76

25 51 76

25 51 76

25 51 76

25 51 76

25 51 76

25 51 76

25 51 76

25 51 76

25 51 76

25 51 76

25 51 76

25 51 76

25 51 76

25 51 76

25 51 76

25 51 76

25 51 76

25 51 76

25 51 76

25 51 76

25 51 76

25 51 76

25 51 76

25 51 76

25 51 76

25 51 76

25 51 76

25 51 76

25 51 76

25 51 76

25 51 76

25 51 76

25 51 76

25 51 76

25 51 76

25 51 76

25 51 76

25 51 76

25 51 76

25 51 76

25 51 76

25 51 76

25 51 76

25 51 76

25 51 76

25 51 76

25 51 76

25 51 76

25 51 76

25 51 76

25 51 76

25 51 76

25 51 76

25 51 76

25 51 76

25 51 76

25 51 76

25 51 76

25 51 76

25 51 76

25 51 76

25 51 76

25 51 76

25 51 76

25 51 76

25 51 76

25 51 76

25 51 76

25 51 76

25 51 76

25 51 76

25 51 76

25 51 76

25 51 76

25 51 76

25 51 76

25 51 76

25 51 76

25 51 76

25 51 76

25 51 76

25 51 76

25 51 76

25 51 76

25 51 76

25 51 76

25 51 76

25 51 76

25 51 76

25 51 76

25 51 76

25 51 76

25 51 76

25 51 76

25 51 76

25 51 76

25 51 76

25 51 76

25 51 76

25 51 76

25 51 76

25 51 76

25 51 76

25 51 76

25 51 76

25 51 76

25 51 76

25 51 76

25 51 76

25 51 76

25 51 76

25 51 76

25 51 76

25 51 76

25 51 76

25 51 76

25 51 76

25 51 76

25 51 76

25 51 76

25 51 76

25 51 76

25 51 76

25 51 76

25 51 76

25 51 76

25 51 76

25 51 76

25 51 76

25 51 76

25 51 76

25 51 76

25 51 76

25 51 76

25 51 76

25 51 76

25 51 76

25 51 76

25 51 76

25 51 76

25 51 76

25 51 76

25 51 76

25 51 76

25 51 76

25 51 76

25 51 76

25 51 76

25 51 76

25 51 76

25 51 76

25 51 76

25 51 76

25 51 76

25 51 76

25 51 76

25 51 76

25 51 76

25 51 76

25 51 76

25 51 76

25 51 76

25 51 76

25 51 76

25 51 76

25 51 76

25 51 76

25 51 76

25 51 76

25 51 76

25 51 76

25 51 76

25 51 76

25 51 76

25 51 76

25 51 76

25 51 76

25 51 76

25 51 76

25 51 76

25 51 76

25 51 76

25 51 76

25 51 76

25 51 76

25 51 76

25 51 76

25 51 76

25 51 76

25 51 76

25 51 76

25 51 76

25 51 76

25 51 76

25 51 76

25 51 76

25 51 76

25 51 76

25 51 76

25 51 76

25 51 76

25 51 76

25 51 76

25 51 76

25 51 76

25 51 76

25 51 76

25 51 76

25 51 76

25 51 76

25 51 76

25 51 76

25 51 76

25 51 76

25 51 76

25 51 76

25 51 76

25 51 76

25 51 76

25 51 76

25 51 76

25 51 76

25 51 76

25 51 76

25 51 76

25 51 76

25 51 76

25 51 76

25 51 76

25 51 76

25 51 76

25 51 76

25 51 76

25 51 76

25 51 76

25 51 76

25 51 76

25 51 76

25 51 76

25 51 76

25 51 76

25 51 76

25 51 76

25 51 76

25 51 76

25 51 76

25 51 76

25 51 76

25 51 76

25 51 76

25 51 76

25 51 76

25 51 76

25 51 76

25 51 76

25 51 76

25 51 76

25 51 76

25 51 76

25 51 76

25 51 76

25 51 76

25 51 76

25 51 76

25 51 76

25 51 76

25 51 76

25 51 76

25 51 76

25 51 76

25 51 76

25 51 76

25 51 76

25 51 76

25 51 76

25 51 76

25 51 76

25 51 76

25 51 76

25 51 76

25 51 76

25 51 76

25 51 76

25 51 76

25 51 76

25 51 76

25 51 76

25 51 76

25 51 76

25 51 76

25 51 76

25 51 76

25 51 76

25 51 76

25 51 76

25 51 76

25 51 76

25 51 76

25 51 76

25 51 76

25 51 76

25 51 76

25 51 76

25 51 76

25 51 76

25 51 76

25 51 76

25 51 76

25 51 76

25 51 76

25 51 76

25 51 76

25 51 76

25 51 76

25 51 76

25 51 76

25 51 76

25 51 76

25 51 76

25 51 76

25 51 76

25 51 76

25 51 76

25 51 76

25 51 76

25 51 76

25 51 76

25 51 76

25 51 76

25 51 76

25 51 76

25 51 76

25 51 76

25 51 76

25 51 76

25 51 76

25 51 76

25 51 76

25 51 76

25 51 76

25 51 76

25 51 76

25 51 76

25 51 76

25 51 76

25 51 76

25 51 76

25 51 76

25 51 76

25 51 76

25 51 76

25 51 76

25 51 76

25 51 76

25 51 76

25 51 76

25 51 76

25 51 76

25 51 76

25 51 76

25 51 76

25 51 76

25 51 76

25 51 76

25 51 76

25 51 76

25 51 76

25 51 76

25 51 76

25 51 76

25 51 76

25 51 76

25 51 76

25 51 76

25 51 76

25 51 76

25 51 76

25 51 76

25 51 76

25 51 76

25 51 76

25 51 76

25 51 76

25 51 76

25 51 76

25 51 76

25 51 76

25 51 76

25 51 76

25 51 76

25 51 76

25 51 76

25 51 76

25 51 76

25 51 76

25 51 76

25 51 76

25 51 76

25 51 76

25 51 76

25 51 76

25 51 76

25 51 76

25 51 76

25 51 76

25 51 76

25 51 76

25 51 76

25 51 76

25 51 76

25 51 76

25 51 76

25 51 76

25 51 76

25 51 76

25 51 76

25 51 76

25 51 76

25 51 76

25 51 76

25 51 76

25 51 76

25 51 76

25 51 76

25 51 76

25 51 76

25 51 76

25 51 76

25 51 76

25 51 76

25 51 76

25 51 76

25 51 76

25 51 76

25 51 76

25 51 76

25 51 76

25 51 76

25 51 76

25 51 76

25 51 76

25 51 76

25 51 76

25 51 76

25 51 76

25 51 76

25 51 76

25 51 76

25 51 76

25 51 76

25 51 76

25 51 76

25 51 76

25 51 76

25 51 76

25 51 76

25 51 76

25 51 76

25 51 76

25 51 76

25 51 76

25 51 76

25 51 76

25 51 76

25 51 76

25 51 76

25 51 76

25 51 76

25 51 76

25 51 76

25 51 76

25 51 76

25 51 76

25 51 76

25 51 76

25 51 76

25 51 76

25 51 76

25 51 76

25 51 76

25 51 76

25 51 76

25 51 76

25 51 76

25 51 76

25 51 76

25 51 76

25 51 76

25 51 76

25 51 76

25 51 76

25 51 76

25 51 76

25 51 76

25 51 76

25 51 76

25 51 76

25 51 76

25 51 76

25 51 76

25 51 76

25 51 76

25 51 76

25 51 76

25 51 76

25 51 76

25 51 76

25 51 76

25 51 76

25 51 76

25 51 76

25 51 76

25 51 76

25 51 76

25 51 76

25 51 76

25 51 76

25 51 76

25 51 76

25 51 76

25 51 76

25 51 76

25 51 76

25 51 76

25 51 76

25 51 76

25 51 76

25 51 76

25 51 76

25 51 76

25 51 76

25 51 76

25 51 76

25 51 76

25 51 76

25 51 76

25 51 76

25 51 76

25 51 76

25 51 76

25 51 76

25 51 76

25 51 76

25 51 76

25 51 76

25 51 76

25 51 76

25 51 76

25 51 76

25 51 76

25 51 76

25 51 76

25 51 76

25 51 76

25 51 76

25 51 76

25 51 76

25 51 76

25 51 76

25 51 76

25 51 76

25 51 76

25 51 76

25 51 76

25 51 76

25 51 76

25 51 76

25 51 76

25 51 76

25 51 76

25 51 76

25 51 76

25 51 76

25 51 76

25 51 76

25 51 76

25 51 76

25 51 76

25 51 76

25 51 76

25 51 76

25 51 76

25 51 76

25 51 76

25 51 76

25 51 76

25 51 76

25 51 76

25 51 76

25 51 76

25 51 76

25 51 76

25 51 76

25 51 76

25 51 76

25 51 76

25 51 76

25 51 76

25 51 76

25 51 76

25 51 76

25 51 76

25 51 76

25 51 76

25 51 76

25 51 76

25 51 76

25 51 76

25 51 76

25 51 76

25 51 76

25 51 76

25 51 76

25 51 76

25 51 76

25 51 76

25 51 76

25 51 76

25 51 76

25 51 76

25 51 76

25 51 76

25 51 76

25 51 76

25 51 76

25 51 76

25 51 76

25 51 76

25 51 76

25 51 76

25 51 76

25 51 76

25 51 76

25 51 76

25 51 76

25 51 76

25 51 76

25 51 76

25 51 76

25 51 76

25 51 76

25 51 76

25 51 76

25 51 76

25 51 76

25 51 76

25 51 76

25 51 76

25 51 76

25 51 76

25 51 76

25 51 76

25 51 76

25 51 76

25 51 76

25 51 76

25 51 76

25 51 76

25 51 76

25 51 76

25 51 76

25 51 76

25 51 76

25 51 76

25 51 76

25 51 76

25 51 76

25 51 76

25 51 76

25 51 76

25 51 76

25 51 76

25 51 76

25 51 76

25 51 76

25 51 76

25 51 76

25 51 76

25 51 76

25 51 76

25 51 76

25 51 76

25 51 76

25 51 76

25 51 76

25 51 76

25 51 76

25 51 76

25 51 76

25 51 76

25 51 76

25 51 76

25 51 76

25 51 76

25 51 76

25 51 76

25 51 76

25 51 76

25 51 76

25 51 76

25 51 76

25 51 76

25 51 76

25 51 76

25 51 76

25 51 76

25 51 76

25 51 76

25 51 76

25 51 76

25 51 76

25 51 76

25 51 76

25 51 76

25 51 76

25 51 76

25 51 76

25 51 76

25 51 76

25 51 76

25 51 76

25 51 76

25 51 76

25 51 76

25 51 76

25 51 76

25 51 76

25 51 76

25 51 76

25 51 76

25 51 76

25 51 76

25 51 76

25 51 76

25 51 76

25 51 76

25 51 76

25 51 76

25 51 76

25 51 76

25 51 76

25 51 76

25 51 76

25 51 76

25 51 76

25 51 76

25 51 76

25 51 76

25 51 76

25 51 76

25 51 76

25 51 76

25 51 76

25 51 76

25 51 76

25 51 76

25 51 76

25 51 76

25 51 76

25 51 76

25 51 76

25 51 76

25 51 76

25 51 76

25 51 76

25 51 76

25 51 76

25 51 76

25 51 76

25 51 76

25 51 76

25 51 76

25 51 76

25 51 76

25 51 76

25 51 76

25 51 76

25 51 76

25 51 76

25 51 76

25 51 76

25 51 76

25 51 76

25 51 76

25 51 76

25 51 76

25 51 76

25 51 76

25 51 76

25 51 76

25 51 76

25 51 76

25 51 76

25 51 76

25 51 76

25 51 76

25 51 76

25 51 76

25 51 76

25 51 76

25 51 76

25 51 76

25 51 76

25 51 76

25 51 76

25 51 76

25 51 76

25 51 76

25 51 76

25 51 76

25 51 76

25 51 76

25 51 76

25 51 76

25 51 76

25 51 76

25 51 76

25 51 76

25 51 76

25 51 76

25 51 76

25 51 76

25 51 76

25 51 76

25 51 76

25 51 76

25 51 76

25 51 76

25 51 76

25 51 76

25 51 76

25 51 76

25 51 76

25 51 76

25 51 76

25 51 76

25 51 76

25 51 76

25 51 76

25 51 76

25 51 76

25 51 76

25 51 76

25 51 76

25 51 76

25 51 76

25 51 76

25 51 76

25 51 76

25 51 76

25 51 76

25 51 76

25 51 76

25 51 76

25 51 76

25 51 76

25 51 76

25 51 76

25 51 76

25 51 76

25 51 76

25 51 76

25 51 76

25 51 76

25 51 76

25 51 76

25 51 76

25 51 76

25 51 76

25 51 76

25 51 76

25 51 76

25 51 76

25 51 76

25 51 76

25 51 76

25 51 76

25 51 76

25 51 76

25 51 76

25 51 76

25 51 76

25 51 76

25 51 76

25 51 76

25 51 76

25 51 76

25 51 76

25 51 76

25 51 76

25 51 76

25 51 76

25 51 76

25 51 76

25 51 76

25 51 76

25 51 76

25 51 76

25 51 76

25 51 76

25 51 76

25 51 76

25 51 76

25 51 76

25 51 76

25 51 76

25 51 76

25 51 76

25 51 76

25 51 76

25 51 76

25 51 76

25 51 76

25 51 76

25 51 76

25 51 76

25 51 76

25 51 76

25 51 76

25 51 76

25 51 76

25 51 76

25 51 76

25 51 76

25 51 76

25 51 76

25 51 76

25 51 76

25 51 76

25 51 76

25 51 76

25 51 76

25 51 76

25 51 76

25 51 76

25 51 76

25 51 76

25 51 76

25 51 76

25 51 76

25 51 76

25 51 76

25 51 76

25 51 76

25 51 76

25 51 76

25 51 76

25 51 76

25 51 76

25 51 76

25 51 76

25 51 76

25 51 76

25 51 76

25 51 76

25 51 76

25 51 76

25 51 76

25 51 76

25 51 76

25 51 76

25 51 76

25 51 76

25 51 76

25 51 76

25 51 76

25 51 76

25 51 76

25 51 76

25 51 76

25 51 76

25 51 76

25 51 76

25 51 76

25 51 76

25 51 76

25 51 76

25 51 76

25 51 76

25 51 76

25 51 76

25 51 76

25 51 76

25 51 76

25 51 76

25 51 76

25 51 76

25 51 76

25 51 76

25 51 76

25 51 76

25 51 76

25 51 76

25 51 76

25 51 76

25 51 76

25 51 76

25 51 76

25 51 76

25 51 76

25 51 76

25 51 76

25 51 76

25 51 76

25 51 76

25 51 76

25 51 76

25 51 76

25 51 76

25 51 76

25 51 76

25 51 76

25 51 76

25 51 76

25 51 76

25 51 76

25 51 76

25 51 76

25 51 76

25 51 76

25 51 76

25 51 76

25 51 76

25 51 76

25 51 76

25 51 76

25 51 76

25 51 76

25 51 76

25 51 76

25 51 76

25 51 76

25 51 76

25 51 76

25 51 76

25 51 76

25 51 76

25 51 76

25 51 76

25 51 76

25 51 76

25 51 76

25 51 76

25 51 76

25 51 76

25 51 76

25 51 76

25 51 76

25 51 76

25 51 76

25 51 76

25 51 76

25 51 76

25 51 76

25 51 76

25 51 76

25 51 76

25 51 76

25 51 76

25 51 76

25 51 76

25 51 76

25 51 76

25 51 76

25 51 76

25 51 76

25 51 76

25 51 76

25 51 76

25 51 76

25 51 76

25 51 76

25 51 76

25 51 76

25 51 76

25 51 76

25 51 76

25 51 76

25 51 76

25 51 76

25 51 76

25 51 76

25 51 76

25 51 76

25 51 76

25 51 76

25 51 76

25 51 76

25 51 76

25 51 76

25 51 76

25 51 76

25 51 76

25 51 76

25 51 76

25 51 76

25 51 76

25 51 76

25 51 76

25 51 76

25 51 76

25 51 76

25 51 76

25 51 76

25 51 76

25 51 76

25 51 76

25 51 76

25 51 76

25 51 76

25 51 76

25 51 76

25 51 76

25 51 76

25 51 76

25 51 76

25 51 76

25 51 76

25 51 76

25 51 76

25 51 76

25 51 76

25 51 76

25 51 76

25 51 76

25 51 76

25 51 76

25 51 76

25 51 76

25 51 76

25 51 76

25 51 76

25 51 76

25 51 76

25 51 76

25 51 76

25 51 76

25 51 76

25 51 76

25 51 76

25 51 76

25 51 76

25 51 76

25 51 76

25 51 76

25 51 76

25 51 76

25 51 76

25 51 76

25 51 76

25 51 76

25 51 76

25 51 76

25 51 76

25 51 76

25 51 76

25 51 76

25 51 76

25 51 76

25 51 76

25 51 76

25 51 76

25 51 76

25 51 76

25 51 76

25 51 76

25 51 76

25 51 76

25 51 76

25 51 76

25 51 76

25 51 76

25 51 76

25 51 76

25 51 76

25 51 76

25 51 76

25 51 76

25 51 76

25 51 76

25 51 76

25 51 76

25 51 76

25 51 76

25 51 76

25 51 76

25 51 76

25 51 76

25 51 76

25 51 76

25 51 76

25 51 76

25 51 76

25 51 76

25 51 76

25 51 76

25 51 76

25 51 76

25 51 76

25 51 76

25 51 76

25 51 76

25 51 76

25 51 76

25 51 76

25 51 76

25 51 76

25 51 76

25 51 76

25 51 76

25 51 76

25 51 76

25 51 76

25 51 76

25 51 76

25 51 76

25 51 76

25 51 76

25 51 76

25 51 76

25 51 76

25 51 76

25 51 76

25 51 76

25 51 76

25 51 76

25 51 76

25 51 76

25 51 76

25 51 76

25 51 76

25 51 76

25 51 76

25 51 76

25 51 76

25 51 76

25 51 76

25 51 76

25 51 76

25 51 76

25 51 76

25 51 76

25 51 76

25 51 76

25 51 76

25 51 76

25 51 76

25 51 76

25 51 76

25 51 76

25 51 76

25 51 76

25 51 76

25 51 76

25 51 76

25 51 76

25 51 76

25 51 76

25 51 76

25 51 76

25 51 76

25 51 76

25 51 76

25 51 76

25 51 76

25 51 76

25 51 76

25 51 76

25 51 76

25 51 76

25 51 76

25 51 76

25 51 76

25 51 76

25 51 76

25 51 76

25 51 76

25 51 76

25 51 76

25 51 76

25 51 76

25 51 76

25 51 76

25 51 76

25 51 76

25 51 76

25 51 76

25 51 76

25 51 76

25 51 76

25 51 76

25 51 76

25 51 76

25 51 76

25 51 76

25 51 76

25 51 76

25 51 76

25 51 76

25 51 76

25 51 76

25 51 76

25 51 76

25 51 76

25 51 76

25 51 76

25 51 76

25 51 76

25 51 76

25 51 76

25 51 76

25 51 76

25 51 76

25 51 76

25 51 76

25 51 76

25 51 76

25 51 76

25 51 76

25 51 76

25 51 76

25 51 76

25 51 76

25 51 76

25 51 76

25 51 76

25 51 76

25 51 76

25 51 76

25 51 76

25 51 76

25 51 76

25 51 76

25 51 76

25 51 76

25 51 76

25 51 76

25 51 76

25 51 76

25 51 76

25 51 76

25 51 76

25 51 76

25 51 76

25 51 76

25 51 76

25 51 76

25 51 76

25 51 76

25 51 76

25 51 76

25 51 76

25 51 76

25 51 76

25 51 76

25 51 76

25 51 76

25 51 76

25 51 76

25 51 76

25 51 76

25 51 76

25 51 76

25 51 76

25 51 76

25 51 76

25 51 76

25 51 76

25 51 76

25 51 76

25 51 76

25 51 76

25 51 76

25 51 76

25 51 76

25 51 76

25 51 76

25 51 76

25 51 76

25 51 76

25 51 76

25 51 76

25 51 76

25 51 76

25 51 76

25 51 76

25 51 76

25 51 76

25 51 76

25 51 76

25 51 76

25 51 76

25 51 76

25 51 76

25 51 76

25 51 76

25 51 76

25 51 76

25 51 76

25 51 76

25 51 76

25 51 76

25 51 76

25 51 76

25 51 76

25 51 76

25 51 76

25 51 76

25 51 76

25 51 76

25 51 76

25 51 76

25 51 76

25 51 76

25 51 76

25 51 76

25 51 76

25 51 76

25 51 76

25 51 76

25 51 76

25 51 76

25 51 76

25 51 76

25 51 76

25 51 76

25 51 76

25 51 76

25 51 76

25 51 76

25 51 76

25 51 76

25 51 76

25 51 76

25 51 76

25 51 76

25 51 76

25 51 76

25 51 76

25 51 76

25 51 76

25 51 76

25 51 76

25 51 76

25 51 76

25 51 76

25 51 76

25 51 76

25 51 76

25 51 76

25 51 76

25 51 76

25 51 76

25 51 76

25 51 76

25 51 76

25 51 76

25 51 76

25 51 76

25 51 76

25 51 76

25 51 76

25 51 76

25 51 76

25 51 76

25 51 76

25 51 76

25 51 76

25 51 76

25 51 76

25 51 76

25 51 76

25 51 76

25 51 76

25 51 76

25 51 76

25 51 76

25 51 76

25 51 76

25 51 76

25 51 76

25 51 76

25 51 76

25 51 76

25 51 76

25 51 76

25 51 76

25 51 76

25 51 76

25 51 76

25 51 76

25 51 76

25 51 76

25 51 76

25 51 76

25 51 76

25 51 76

25 51 76

25 51 76

25 51 76

25 51 76

25 51 76

25 51 76

25 51 76

25 51 76

25 51 76

25 51 76

25 51 76

25 51 76

25 51 76

25 51 76

25 51 76

25 51 76

25 51 76

25 51 76

25 51 76

25 51 76

25 51 76

25 51 76

25 51 76

25 51 76

25 51 76

25 51 76

25 51 76

25 51 76

25 51 76

25 51 76

25 51 76

25 51 76

25 51 76

25 51 76

25 51 76

25 51 76

25 51 76

25 51 76

25 51 76

25 51 76

25 51 76

25 51 76

25 51 76

25 51 76

25 51 76

25 51 76

25 51 76

25 51 76

25 51 76

25 51 76

25 51 76

25 51 76

25 51 76

25 51 76

25 51 76

25 51 76

25 51 76

25 51 76

25 51 76

25 51 76

25 51 76

25 51 76

25 51 76

25 51 76

25 51 76

25 51 76

25 51 76

25 51 76

25 51 76

25 51 76

25 51 76

25 51 76

25 51 76

25 51 76

25 51 76

25 51 76

25 51 76

25 51 76

25 51 76

25 51 76

25 51 76

25 51 76

25 51 76

25 51 76

25 51 76

25 51 76

25 51 76

25 51 76

25 51 76

25 51 76

25 51 76

25 51 76

25 51 76

25 51 76

25 51 76

25 51 76

25 51 76

25 51 76

25 51 76

25 51 76

25 51 76

25 51 76

25 51 76

25 51 76

25 51 76

25 51 76

25 51 76

25 51 76

25 51 76

25 51 76

25 51 76

25 51 76

25 51 76

25 51 76

25 51 76

25 51 76

25 51 76

25 51 76

25 51 76

25 51 76

25 51 76

25 51 76

25 51 76

25 51 76

25 51 76

25 51 76

25 51 76

25 51 76

25 51 76

25 51 76

25 51 76

25 51 76

25 51 76

25 51 76

25 51 76

25 51 76

25 51 76

25 51 76

25 51 76

25 51 76

25 51 76

25 51 76

25 51 76

25 51 76

25 51 76

25 51 76

25 51 76

25 51 76

25 51 76

25 51 76

25 51 76

25 51 76

25 51 76

25 51 76

25 51 76

25 51 76

25 51 76

25 51 76

25 51 76

25 51 76

25 51 76

25 51 76

25 51 76

25 51 76

25 51 76

25 51 76

25 51 76

25 51 76

25 51 76

25 51 76

25 51 76

25 51 76

25 51 76

25 51 76

25 51 76

25 51 76

25 51 76

25 51 76

25 51 76

25 51 76

25 51 76

25 51 76

25 51 76

25 51 76

25 51 76

25 51 76

25 51 76

25 51 76

25 51 76

25 51 76

25 51 76

25 51 76

25 51 76

25 51 76

25 51 76

25 51 76

25 51 76

25 51 76

25 51 76

25 51 76

25 51 76

25 51 76

25 51 76

25 51 76

25 51 76

25 51 76

25 51 76

25 51 76

25 51 76

25 51 76

25 51 76

25 51 76

25 51 76

25 51 76

25 51 76

25 51 76

25 51 76

25 51 76

25 51 76

25 51 76

25 51 76

25 51 76

25 51 76

25 51 76

25 51 76

25 51 76

25 51 76

25 51 76

25 51 76

25 51 76

25 51 76

25 51 76

25 51 76

25 51 76

25 51 76

25 51 76

25 51 76

25 51 76

25 51 76

25 51 76

25 51 76

25 51 76

25 51 76

25 51 76

25 51 76

25 51 76

25 51 76

25 51 76

25 51 76

25 51 76

25 51 76

25 51 76

25 51 76

25 51 76

25 51 76

25 51 76

25 51 76

25 51 76

25 51 76

25 51 76

25 51 76

25 51 76

25 51 76

25 51 76

25 51 76

25 51 76

25 51 76

25 51 76

25 51 76

25 51 76

25 51 76

25 51 76

25 51 76

25 51 76

25 51 76

25 51 76

25 51 76

25 51 76

25 51 76

25 51 76

25 51 76

25 51 76

25 51 76

25 51 76

25 51 76

25 51 76

25 51 76

25 51 76

25 51 76

25 51 76

25 51 76

25 51 76

25 51 76

25 51 76

25 51 76

25 51 76

25 51 76

25 51 76

25 51 76

25 51 76

25 51 76

25 51 76

25 51 76

25 51 76

25 51 76

25 51 76

25 51 76

25 51 76

25 51 76

25 51 76

25 51 76

25 51 76

25 51 76

25 51 76

25 51 76

25 51 76

25 51 76

25 51 76

25 51 76

25 51 76

25 51 76

25 51 76

25 51 76

25 51 76

25 51 76

25 51 76

25 51 76

25 51 76

25 51 76

25 51 76

25 51 76

25 51 76

25 51 76

25 51 76

25 51 76

25 51 76

25 51 76

25 51 76

25 51 76

25 51 76

25 51 76

25 51 76

25 51 76

25 51 76

25 51 76

25 51 76

25 51 76

25 51 76

25 51 76

25 51 76

25 51 76

25 51 76

25 51 76

25 51 76

25 51 76

25 51 76

25 51 76

25 51 76

25 51 76

25 51 76

25 51 76

25 51 76

25 51 76

25 51 76

25 51 76

25 51 76

25 51 76

25 51 76

25 51 76

25 51 76

25 51 76

25 51 76

25 51 76

25 51 76

25 51 76

25 51 76

25 51 76

25 51 76

25 51 76

25 51 76

25 51 76

25 51 76

25 51 76

25 51 76

25 51 76

25 51 76

25 51 76

25 51 76

25 51 76

25 51 76

25 51 76

25 51 76

25 51 76

25 51 76

25 51 76

25 51 76

25 51 76

25 51 76

25 51 76

25 51 76

25 51 76

25 51 76

25 51 76

25 51 76

25 51 76

25 51 76

25 51 76

25 51 76

25 51 76

25 51 76

25 51 76

25 51 76

25 51 76

25 51 76

25 51 76

25 51 76

25 51 76

25 51 76

25 51 76

25 51 76

25 51 76

25 51 76

25 51 76

25 51 76

25 51 76

25 51 76

25 51 76

25 51 76

25 51 76

25 51 76

25 51 76

25 51 76

25 51 76

25 51 76

25 51 76

25 51 76

25 51 76

25 51 76

25 51 76

25 51 76

25 51 76

25 51 76

25 51 76

25 51 76

25 51 76

25 51 76

25 51 76

25 51 76

25 51 76

25 51 76

25 51 76

25 51 76

25 51 76

25 51 76

25 51 76

25 51 76

25 51 76

25 51 76

25 51 76

25 51 76

25 51 76

25 51 76

25 51 76

25 51 76

25 51 76

25 51 76

25 51 76

25 51 76

25 51 76

25 51 76

25 51 76

25 51 76

25 51 76

25 51 76

25 51 76

25 51 76

25 51 76

25 51 76

25 51 76

25 51 76

25 51 76

25 51 76

25 51 76

25 51 76

25 51 76

25 51 76

25 51 76

25 51 76

25 51 76

25 51 76

25 51 76

25 51 76

25 51 76

25 51 76

25 51 76

25 51 76

25 51 76

25 51 76

25 51 76

25 51 76

25 51 76

25 51 76

25 51 76

25 51 76

25 51 76

25 51 76

25 51 76

25 51 76

25 51 76

25 51 76

25 51 76

25 51 76

25 51 76

25 51 76

25 51 76

25 51 76

25 51 76

25 51 76

25 51 76

25 51 76

25 51 76

25 51 76

25 51 76

25 51 76

25 51 76

25 51 76

25 51 76

25 51 76

25 51 76

25 51 76

25 51 76

25 51 76

25 51 76

25 51 76

25 51 76

25 51 76

25 51 76

25 51 76

25 51 76

25 51 76

25 51 76

25 51 76

25 51 76

25 51 76

25 51 76

25 51 76

25 51 76

25 51 76

25 51 76

25 51 76

25 51 76

25 51 76

25 51 76

25 51 76

25 51 76

25 51 76

25 51 76

25 51 76

25 51 76

25 51 76

25 51 76

25 51 76

25 51 76

25 51 76

25 51 76

25 51 76

25 51 76

25 51 76

25 51 76

25 51 76

25 51 76

25 51 76

25 51 76

25 51 76

25 51 76

25 51 76

25 51 76

25 51 76

25 51 76

25 51 76

25 51 76

25 51 76

25 51 76

25 51 76

25 51 76

25 51 76

25 51 76

25 51 76

25 51 76

25 51 76

25 51 76

25 51 76

25 51 76

25 51 76

25 51 76

25 51 76

25 51 76

25 51 76

25 51 76

25 51 76

25 51 76

25 51 76

25 51 76

25 51 76

25 51 76

25 51 76

25 51 76

25 51 76

25 51 76

25 51 76

25 51 76

25 51 76

25 51 76

25 51 76

25 51 76

25 51 76

25 51 76

25 51 76

25 51 76

25 51 76

25 51 76

25 51 76

25 51 76

25 51 76

25 51 76

25 51 76

25 51 76

25 51 76

25 51 76

25 51 76

25 51 76

25 51 76

25 51 76

25 51 76

25 51 76

25 51 76

25 51 76

25 51 76

25 51 76

25 51 76

25 51 76

25 51 76

25 51 76

25 51 76

25 51 76

25 51 76

25 51 76

25 51 76

25 51 76

25 51 76

25 51 76

25 51 76

25 51 76

25 51 76

25 51 76

25 51 76

25 51 76

25 51 76

25 51 76

25 51 76

25 51 76

25 51 76

25 51 76

25 51 76

25 51 76

25 51 76

25 51 76

25 51 76

25 51 76

25 51 76

25 51 76

25 51 76

25 51 76

25 51 76

25 51 76

25 51 76

25 51 76

25 51 76

25 51 76

25 51 76

25 51 76

25 51 76

25 51 76

25 51 76

25 51 76

25 51 76

25 51 76

25 51 76

25 51 76

25 51 76

25 51 76

25 51 76

25 51 76

25 51 76

25 51 76

25 51 76

25 51 76

25 51 76

25 51 76

25 51 76

25 51 76

25 51 76

25 51 76

25 51 76

25 51 76

25 51 76

25 51 76

25 51 76

25 51 76

25 51 76

25 51 76

25 51 76

25 51 76

25 51 76

25 51 76

25 51 76

25 51 76

25 51 76

25 51 76

25 51 76

25 51 76

25 51 76

25 51 76

25 51 76

25 51 76

25 51 76

25 51 76

25 51 76

25 51 76

25 51 76

25 51 76

25 51 76

25 51 76

25 51 76

25 51 76

25 51 76

25 51 76

25 51 76

25 51 76

25 51 76

25 51 76

25 51 76

25 51 76

25 51 76

25 51 76

25 51 76

25 51 76

25 51 76

25 51 76

25 51 76

25 51 76

25 51 76

25 51 76

25 51 76

25 51 76

25 51 76

25 51 76

25 51 76

25 51 76

25 51 76

25 51 76

25 51 76

25 51 76

25 51 76

25 51 76

25 51 76

25 51 76

25 51 76

25 51 76

25 51 76

25 51 76

25 51 76

25 51 76

25 51 76

25 51 76

25 51 76

25 51 76

25 51 76

25 51 76

25 51 76

25 51 76

25 51 76

25 51 76

25 51 76

25 51 76

25 51 76

25 51 76

25 51 76

25 51 76

25 51 76

25 51 76

25 51 76

25 51 76

25 51 76

25 51 76

25 51 76

25 51 76

25 51 76

25 51 76

25 51 76

25 51 76

25 51 76

25 51 76

25 51 76

25 51 76

25 51 76

25 51 76

25 51 76

25 51 76

25 51 76

25 51 76

25 51 76

25 51 76

25 51 76

25 51 76

25 51 76

25 51 76

25 51 76

25 51 76

25 51 76

25 51 76

25 51 76

25 51 76

25 51 76

25 51 76

25 51 76

25 51 76

25 51 76

25 51 76

25 51 76

25 51 76

25 51 76

25 51 76

25 51 76

25 51 76

25 51 76

25 51 76

25 51 76

25 51 76

25 51 76

25 51 76

25 51 76

25 51 76

25 51 76

25 51 76

25 51 76

25 51 76

25 51 76

25 51 76

25 51 76

25 51 76

25 51 76

25 51 76

25 51 76

25 51 76

25 51 76

25 51 76

25 51 76

25 51 76

25 51 76

25 51 76

25 51 76

25 51 76

25 51 76

25 51 76

25 51 76

25 51 76

25 51 76

25 51 76

25 51 76

25 51 76

25 51 76

25 51 76

25 51 76

25 51 76

25 51 76

25 51 76

25 51 76

25 51 76

25 51 76

25 51 76

25 51 76

25 51 76

25 51 76

25 51 76

25 51 76

25 51 76

25 51 76

25 51 76

25 51 76

25 51 76

25 51 76

25 51 76

25 51 76

25 51 76

25 51 76

25 51 76

25 51 76

25 51 76

25 51 76

25 51 76

25 51 76

25 51 76

25 51 76

25 51 76

25 51 76

25 51 76

25 51 76

25 51 76

25 51 76

25 51 76

25 51 76

25 51 76

25 51 76

25 51 76

25 51 76

25 51 76

25 51 76

25 51 76

25 51 76

25 51 76

25 51 76

25 51 76

25 51 76

25 51 76

25 51 76

25 51 76

25 51 76

25 51 76

25 51 76

25 51 76

25 51 76

25 51 76

25 51 76

25 51 76

25 51 76

25 51 76

25 51 76

25 51 76

25 51 76

25 51 76

25 51 76

25 51 76

25 51 76

25 51 76

25 51 76

25 51 76

25 51 76

25 51 76

25 51 76

25 51 76

25 51 76

25 51 76

25 51 76

25 51 76

25 51 76

25 51 76

25 51 76

25 51 76

25 51 76

25 51 76

25 51 76

25 51 76

25 51 76

25 51 76

25 51 76

25 51 76

25 51 76

25 51 76

25 51 76

25 51 76

25 51 76

25 51 76

25 51 76

25 51 76

25 51 76

25 51 76

25 51 76

25 51 76

25 51 76

25 51 76

25 51 76

25 51 76

25 51 76

25 51 76

25 51 76

25 51 76

25 51 76

25 51 76

25 51 76

25 51 76

25 51 76

25 51 76

25 51 76

25 51 76

25 51 76

25 51 76

25 51 76

25 51 76

25 51 76

25 51 76

25 51 76

25 51 76

25 51 76

25 51 76

25 51 76

25 51 76

25 51 76

25 51 76

25 51 76

25 51 76

25 51 76

25 51 76

25 51 76

25 51 76

25 51 76

25 51 76

25 51 76

25 51 76

25 51 76

25 51 76

25 51 76

25 51 76

25 51 76

25 51 76

25 51 76

25 51 76

25 51 76

25 51 76

25 51 76

25 51 76

25 51 76

25 51 76

25 51 76

25 51 76

25 51 76

25 51 76

25 51 76

25 51 76

25 51 76

25 51 76

25 51 76

25 51 76

25 51 76

25 51 76

25 51 76

25 51 76

25 51 76

25 51 76

25 51 76

25 51 76

25 51 76

25 51 76

25 51 76

25 51 76

25 51 76

25 51 76

25 51 76

25 51 76

25 51 76

25 51 76

25 51 76

25 51 76

25 51 76

25 51 76

25 51 76

25 51 76

25 51 76

25 51 76

25 51 76

25 51 76

25 51 76

25 51 76

25 51 76

25 51 76

25 51 76

25 51 76

25 51 76

25 51 76

25 51 76

25 51 76

25 51 76

25 51 76

25 51 76

25 51 76

25 51 76

25 51 76

25 51 76

25 51 76

25 51 76

25 51 76

25 51 76

25 51 76

25 51 76

25 51 76

25 51 76

25 51 76

25 51 76

25 51 76

25 51 76

25 51 76

25 51 76

25 51 76

25 51 76

25 51 76

25 51 76

25 51 76

25 51 76

25 51 76

25 51 76

25 51 76

25 51 76

25 51 76

25 51 76

25 51 76

25 51 76

25 51 76

25 51 76

25 51 76

25 51 76

25 51 76

25 51 76

25 51 76

25 51 76

25 51 76

25 51 76

25 51 76

25 51 76

25 51 76

25 51 76

25 51 76

25 51 76

25 51 76

25 51 76

25 51 76

25 51 76

25 51 76

25 51 76

25 51 76

25 51 76

25 51 76

25 51 76

25 51 76

25 51 76

25 51 76

25 51 76

25 51 76

25 51 76

25 51 76

25 51 76

25 51 76

25 51 76

25 51 76

25 51 76

25 51 76

25 51 76

25 51 76

25 51 76

25 51 76

25 51 76

25 51 76

25 51 76

25 51 76

25 51 76

25 51 76

25 51 76

25 51 76

25 51 76

25 51 76

25 51 76

25 51 76

25 51 76

25 51 76

25 51 76

25 51 76

25 51 76

25 51 76

25 51 76

25 51 76

25 51 76

25 51 76

25 51 76

25 51 76

25 51 76

25 51 76

25 51 76

25 51 76

25 51 76

25 51 76

25 51 76

25 51 76

25 51 76

25 51 76

25 51 76

25 51 76

25 51 76

25 51 76

25 51 76

25 51 76

25 51 76

25 51 76

25 51 76

25 51 76

25 51 76

25 51 76

25 51 76

25 51 76

25 51 76

25 51 76

25 51 76

25 51 76

25 51 76

25 51 76

25 51 76

25 51 76

25 51 76

25 51 76

25 51 76

25 51 76

25 51 76

25 51 76

25 51 76

25 51 76

25 51 76

25 51 76

25 51 76

25 51 76

25 51 76

25 51 76

25 51 76

25 51 76

25 51 76

25 51 76

25 51 76

25 51 76

25 51 76

25 51 76

25 51 76

25 51 76

25 51 76

25 51 76

25 51 76

25 51 76

25 51 76

25 51 76

25 51 76

25 51 76

25 51 76

25 51 76

25 51 76

25 51 76

25 51 76

25 51 76

25 51 76

25 51 76

25 51 76

25 51 76

25 51 76

25 51 76

25 51 76

25 51 76

25 51 76

25 51 76

25 51 76

25 51 76

25 51 76

25 51 76

25 51 76

25 51 76

25 51 76

25 51 76

25 51 76

25 51 76

25 51 76

25 51 76

25 51 76

25 51 76

25 51 76

25 51 76

25 51 76

25 51 76

25 51 76

25 51 76

25 51 76

25 51 76

25 51 76

25 51 76

25 51 76

25 51 76

25 51 76

25 51 76

25 51 76

25 51 76

25 51 76

25 51 76

25 51 76

25 51 76

25 51 76

25 51 76

25 51 76

25 51 76

25 51 76

25 51 76

25 51 76

25 51 76

25 51 76

25 51 76

25 51 76

25 51 76

25 51 76

25 51 76

25 51 76

25 51 76

25 51 76

25 51 76

25 51 76

25 51 76

25 51 76

25 51 76

25 51 76

25 51 76

25 51 76

25 51 76

25 51 76

25 51 76

25 51 76

25 51 76

25 51 76

25 51 76

25 51 76

25 51 76

25 51 76

25 51 76

25 51 76

25 51 76

25 51 76

25 51 76

25 51 76

25 51 76

25 51 76

25 51 76

25 51 76

25 51 76

25 51 76

25 51 76

25 51 76

25 51 76

25 51 76

25 51 76

25 51 76

25 51 76

25 51 76

25 51 76

25 51 76

25 51 76

25 51 76

25 51 76

25 51 76

25 51 76

25 51 76

25 51 76

25 51 76

25 51 76

25 51 76

25 51 76

25 51 76

25 51 76

25 51 76

25 51 76

25 51 76

25 51 76

25 51 76

25 51 76

25 51 76

25 51 76

25 51 76

25 51 76

25 51 76

25 51 76

25 51 76

25 51 76

25 51 76

25 51 76

25 51 76

25 51 76

25 51 76

25 51 76

25 51 76

25 51 76

25 51 76

25 51 76

25 51 76

25 51 76

25 51 76

25 51 76

25 51 76

25 51 76

25 51 76

25 51 76

25 51 76

25 51 76

25 51 76

25 51 76

25 51 76

25 51 76

25 51 76

25 51 76

25 51 76

25 51 76

25 51 76

25 51 76

25 51 76

25 51 76

25 51 76

25 51 76

25 51 76

25 51 76

25 51 76

25 51 76

25 51 76

25 51 76

25 51 76

25 51 76

25 51 76

25 51 76

25 51 76

25 51 76

25 51 76

25 51 76

25 51 76

25 51 76

25 51 76

25 51 76

25 51 76

25 51 76

25 51 76

25 51 76

25 51 76

25 51 76

25 51 76

25 51 76

25 51 76

25 51 76

25 51 76

25 51 76

25 51 76

25 51 76

25 51 76

25 51 76

25 51 76

25 51 76

25 51 76

25 51 76

25 51 76

25 51 76

25 51 76

25 51 76

25 51 76

25 51 76

25 51 76

25 51 76

25 51 76

25 51 76

25 51 76

25 51 76

25 51 76

25 51 76

25 51 76

25 51 76

25 51 76

25 51 76

25 51 76

25 51 76

25 51 76

25 51 76

25 51 76

25 51 76

25 51 76

25 51 76

25 51 76

25 51 76

25 51 76

25 51 76

25 51 76

25 51 76

25 51 76

25 51 76

25 51 76

25 51 76

25 51 76

25 51 76

25 51 76

25 51 76

25 51 76

25 51 76

25 51 76

25 51 76

25 51 76

25 51 76

25 51 76

25 51 76

25 51 76

25 51 76

25 51 76

25 51 76

25 51 76

25 51 76

25 51 76

25 51 76

25 51 76

25 51 76

25 51 76

25 51 76

25 51 76

25 51 76

25 51 76

25 51 76

25 51 76

25 51 76

25 51 76

25 51 76

25 51 76

25 51 76

25 51 76

25 51 76

25 51 76

25 51 76

25 51 76

25 51 76

25 51 76

25 51 76

25 51 76

25 51 76

25 51 76

25 51 76

25 51 76

25 51 76

25 51 76

25 51 76

25 51 76

25 51 76

25 51 76

25 51 76

25 51 76

25 51 76

25 51 76

25 51 76

25 51 76

25 51 76

25 51 76

25 51 76

25 51 76

25 51 76

25 51 76

25 51 76

25 51 76

25 51 76

25 51 76

25 51 76

25 51 76

25 51 76

25 51 76

25 51 76

25 51 76

25 51 76

25 51 76

25 51 76

25 51 76

25 51 76

25 51 76

25 51 76

25 51 76

25 51 76

25 51 76

25 51 76

25 51 76

25 51 76

25 51 76

25 51 76

25 51 76

25 51 76

25 51 76

25 51 76

25 51 76

25 51 76

25 51 76

25 51 76

25 51 76

25 51 76

25 51 76

25 51 76

25 51 76

25 51 76

25 51 76

25 51 76

25 51 76

25 51 76

25 51 76

25 51 76

25 51 76

25 51 76

25 51 76

25 51 76

25 51 76

25 51 76

25 51 76

25 51 76

25 51 76

25 51 76

25 51 76

25 51 76

25 51 76

25 51 76

25 51 76

25 51 76

25 51 76

25 51 76

25 51 76

25 51 76

25 51 76

25 51 76

25 51 76

25 51 76

25 51 76

25 51 76

25 51 76

25 51 76

25 51 76

25 51 76

25 51 76

25 51 76

25 51 76

25 51 76

25 51 76

25 51 76

25 51 76

25 51 76

25 51 76

25 51 76

25 51 76

25 51 76

25 51 76

25 51 76

25 51 76

25 51 76

25 51 76

25 51 76

25 51 76

25 51 76

25 51 76

25 51 76

25 51 76

25 51 76

25 51 76

25 51 76

25 51 76

25 51 76

25 51 76

25 51 76

25 51 76

25 51 76

25 51 76

25 51 76

25 51 76

25 51 76

25 51 76

25 51 76

25 51 76

25 51 76

25 51 76

25 51 76

25 51 76

25 51 76

25 51 76

25 51 76

25 51 76

25 51 76

25 51 76

25 51 76

25 51 76

25 51 76

25 51 76

25 51 76

25 51 76

25 51 76

25 51 76

25 51 76

25 51 76

25 51 76

25 51 76

25 51 76

25 51 76

25 51 76

25 51 76

25 51 76

25 51 76

25 51 76

25 51 76

25 51 76

25 51 76

25 51 76

25 51 76

25 51 76

25 51 76

25 51 76

25 51 76

25 51 76

25 51 76

25 51 76

25 51 76

25 51 76

25 51 76

25 51 76

25 51 76

25 51 76

25 51 76

25 51 76

25 51 76

25 51 76

25 51 76

25 51 76

25 51 76

25 51 76

25 51 76

25 51 76

25 51 76

25 51 76

25 51 76

25 51 76

25 51 76

25 51 76

25 51 76

25 51 76

25 51 76

25 51 76

25 51 76

25 51 76

25 51 76

25 51 76

25 51 76

25 51 76

25 51 76

25 51 76

25 51 76

25 51 76

25 51 76

25 51 76

25 51 76

25 51 76

25 51 76

25 51 76

25 51 76

25 51 76

25 51 76

25 51 76

25 51 76

25 51 76

25 51 76

25 51 76

25 51 76

25 51 76

25 51 76

25 51 76

25 51 76

25 51 76

25 51 76

25 51 76

25 51 76

25 51 76

25 51 76

25 51 76

25 51 76

25 51 76

25 51 76

25 51 76

25 51 76

25 51 76

25 51 76

25 51 76

25 51 76

25 51 76

25 51 76

25 51 76

25 51 76

25 51 76

25 51 76

25 51 76

25 51 76

25 51 76

25 51 76

25 51 76

25 51 76

25 51 76

25 51 76

25 51 76

25 51 76

25 51 76

25 51 76

25 51 76

25 51 76

25 51 76

25 51 76

25 51 76

25 51 76

25 51 76

25 51 76

25 51 76

25 51 76

25 51 76

25 51 76

25 51 76

25 51 76

25 51 76

25 51 76

25 51 76

25 51 76

25 51 76

25 51 76

25 51 76

25 51 76

25 51 76

25 51 76

25 51 76

25 51 76

25 51 76

25 51 76

25 51 76

25 51 76

25 51 76

25 51 76

25 51 76

25 51 76

25 51 76

25 51 76

25 51 76

25 51 76

25 51 76

25 51 76

25 51 76

25 51 76

25 51 76

25 51 76

25 51 76

25 51 76

25 51 76

25 51 76

25 51 76

25 51 76

25 51 76

25 51 76

25 51 76

25 51 76

25 51 76

25 51 76

25 51 76

25 51 76

25 51 76

25 51 76

25 51 76

25 51 76

25 51 76

25 51 76

25 51 76

25 51 76

25 51 76

25 51 76

25 51 76

25 51 76

25 51 76

25 51 76

25 51 76

25 51 76

25 51 76

25 51 76

25 51 76

25 51 76

25 51 76

25 51 76

25 51 76

25 51 76

25 51 76

25 51 76

25 51 76

25 51 76

25 51 76

25 51 76

25 51 76

25 51 76

25 51 76

25 51 76

25 51 76

25 51 76

25 51 76

25 51 76

25 51 76

25 51 76

25 51 76

25 51 76

25 51 76

25 51 76

25 51 76

25 51 76

25 51 76

25 51 76

25 51 76

25 51 76

25 51 76

25 51 76

25 51 76

25 51 76

25 51 76

25 51 76

25 51 76

25 51 76

25 51 76

25 51 76

25 51 76

25 51 76

25 51 76

25 51 76

25 51 76

25 51 76

25 51 76

25 51 76

25 51 76

25 51 76

25 51 76

25 51 76

25 51 76

25 51 76

25 51 76

25 51 76

25 51 76

25 51 76

25 51 76

25 51 76

25 51 76

25 51 76

25 51 76

25 51 76

25 51 76

25 51 76

25 51 76

25 51 76

25 51 76

25 51 76

25 51 76

25 51 76

25 51 76

25 51 76

25 51 76

25 51 76

25 51 76

25 51 76

25 51 76

25 51 76

25 51 76

25 51 76

25 51 76

25 51 76

25 51 76

25 51 76

25 51 76

25 51 76

25 51 76

25 51 76

25 51 76

25 51 76

25 51 76

25 51 76

25 51 76

25 51 76

25 51 76

25 51 76

25 51 76

25 51 76

25 51 76

25 51 76

25 51 76

25 51 76

25 51 76

25 51 76

25 51 76

25 51 76

25 51 76

25 51 76

25 51 76

25 51 76

25 51 76

25 51 76

25 51 76

25 51 76

25 51 76

25 51 76

25 51 76

25 51 76

25 51 76

25 51 76

25 51 76

25 51 76

25 51 76

25 51 76

25 51 76

25 51 76

25 51 76

25 51 76

25 51 76

25 51 76

25 51 76

25 51 76

25 51 76

25 51 76

25 51 76

25 51 76

25 51 76

25 51 76

25 51 76

25 51 76

25 51 76

25 51 76

25 51 76

25 51 76

25 51 76

25 51 76

25 51 76

25 51 76

25 51 76

25 51 76

25 51 76

25 51 76

25 51 76

25 51 76

25 51 76

25 51 76

25 51 76

25 51 76

25 51 76

25 51 76

25 51 76

25 51 76

25 51 76

25 51 76

25 51 76

25 51 76

25 51 76

25 51 76

25 51 76

25 51 76

25 51 76

25 51 76

25 51 76

25 51 76

25 51 76

25 51 76

25 51 76

25 51 76

25 51 76

25 51 76

25 51 76

25 51 76

25 51 76

25 51 76

25 51 76

25 51 76

25 51 76

25 51 76

25 51 76

25 51 76

25 51 76

25 51 76

25 51 76

25 51 76

25 51 76

25 51 76

25 51 76

25 51 76

25 51 76

25 51 76

25 51 76

25 51 76

25 51 76

25 51 76

25 51 76

25 51 76

25 51 76

25 51 76

25 51 76

25 51 76

25 51 76

25 51 76

25 51 76

25 51 76

25 51 76

25 51 76

25 51 76

25 51 76

25 51 76

25 51 76

25 51 76

25 51 76

25 51 76

25 51 76

25 51 76

25 51 76

25 51 76

25 51 76

25 51 76

25 51 76

25 51 76

25 51 76

25 51 76

25 51 76

25 51 76

25 51 76

25 51 76

25 51 76

25 51 76

25 51 76

25 51 76

25 51 76

25 51 76

25 51 76

25 51 76

25 51 76

25 51 76

25 51 76

25 51 76

25 51 76

25 51 76

25 51 76

25 51 76

25 51 76

25 51 76

25 51 76

25 51 76

25 51 76

25 51 76

25 51 76

25 51 76

25 51 76

25 51 76

25 51 76

25 51 76

25 51 76

25 51 76

25 51 76

25 51 76

25 51 76

25 51 76

25 51 76

25 51 76

25 51 76

25 51 76

25 51 76

25 51 76

25 51 76

25 51 76

25 51 76

25 51 76

25 51 76

25 51 76

25 51 76

25 51 76

25 51 76

25 51 76

25 51 76

25 51 76

25 51 76

25 51 76

25 51 76

25 51 76

25 51 76

25 51 76

25 51 76

25 51 76

25 51 76

25 51 76

25 51 76

25 51 76

25 51 76

25 51 76

25 51 76

25 51 76

25 51 76

25 51 76

25 51 76

25 51 76

25 51 76

25 51 76

25 51 76

25 51 76

25 51 76

25 51 76

25 51 76

25 51 76

25 51 76

25 51 76

25 51 76

25 51 76

25 51 76

25 51 76

25 51 76

25 51 76

25 51 76

25 51 76

25 51 76

25 51 76

25 51 76

25 51 76

25 51 76

25 51 76

25 51 76

25 51 76

25 51 76

25 51 76

25 51 76

25 51 76

25 51 76

25 51 76

25 51 76

25 51 76

25 51 76

25 51 76

25 51 76

25 51 76

25 51 76

25 51 76

25 51 76

25 51 76

25 51 76

25 51 76

25 51 76

25 51 76

25 51 76

25 51 76

25 51 76

25 51 76

25 51 76

25 51 76

25 51 76

25 51 76

25 51 76

25 51 76

25 51 76

25 51 76

25 51 76

25 51 76

25 51 76

25 51 76

25 51 76

25 51 76

25 51 76

25 51 76

25 51 76

25 51 76

25 51 76

25 51 76

25 51 76

25 51 76

25 51 76

25 51 76

25 51 76

25 51 76

25 51 76

25 51 76

25 51 76

25 51 76

25 51 76

25 51 76

25 51 76

25 51 76

25 51 76

25 51 76

25 51 76

25 51 76

25 51 76

25 51 76

25 51 76

25 51 76

25 51 76

25 51 76

25 51 76

25 51 76

25 51 76

25 51 76

25 51 76

25 51 76

25 51 76

25 51 76

25 51 76

25 51 76

25 51 76

25 51 76

25 51 76

25 51 76

25 51 76

25 51 76

25 51 76

25 51 76

25 51 76

25 51 76

25 51 76

25 51 76

25 51 76

25 51 76

25 51 76

25 51 76

25 51 76

25 51 76

25 51 76

25 51 76

25 51 76

25 51 76

25 51 76

25 51 76

25 51 76

25 51 76

25 51 76

25 51 76

25 51 76

25 51 76

25 51 76

25 51 76

25 51 76

25 51 76

25 51 76

25 51 76

25 51 76

25 51 76

25 51 76

25 51 76

25 51 76

25 51 76

25 51 76

25 51 76

25 51 76

25 51 76

25 51 76

25 51 76

25 51 76

25 51 76

25 51 76

25 51 76

25 51 76

25 51 76

25 51 76

25 51 76

25 51 76

25 51 76

25 51 76

25 51 76

25 51 76

25 51 76

25 51 76

25 51 76

25 51 76

25 51 76

25 51 76

25 51 76

25 51 76

25 51 76

25 51 76

25 51 76

25 51 76

25 51 76

25 51 76

25 51 76

25 51 76

25 51 76

25 51 76

25 51 76

25 51 76

25 51 76

25 51 76

25 51 76

25 51 76

25 51 76

25 51 76

25 51 76

25 51 76

25 51 76

25 51 76

25 51 76

25 51 76

25 51 76

25 51 76

25 51 76

25 51 76

25 51 76

25 51 76

25 51 76

25 51 76

25 51 76

25 51 76

25 51 76

25 51 76

25 51 76

25 51 76

25 51 76

25 51 76

25 51 76

25 51 76

25 51 76

25 51 76

25 51 76

25 51 76

25 51 76

25 51 76

25 51 76

25 51 76

25 51 76

25 51 76

25 51 76

25 51 76

25 51 76

25 51 76

25 51 76

25 51 76

25 51 76

25 51 76

25 51 76

25 51 76

25 51 76

25 51 76

25 51 76

25 51 76

25 51 76

25 51 76

25 51 76

25 51 76

25 51 76

25 51 76

25 51 76

25 51 76

25 51 76

25 51 76

25 51 76

25 51 76

25 51 76

25 51 76

25 51 76

25 51 76

25 51 76

25 51 76

25 51 76

25 51 76

25 51 76

25 51 76

25 51 76

25 51 76

25 51 76

25 51 76

25 51 76

25 51 76

25 51 76

25 51 76

25 51 76

25 51 76

25 51 76

25 51 76

25 51 76

25 51 76

25 51 76

25 51 76

25 51 76

25 51 76

25 51 76

25 51 76

25 51 76

25 51 76

25 51 76

25 51 76

25 51 76

25 51 76

25 51 76

25 51 76

25 51 76

25 51 76

25 51 76

25 51 76

25 51 76

25 51 76

25 51 76

25 51 76

25 51 76

25 51 76

25 51 76

25 51 76

25 51 76

25 51 76

25 51 76

25 51 76

25 51 76

25 51 76

25 51 76

25 51 76

25 51 76

25 51 76

25 51 76

25 51 76

25 51 76

25 51 76

25 51 76

25 51 76

25 51 76

25 51 76

25 51 76

25 51 76

25 51 76

25 51 76

25 51 76

25 51 76

25 51 76

25 51 76

25 51 76

25 51 76

25 51 76

25 51 76

25 51 76

25 51 76

25 51 76

25 51 76

25 51 76

25 51 76

25 51 76

25 51 76

25 51 76

25 51 76

25 51 76

25 51 76

25 51 76

25 51 76

25 51 76

25 51 76

25 51 76

25 51 76

25 51 76

25 51 76

25 51 76

25 51 76

25 51 76

25 51 76

25 51 76

25 51 76

25 51 76

25 51 76

25 51 76

25 51 76

25 51 76

25 51 76

25 51 76

25 51 76

25 51 76

25 51 76

25 51 76

25 51 76

25 51 76

25 51 76

25 51 76

25 51 76

25 51 76

25 51 76

25 51 76

25 51 76

25 51 76

25 51 76

25 51 76

25 51 76

25 51 76

25 51 76

25 51 76

25 51 76

25 51 76

25 51 76

25 51 76

25 51 76

25 51 76

25 51 76

25 51 76

25 51 76

25 51 76

25 51 76

25 51 76

25 51 76

25 51 76

25 51 76

25 51 76

25 51 76

25 51 76

25 51 76

25 51 76

25 51 76

25 51 76

25 51 76

25 51 76

25 51 76

25 51 76

25 51 76

25 51 76

25 51 76

25 51 76

25 51 76

25 51 76

25 51 76

25 51 76

25 51 76

25 51 76

25 51 76

25 51 76

25 51 76

25 51 76

25 51 76

25 51 76

25 51 76

25 51 76

25 51 76

25 51 76

25 51 76

25 51 76

25 51 76

25 51 76

25 51 76

25 51 76

25 51 76

25 51 76

25 51 76

25 51 76

25 51 76

25 51 76

25 51 76

25 51 76

25 51 76

25 51 76

25 51 76

25 51 76

25 51 76

25 51 76

25 51 76

25 51 76

25 51 76

25 51 76

25 51 76

25 51 76

25 51 76

25 51 76

25 51 76

25 51 76

25 51 76

25 51 76

25 51 76

25 51 76

25 51 76

25 51 76

25 51 76

25 51 76

25 51 76

25 51 76

25 51 76

25 51 76

25 51 76

25 51 76

25 51 76

25 51 76

25 51 76

25 51 76

25 51 76

25 51 76

25 51 76

25 51 76

25 51 76

25 51 76

25 51 76

25 51 76

25 51 76

25 51 76

25 51 76

25 51 76

25 51 76

25 51 76

25 51 76

25 51 76

25 51 76

25 51 76

25 51 76

25 51 76

25 51 76

25 51 76

25 51 76

25 51 76

25 51 76

25 51 76

25 51 76

25 51 76

25 51 76

25 51 76

25 51 76

25 51 76

25 51 76

25 51 76

25 51 76

25 51 76

25 51 76

25 51 76

25 51 76

25 51 76

25 51 76

25 51 76

25 51 76

25 51 76

25 51 76

25 51 76

25 51 76

25 51 76

25 51 76

25 51 76

25 51 76

25 51 76

25 51 76

25 51 76

25 51 76

25 51 76

25 51 76

25 51 76

25 51 76

25 51 76

25 51 76

25 51 76

25 51 76

25 51 76

25 51 76

25 51 76

25 51 76

25 51 76

25 51 76

25 51 76

25 51 76

25 51 76

25 51 76

25 51 76

25 51 76

25 51 76

25 51 76

25 51 76

25 51 76

25 51 76

25 51 76

25 51 76

25 51 76

25 51 76

25 51 76

25 51 76

25 51 76

25 51 76

25 51 76

25 51 76

25 51 76

25 51 76

25 51 76

25 51 76

25 51 76

25 51 76

25 51 76

25 51 76

25 51 76

25 51 76

25 51 76

25 51 76

25 51 76

25 51 76

25 51 76

25 51 76

25 51 76

25 51 76

25 51 76

25 51 76

25 51 76

25 51 76

25 51 76

25 51 76

25 51 76

25 51 76

25 51 76

25 51 76

25 51 76

25 51 76

25 51 76

25 51 76

25 51 76

25 51 76

25 51 76

25 51 76

25 51 76

25 51 76

25 51 76

25 51 76

25 51 76

25 51 76

25 51 76

25 51 76

25 51 76

25 51 76

25 51 76

25 51 76

25 51 76

25 51 76

25 51 76

25 51 76

25 51 76

25 51 76

25 51 76

25 51 76

25 51 76

25 51 76

25 51 76

25 51 76

25 51 76

25 51 76

25 51 76

25 51 76

25 51 76

25 51 76

25 51 76

25 51 76

25 51 76

25 51 76

25 51 76

25 51 76

25 51 76

25 51 76

25 51 76

25 51 76

25 51 76

25 51 76

25 51 76

25 51 76

25 51 76

25 51 76

25 51 76

25 51 76

25 51 76

25 51 76

25 51 76

25 51 76

25 51 76

25 51 76

25 51 76

25 51 76

25 51 76

25 51 76

25 51 76

25 51 76

25 51 76

25 51 76

25 51 76

25 51 76

25 51 76

25 51 76

25 51 76

25 51 76

25 51 76

25 51 76

25 51 76

25 51 76

25 51 76

25 51 76

25 51 76

25 51 76

25 51 76

25 51 76

25 51 76

25 51 76

25 51 76

25 51 76

25 51 76

25 51 76

25 51 76

25 51 76

25 51 76

25 51 76

25 51 76

25 51 76

25 51 76

25 51 76

25 51 76

25 51 76

25 51 76

25 51 76

25 51 76

25 51 76

25 51 76

25 51 76

25 51 76

25 51 76

25 51 76

25 51 76

25 51 76

25 51 76

25 51 76

25 51 76

25 51 76

25 51 76

25 51 76

25 51 76

25 51 76

25 51 76

25 51 76

25 51 76

25 51 76

25 51 76

25 51 76

25 51 76

25 51 76

25 51 76

25 51 76

25 51 76

25 51 76

25 51 76

25 51 76

25 51 76

25 51 76

25 51 76

25 51 76

25 51 76

25 51 76

25 51 76

25 51 76

25 51 76

25 51 76

25 51 76

25 51 76

25 51 76

25 51 76

25 51 76

25 51 76

25 51 76

25 51 76

25 51 76

25 51 76

25 51 76

25 51 76

25 51 76

25 51 76

25 51 76

25 51 76

25 51 76

25 51 76

25 51 76

25 51 76

25 51 76

25 51 76

25 51 76

25 51 76

25 51 76

25 51 76

25 51 76

25 51 76

25 51 76

25 51 76

25 51 76

25 51 76

25 51 76

25 51 76

25 51 76

25 51 76

25 51 76

25 51 76

25 51 76

25 51 76

25 51 76

25 51 76

25 51 76

25 51 76

25 51 76

25 51 76

25 51 76

25 51 76

25 51 76

25 51 76

25 51 76

25 51 76

25 51 76

25 51 76

25 51 76

25 51 76

25 51 76

25 51 76

25 51 76

25 51 76

25 51 76

25 51 76

25 51 76

25 51 76

25 51 76

25 51 76

25 51 76

25 51 76

25 51 76

25 51 76

25 51 76

25 51 76

25 51 76

25 51 76

25 51 76

25 51 76

25 51 76

25 51 76

25 51 76

25 51 76

25 51 76

25 51 76

25 51 76

25 51 76

25 51 76

25 51 76

25 51 76

25 51 76

25 51 76

25 51 76

25 51 76

25 51 76

25 51 76

25 51 76

25 51 76

25 51 76

25 51 76

25 51 76

25 51 76

25 51 76

25 51 76

25 51 76

25 51 76

25 51 76

25 51 76

25 51 76

25 51 76

25 51 76

25 51 76

25 51 76

25 51 76

25 51 76

25 51 76

25 51 76

25 51 76

25 51 76

25 51 76

25 51 76

25 51 76

25 51 76

25 51 76

25 51 76

25 51 76

25 51 76

25 51 76

25 51 76

25 51 76

25 51 76

25 51 76

25 51 76

25 51 76

25 51 76

25 51 76

25 51 76

25 51 76

25 51 76

25 51 76

25 51 76

25 51 76

25 51 76

25 51 76

25 51 76

25 51 76

25 51 76

25 51 76

25 51 76

25 51 76

25 51 76

25 51 76

25 51 76

25 51 76

25 51 76

25 51 76

25 51 76

25 51 76

25 51 76

25 51 76

25 51 76

25 51 76

25 51 76

25 51 76

25 51 76

25 51 76

25 51 76

25 51 76

25 51 76

25 51 76

25 51 76

25 51 76

25 51 76

25 51 76

25 51 76

25 51 76

25 51 76

25 51 76

25 51 76

25 51 76

25 51 76

25 51 76

25 51 76

25 51 76

25 51 76

25 51 76

25 51 76

25 51 76

25 51 76

25 51 76

25 51 76

25 51 76

25 51 76

25 51 76

25 51 76

25 51 76

25 51 76

25 51 76

25 51 76

25 51 76

25 51 76

25 51 76

25 51 76

25 51 76

25 51 76

25 51 76

25 51 76

25 51 76

25 51 76

25 51 76

25 51 76

25 51 76

25 51 76

25 51 76

25 51 76

25 51 76

25 51 76

25 51 76

25 51 76

25 51 76

25 51 76

25 51 76

25 51 76

25 51 76

25 51 76

25 51 76

25 51 76

25 51 76

25 51 76

25 51 76

25 51 76

25 51 76

25 51 76

25 51 76

25 51 76

25 51 76

25 51 76

25 51 76

25 51 76

25 51 76

25 51 76

25 51 76

25 51 76

25 51 76

25 51 76

25 51 76

25 51 76

25 51 76

25 51 76

25 51 76

25 51 76

25 51 76

25 51 76

25 51 76

25 51 76

25 51 76

25 51 76

25 51 76

25 51 76

25 51 76

25 51 76

25 51 76

25 51 76

25 51 76

25 51 76

25 51 76

25 51 76

25 51 76

25 51 76

25 51 76

25 51 76

25 51 76

25 51 76

25 51 76

25 51 76

25 51 76

25 51 76

25 51 76

25 51 76

25 51 76

25 51 76

25 51 76

25 51 76

25 51 76

25 51 76

25 51 76

25 51 76

25 51 76

25 51 76

25 51 76

25 51 76

25 51 76

25 51 76

25 51 76

25 51 76

25 51 76

25 51 76

25 51 76

25 51 76

25 51 76

25 51 76

25 51 76

25 51 76

25 51 76

25 51 76

25 51 76

25 51 76

25 51 76

25 51 76

25 51 76

25 51 76

25 51 76

25 51 76

25 51 76

25 51 76

25 51 76

25 51 76

25 51 76

25 51 76

25 51 76

25 51 76

25 51 76

25 51 76

25 51 76

25 51 76

25 51 76

25 51 76

25 51 76

25 51 76

25 51 76

25 51 76

25 51 76

25 51 76

25 51 76

25 51 76

25 51 76

25 51 76

25 51 76

25 51 76

25 51 76

25 51 76

25 51 76

25 51 76

25 51 76

25 51 76

25 51 76

25 51 76

25 51 76

25 51 76

25 51 76

25 51 76

25 51 76

25 51 76

25 51 76

25 51 76

25 51 76

25 51 76

25 51 76

25 51 76

25 51 76

25 51 76

25 51 76

25 51 76

25 51 76

25 51 76

25 51 76

25 51 76

25 51 76

25 51 76

25 51 76

25 51 76

25 51 76

25 51 76

25 51 76

25 51 76

25 51 76

25 51 76

25 51 76

25 51 76

25 51 76

25 51 76

25 51 76

25 51 76

25 51 76

25 51 76

25 51 76

25 51 76

25 51 76

25 51 76

25 51 76

25 51 76

25 51 76

25 51 76

25 51 76

25 51 76

25 51 76

25 51 76

25 51 76

25 51 76

25 51 76

25 51 76

25 51 76

25 51 76

25 51 76

25 51 76

25 51 76

25 51 76

25 51 76

25 51 76

25 51 76

25 51 76

25 51 76

25 51 76

25 51 76

25 51 76

25 51 76

25 51 76

25 51 76

25 51 76

25 51 76

25 51 76

25 51 76

25 51 76

25 51 76

25 51 76

25 51 76

25 51 76

25 51 76

25 51 76

25 51 76

25 51 76

25 51 76

25 51 76

25 51 76

25 51 76

25 51 76

25 51 76

25 51 76

25 51 76

25 51 76

25 51 76

25 51 76

25 51 76

25 51 76

25 51 76

25 51 76

25 51 76

25 51 76

25 51 76

25 51 76

25 51 76

25 51 76

25 51 76

25 51 76

25 51 76

25 51 76

25 51 76

25 51 76

25 51 76

25 51 76

25 51 76

25 51 76

25 51 76

25 51 76

25 51 76

25 51 76

25 51 76

25 51 76

25 51 76

25 51 76

25 51 76

25 51 76

25 51 76

25 51 76

25 51 76

25 51 76

25 51 76

25 51 76

25 51 76

25 51 76

25 51 76

25 51 76

25 51 76

25 51 76

25 51 76

25 51 76

25 51 76

25 51 76

25 51 76

25 51 76

25 51 76

25 51 76

25 51 76

25 51 76

25 51 76

25 51 76

25 51 76

25 51 76

25 51 76

25 51 76

25 51 76

25 51 76

25 51 76

25 51 76

25 51 76

25 51 76

25 51 76

25 51 76

25 51 76

25 51 76

25 51 76

25 51 76

25 51 76

25 51 76

25 51 76

25 51 76

25 51 76

25 51 76

25 51 76

25 51 76

25 51 76

25 51 76

25 51 76

25 51 76

25 51 76

25 51 76

25 51 76

25 51 76

25 51 76

25 51 76

25 51 76

25 51 76

25 51 76

25 51 76

25 51 76

25 51 76

25 51 76

25 51 76

25 51 76

25 51 76

25 51 76

25 51 76

25 51 76

25 51 76

25 51 76

25 51 76

25 51 76

25 51 76

25 51 76

25 51 76

25 51 76

25 51 76

25 51 76

25 51 76

25 51 76

25 51 76

25 51 76

25 51 76

25 51 76

25 51 76

25 51 76

25 51 76

25 51 76

25 51 76

25 51 76

25 51 76

25 51 76

25 51 76

25 51 76

25 51 76

25 51 76

25 51 76

25 51 76

25 51 76

25 51 76

25 51 76

25 51 76

25 51 76

25 51 76

25 51 76

25 51 76

25 51 76

25 51 76

25 51 76

25 51 76

25 51 76

25 51 76

25 51 76

25 51 76

25 51 76

25 51 76

25 51 76

25 51 76

25 51 76

25 51 76

25 51 76

25 51 76

25 51 76

25 51 76

25 51 76

25 51 76

25 51 76

25 51 76

25 51 76

25 51 76

25 51 76

25 51 76

25 51 76

25 51 76

25 51 76

25 51 76

25 51 76

25 51 76

25 51 76

25 51 76

25 51 76

25 51 76

25 51 76

25 51 76

25 51 76

25 51 76

25 51 76

25 51 76

25 51 76

25 51 76

25 51 76

25 51 76

25 51 76

25 51 76

25 51 76

25 51 76

25 51 76

25 51 76

25 51 76

25 51 76

25 51 76

25 51 76

25 51 76

25 51 76

25 51 76

25 51 76

25 51 76

25 51 76

25 51 76

25 51 76

25 51 76

25 51 76

25 51 76

25 51 76

25 51 76

25 51 76

25 51 76

25 51 76

25 51 76

25 51 76

25 51 76

25 51 76

25 51 76

25 51 76

25 51 76

25 51 76

25 51 76

25 51 76

25 51 76

25 51 76

25 51 76

25 51 76

25 51 76

25 51 76

25 51 76

25 51 76

25 51 76

25 51 76

25 51 76

25 51 76

25 51 76

25 51 76

25 51 76

25 51 76

25 51 76

25 51 76

25 51 76

25 51 76

25 51 76

25 51 76

25 51 76

25 51 76

25 51 76

25 51 76

25 51 76

25 51 76

25 51 76

25 51 76

25 51 76

25 51 76

25 51 76

25 51 76

25 51 76

25 51 76

25 51 76

25 51 76

25 51 76

25 51 76

25 51 76

25 51 76

25 51 76

25 51 76

25 51 76

25 51 76

25 51 76

25 51 76

25 51 76

25 51 76

25 51 76

25 51 76

25 51 76

25 51 76

25 51 76

25 51 76

25 51 76

25 51 76

25 51 76

25 51 76

25 51 76

25 51 76

25 51 76

25 51 76

25 51 76

25 51 76

25 51 76

25 51 76

25 51 76

25 51 76

25 51 76

25 51 76

25 51 76

25 51 76

25 51 76

25 51 76

25 51 76

25 51 76

25 51 76

25 51 76

25 51 76

25 51 76

25 51 76

25 51 76

25 51 76

25 51 76

25 51 76

25 51 76

25 51 76

25 51 76

25 51 76

25 51 76

25 51 76

25 51 76

25 51 76

25 51 76

25 51 76

25 51 76

25 51 76

25 51 76

25 51 76

25 51 76

25 51 76

25 51 76

25 51 76

25 51 76

25 51 76

25 51 76

25 51 76

25 51 76

25 51 76

25 51 76

25 51 76

25 51 76

25 51 76

25 51 76

25 51 76

25 51 76

25 51 76

25 51 76

25 51 76

25 51 76

25 51 76

25 51 76

25 51 76

25 51 76

25 51 76

25 51 76

25 51 76

25 51 76

25 51 76

25 51 76

25 51 76

25 51 76

25 51 76

25 51 76

25 51 76

25 51 76

25 51 76

25 51 76

25 51 76

25 51 76

25 51 76

25 51 76

25 51 76

25 51 76

25 51 76

25 51 76

25 51 76

25 51 76

25 51 76

25 51 76

25 51 76

25 51 76

25 51 76

25 51 76

25 51 76

25 51 76

25 51 76

25 51 76

25 51 76

25 51 76

25 51 76

25 51 76

25 51 76

25 51 76

25 51 76

25 51 76

25 51 76

25 51 76

25 51 76

25 51 76

25 51 76

25 51 76

25 51 76

25 51 76

25 51 76

25 51 76

25 51 76

25 51 76

25 51 76

25 51 76

25 51 76

25 51 76

25 51 76

25 51 76

25 51 76

25 51 76

25 51 76

25 51 76

25 51 76

25 51 76

25 51 76

25 51 76

25 51 76

25 51 76

25 51 76

25 51 76

25 51 76

25 51 76

25 51 76

25 51 76

25 51 76

25 51 76

25 51 76

25 51 76

25 51 76

25 51 76

25 51 76

25 51 76

25 51 76

25 51 76

25 51 76

25 51 76

25 51 76

25 51 76

25 51 76

25 51 76

25 51 76

25 51 76

25 51 76

25 51 76

25 51 76

25 51 76

25 51 76

25 51 76

25 51 76

25 51 76

25 51 76

25 51 76

25 51 76

25 51 76

25 51 76

25 51 76

25 51 76

25 51 76

25 51 76

25 51 76

25 51 76

25 51 76

25 51 76

25 51 76

25 51 76

25 51 76

25 51 76

25 51 76

25 51 76

25 51 76

25 51 76

25 51 76

25 51 76

25 51 76

25 51 76

25 51 76

25 51 76

25 51 76

25 51 76

25 51 76

25 51 76

25 51 76

25 51 76

25 51 76

25 51 76

25 51 76

25 51 76

25 51 76

25 51 76

25 51 76

25 51 76

25 51 76

25 51 76

25 51 76

25 51 76

25 51 76

25 51 76

25 51 76

25 51 76

25 51 76

25 51 76

25 51 76

25 51 76

25 51 76

25 51 76

25 51 76

25 51 76

25 51 76

25 51 76

25 51 76

25 51 76

25 51 76

25 51 76

25 51 76

25 51 76

25 51 76

25 51 76

25 51 76

25 51 76

25 51 76

25 51 76

25 51 76

25 51 76

25 51 76

25 51 76

25 51 76

25 51 76

25 51 76

25 51 76

25 51 76

25 51 76

25 51 76

25 51 76

25 51 76

25 51 76

25 51 76

25 51 76

25 51 76

25 51 76

25 51 76

25 51 76

25 51 76

25 51 76

25 51 76

25 51 76

25 51 76

25 51 76

25 51 76

25 51 76

25 51 76

25 51 76

25 51 76

25 51 76

25 51 76

25 51 76

25 51 76

25 51 76

25 51 76

25 51 76

25 51 76

25 51 76

25 51 76

25 51 76

25 51 76

25 51 76

25 51 76

25 51 76

25 51 76

25 51 76

25 51 76

25 51 76

25 51 76

25 51 76

25 51 76

25 51 76

25 51 76

25 51 76

25 51 76

25 51 76

25 51 76

25 51 76

25 51 76

25 51 76

25 51 76

25 51 76

25 51 76

25 51 76

25 51 76

25 51 76

25 51 76

25 51 76

25 51 76

25 51 76

25 51 76

25 51 76

25 51 76

25 51 76

25 51 76

25 51 76

25 51 76

25 51 76

25 51 76

25 51 76

25 51 76

25 51 76

25 51 76

25 51 76

25 51 76

25 51 76

25 51 76

25 51 76

25 51 76

25 51 76

25 51 76

25 51 76

25 51 76

25 51 76

25 51 76

25 51 76

25 51 76

25 51 76

25 51 76

25 51 76

25 51 76

25 51 76

25 51 76

25 51 76

25 51 76

25 51 76

25 51 76

25 51 76

25 51 76

25 51 76

25 51 76

25 51 76

25 51 76

25 51 76

25 51 76

25 51 76

25 51 76

25 51 76

25 51 76

25 51 76

25 51 76

25 51 76

25 51 76

25 51 76

25 51 76

25 51 76

25 51 76

25 51 76

25 51 76

25 51 76

25 51 76

25 51 76

25 51 76

25 51 76

25 51 76

25 51 76

25 51 76

25 51 76

25 51 76

25 51 76

25 51 76

25 51 76

25 51 76

25 51 76

25 51 76

25 51 76

25 51 76

25 51 76

25 51 76

25 51 76

25 51 76

25 51 76

25 51 76

25 51 76

25 51 76

25 51 76

25 51 76

25 51 76

25 51 76

25 51 76

25 51 76

25 51 76

25 51 76

25 51 76

25 51 76

25 51 76

25 51 76

25 51 76

25 51 76

25 51 76

25 51 76

25 51 76

25 51 76

25 51 76

25 51 76

25 51 76

25 51 76

25 51 76

25 51 76

25 51 76

25 51 76

25 51 76

25 51 76

25 51 76

25 51 76

25 51 76

25 51 76

25 51 76

25 51 76

25 51 76

25 51 76

25 51 76

25 51 76

25 51 76

25 51 76

25 51 76

25 51 76

25 51 76

25 51 76

25 51 76

25 51 76

25 51 76

25 51 76

25 51 76

25 51 76

25 51 76

25 51 76

25 51 76

25 51 76

25 51 76

25 51 76

25 51 76

25 51 76

25 51 76

25 51 76

25 51 76

25 51 76

25 51 76

25 51 76

25 51 76

25 51 76

25 51 76

25 51 76

25 51 76

25 51 76

25 51 76

25 51 76

25 51 76

25 51 76

25 51 76

25 51 76

25 51 76

25 51 76

25 51 76

25 51 76

25 51 76

25 51 76

25 51 76

25 51 76

25 51 76

25 51 76

25 51 76

25 51 76

25 51 76

25 51 76

25 51 76

25 51 76

25 51 76

25 51 76

25 51 76

25 51 76

25 51 76

25 51 76

25 51 76

25 51 76

25 51 76

25 51 76

25 51 76

25 51 76

25 51 76

25 51 76

25 51 76

25 51 76

25 51 76

25 51 76

25 51 76

25 51 76

25 51 76

25 51 76

25 51 76

25 51 76

25 51 76

25 51 76

25 51 76

25 51 76

25 51 76

25 51 76

25 51 76

25 51 76

25 51 76

25 51 76

25 51 76

25 51 76

25 51 76

25 51 76

25 51 76

25 51 76

25 51 76

25 51 76

25 51 76

25 51 76

25 51 76

25 51 76

25 51 76

25 51 76

25 51 76

25 51 76

25 51 76

25 51 76

25 51 76

25 51 76

25 51 76

25 51 76

25 51 76

25 51 76

25 51 76

25 51 76

25 51 76

25 51 76

25 51 76

25 51 76

25 51 76

25 51 76

25 51 76

25 51 76

25 51 76

25 51 76

25 51 76

25 51 76

25 51 76

25 51 76

25 51 76

25 51 76

25 51 76

25 51 76

25 51 76

25 51 76

25 51 76

25 51 76

25 51 76

25 51 76

25 51 76

25 51 76

25 51 76

25 51 76

25 51 76

25 51 76

25 51 76

25 51 76

25 51 76

25 51 76

25 51 76

25 51 76

25 51 76

25 51 76

25 51 76

25 51 76

25 51 76

25 51 76

25 51 76

25 51 76

25 51 76

25 51 76

25 51 76

25 51 76

25 51 76

25 51 76

25 51 76

25 51 76

25 51 76

25 51 76

25 51 76

25 51 76

25 51 76

25 51 76

25 51 76

25 51 76

25 51 76

25 51 76

25 51 76

25 51 76

25 51 76

25 51 76

25 51 76

25 51 76

25 51 76

25 51 76

25 51 76

25 51 76

25 51 76

25 51 76

25 51 76

25 51 76

25 51 76

25 51 76

25 51 76

25 51 76

25 51 76

25 51 76

25 51 76

25 51 76

25 51 76

25 51 76

25 51 76

25 51 76

25 51 76

25 51 76

25 51 76

25 51 76

25 51 76

25 51 76

25 51 76

25 51 76

25 51 76

25 51 76

25 51 76

25 51 76

25 51 76

25 51 76

25 51 76

25 51 76

25 51 76

25 51 76

25 51 76

25 51 76

25 51 76

25 51 76

25 51 76

25 51 76

25 51 76

25 51 76

25 51 76

25 51 76

25 51 76

25 51 76

25 51 76

25 51 76

25 51 76

25 51 76

25 51 76

25 51 76

25 51 76

25 51 76

25 51 76

25 51 76

25 51 76

25 51 76

25 51 76

25 51 76

25 51 76

25 51 76

25 51 76

25 51 76

25 51 76

25 51 76

25 51 76

25 51 76

25 51 76

25 51 76

25 51 76

25 51 76

25 51 76

25 51 76

25 51 76

25 51 76

25 51 76

25 51 76

25 51 76

25 51 76

25 51 76

25 51 76

25 51 76

25 51 76

25 51 76

25 51 76

25 51 76

25 51 76

25 51 76

25 51 76

25 51 76

25 51 76

25 51 76

25 51 76

25 51 76

25 51 76

25 51 76

25 51 76

25 51 76

25 51 76

25 51 76

25 51 76

25 51 76

25 51 76

25 51 76

25 51 76

25 51 76

25 51 76

25 51 76

25 51 76

25 51 76

25 51 76

25 51 76

25 51 76

25 51 76

25 51 76

25 51 76

25 51 76

25 51 76

25 51 76

25 51 76

25 51 76

25 51 76

25 51 76

25 51 76

25 51 76

25 51 76

25 51 76

25 51 76

25 51 76

25 51 76

25 51 76

25 51 76

25 51 76

25 51 76

25 51 76

25 51 76

25 51 76

25 51 76

25 51 76

25 51 76

25 51 76

25 51 76

25 51 76

25 51 76

25 51 76

25 51 76

25 51 76

25 51 76

25 51 76

25 51 76

25 51 76

25 51 76

25 51 76

25 51 76

25 51 76

25 51 76

25 51 76

25 51 76

25 51 76

25 51 76

25 51 76

25 51 76

25 51 76

25 51 76

25 51 76

25 51 76

25 51 76

25 51 76

25 51 76

25 51 76

25 51 76

25 51 76

25 51 76

25 51 76

25 51 76

25 51 76

25 51 76

25 51 76

25 51 76

25 51 76

25 51 76

25 51 76

25 51 76

25 51 76

25 51 76

25 51 76

25 51 76

25 51 76

25 51 76

25 51 76

25 51 76

25 51 76

25 51 76

25 51 76

25 51 76

25 51 76

25 51 76

25 51 76

25 51 76

25 51 76

25 51 76

25 51 76

25 51 76

25 51 76

25 51 76

25 51 76

25 51 76

25 51 76

25 51 76

25 51 76

25 51 76

25 51 76

25 51 76

25 51 76

25 51 76

25 51 76

25 51 76

25 51 76

25 51 76

25 51 76

25 51 76

25 51 76

25 51 76

25 51 76

25 51 76

25 51 76

25 51 76

25 51 76

25 51 76

25 51 76

25 51 76

25 51 76

25 51 76

25 51 76

25 51 76

25 51 76

25 51 76

25 51 76

25 51 76

25 51 76

25 51 76

25 51 76

25 51 76

25 51 76

25 51 76

25 51 76

25 51 76

25 51 76

25 51 76

25 51 76

25 51 76

25 51 76

25 51 76

25 51 76

25 51 76

25 51 76

25 51 76

25 51 76

25 51 76

25 51 76

25 51 76

25 51 76

25 51 76

25 51 76

25 51 76

25 51 76

25 51 76

25 51 76

25 51 76

25 51 76

25 51 76

25 51 76

25 51 76

25 51 76

25 51 76

25 51 76

25 51 76

25 51 76

25 51 76

25 51 76

25 51 76

25 51 76

25 51 76

25 51 76

25 51 76

25 51 76

25 51 76

25 51 76

25 51 76

25 51 76

25 51 76

25 51 76

25 51 76

25 51 76

25 51 76

25 51 76

25 51 76

25 51 76

25 51 76

25 51 76

25 51 76

25 51 76

25 51 76

25 51 76

25 51 76

25 51 76

25 51 76

25 51 76

25 51 76

25 51 76

25 51 76

25 51 76

25 51 76

25 51 76

25 51 76

25 51 76

25 51 76

25 51 76

25 51 76

25 51 76

25 51 76

25 51 76

25 51 76

25 51 76

25 51 76

25 51 76

25 51 76

25 51 76

25 51 76

25 51 76

25 51 76

25 51 76

25 51 76

25 51 76

25 51 76

25 51 76

25 51 76

25 51 76

25 51 76

25 51 76

25 51 76

25 51 76

25 51 76

25 51 76

25 51 76

25 51 76

25 51 76

25 51 76

25 51 76

25 51 76

25 51 76

25 51 76

25 51 76

25 51 76

25 51 76

25 51 76

25 51 76

25 51 76

25 51 76

25 51 76

25 51 76

25 51 76

25 51 76

25 51 76

25 51 76

25 51 76

25 51 76

25 51 76

25 51 76

25 51 76

25 51 76

25 51 76

25 51 76

25 51 76

25 51 76

25 51 76

25 51 76

25 51 76

25 51 76

25 51 76

25 51 76

25 51 76

25 51 76

25 51 76

25 51 76

25 51 76

25 51 76

25 51 76

25 51 76

25 51 76

25 51 76

25 51 76

25 51 76

25 51 76

25 51 76

25 51 76

25 51 76

25 51 76

25 51 76

25 51 76

25 51 76

25 51 76

25 51 76

25 51 76

25 51 76

25 51 76

25 51 76

25 51 76

25 51 76

25 51 76

25 51 76

25 51 76

25 51 76

25 51 76

25 51 76

25 51 76

25 51 76

25 51 76

25 51 76

25 51 76

25 51 76

25 51 76

25 51 76

25 51 76

25 51 76

25 51 76

25 51 76

25 51 76

25 51 76

25 51 76

25 51 76

25 51 76

25 51 76

25 51 76

25 51 76

25 51 76

25 51 76

25 51 76

25 51 76

25 51 76

25 51 76

25 51 76

25 51 76

25 51 76

25 51 76

25 51 76

25 51 76

25 51 76

25 51 76

25 51 76

25 51 76

25 51 76

25 51 76

25 51 76

25 51 76

25 51 76

25 51 76

25 51 76

25 51 76

25 51 76

25 51 76

25 51 76

25 51 76

25 51 76

25 51 76

25 51 76

25 51 76

25 51 76

25 51 76

25 51 76

25 51 76

25 51 76

25 51 76

25 51 76

25 51 76

25 51 76

25 51 76

25 51 76

25 51 76

25 51 76

25 51 76

25 51 76

25 51 76

25 51 76

25 51 76

25 51 76

25 51 76

25 51 76

25 51 76

25 51 76

25 51 76

25 51 76

25 51 76

25 51 76

25 51 76

25 51 76

25 51 76

25 51 76

25 51 76

25 51 76

25 51 76

25 51 76

25 51 76

25 51 76

25 51 76

25 51 76

25 51 76

25 51 76

25 51 76

25 51 76

25 51 76

25 51 76

25 51 76

25 51 76

25 51 76

25 51 76

25 51 76

25 51 76

25 51 76

25 51 76

25 51 76

25 51 76

25 51 76

25 51 76

25 51 76

25 51 76

25 51 76

25 51 76

25 51 76

25 51 76

25 51 76

25 51 76

25 51 76

25 51 76

25 51 76

25 51 76

25 51 76

25 51 76

25 51 76

25 51 76

25 51 76

25 51 76

25 51 76

25 51 76

25 51 76

25 51 76

25 51 76

25 51 76

25 51 76

25 51 76

25 51 76

25 51 76

25 51 76

25 51 76

25 51 76

25 51 76

25 51 76

25 51 76

25 51 76

25 51 76

25 51 76

25 51 76

25 51 76

25 51 76

25 51 76

25 51 76

25 51 76

25 51 76

25 51 76

25 51 76

25 51 76

25 51 76

25 51 76

25 51 76

25 51 76

25 51 76

25 51 76

25 51 76

25 51 76

25 51 76

25 51 76

25 51 76

25 51 76

25 51 76

25 51 76

25 51 76

25 51 76

25 51 76

25 51 76

25 51 76

25 51 76

25 51 76

25 51 76

25 51 76

25 51 76

25 51 76

25 51 76

25 51 76

25 51 76

25 51 76

25 51 76

25 51 76

25 51 76

25 51 76

25 51 76

25 51 76

25 51 76

25 51 76

25 51 76

25 51 76

25 51 76

25 51 76

25 51 76

25 51 76

25 51 76

25 51 76

25 51 76

25 51 76

25 51 76

25 51 76

25 51 76

25 51 76

25 51 76

25 51 76

25 51 76

25 51 76

25 51 76

25 51 76

25 51 76

25 51 76

25 51 76

25 51 76

25 51 76

25 51 76

25 51 76

25 51 76

25 51 76

25 51 76

25 51 76

25 51 76

25 51 76

25 51 76

25 51 76

25 51 76

25 51 76

25 51 76

25 51 76

25 51 76

25 51 76

25 51 76

25 51 76

25 51 76

25 51 76

25 51 76

25 51 76

25 51 76

25 51 76

25 51 76

25 51 76

25 51 76

25 51 76

25 51 76

25 51 76

25 51 76

25 51 76

25 51 76

25 51 76

25 51 76

25 51 76

25 51 76

25 51 76

25 51 76

25 51 76

25 51 76

25 51 76

25 51 76

25 51 76

25 51 76

25 51 76

25 51 76

25 51 76

25 51 76

25 51 76

25 51 76

25 51 76

25 51 76

25 51 76

25 51 76

25 51 76

25 51 76

25 51 76

25 51 76

25 51 76

25 51 76

25 51 76

25 51 76

25 51 76

25 51 76

25 51 76

25 51 76

25 51 76

25 51 76

25 51 76

25 51 76

25 51 76

25 51 76

25 51 76

25 51 76

25 51 76

25 51 76

25 51 76

25 51 76

25 51 76

25 51 76

25 51 76

25 51 76

25 51 76

25 51 76

25 51 76

25 51 76

25 51 76

25 51 76

25 51 76

25 51 76

25 51 76

25 51 76

25 51 76

25 51 76

25 51 76

25 51 76

25 51 76

25 51 76

25 51 76

25 51 76

25 51 76

25 51 76

25 51 76

25 51 76

25 51 76

25 51 76

25 51 76

25 51 76

25 51 76

25 51 76

25 51 76

25 51 76

25 51 76

25 51 76

25 51 76

25 51 76

25 51 76

25 51 76

25 51 76

25 51 76

25 51 76

25 51 76

25 51 76

25 51 76

25 51 76

25 51 76

25 51 76

25 51 76

25 51 76

25 51 76

25 51 76

25 51 76

25 51 76

25 51 76

25 51 76

25 51 76

25 51 76

25 51 76

25 51 76

25 51 76

25 51 76

25 51 76

25 51 76

25 51 76

25 51 76

25 51 76

25 51 76

25 51 76

25 51 76

25 51 76

25 51 76

25 51 76

25 51 76

25 51 76

25 51 76

25 51 76

25 51 76

25 51 76

25 51 76

25 51 76

25 51 76

25 51 76

25 51 76

25 51 76

25 51 76

25 51 76

25 51 76

25 51 76

25 51 76

25 51 76

25 51 76

25 51 76

25 51 76

25 51 76

25 51 76

25 51 76

25 51 76

25 51 76

25 51 76

25 51 76

25 51 76

25 51 76

25 51 76

25 51 76

25 51 76

25 51 76

25 51 76

25 51 76

25 51 76

25 51 76

25 51 76

25 51 76

25 51 76

25 51 76

25 51 76

25 51 76

25 51 76

25 51 76

25 51 76

25 51 76

25 51 76

25 51 76

25 51 76

25 51 76

25 51 76

25 51 76

25 51 76

25 51 76

25 51 76

25 51 76

25 51 76

25 51 76

25 51 76

25 51 76

25 51 76

25 51 76

25 51 76

25 51 76

25 51 76

25 51 76

25 51 76

25 51 76

25 51 76

25 51 76

25 51 76

25 51 76

25 51 76

25 51 76

25 51 76

25 51 76

25 51 76

25 51 76

25 51 76

25 51 76

25 51 76

25 51 76

25 51 76

25 51 76

25 51 76

25 51 76

25 51 76

25 51 76

25 51 76

25 51 76

25 51 76

25 51 76

25 51 76

25 51 76

25 51 76

25 51 76

25 51 76

25 51 76

25 51 76

25 51 76

25 51 76

25 51 76

25 51 76

25 51 76

25 51 76

25 51 76

25 51 76

25 51 76

25 51 76

25 51 76

25 51 76

25 51 76

25 51 76

25 51 76

25 51 76

25 51 76

25 51 76

25 51 76

25 51 76

25 51 76

25 51 76

25 51 76

25 51 76

25 51 76

25 51 76

25 51 76

25 51 76

25 51 76

25 51 76

25 51 76

25 51 76

25 51 76

25 51 76

25 51 76

25 51 76

25 51 76

25 51 76

25 51 76

25 51 76

25 51 76

25 51 76

25 51 76

25 51 76

25 51 76

25 51 76

25 51 76

25 51 76

25 51 76

25 51 76

25 51 76

25 51 76

25 51 76

25 51 76

25 51 76

25 51 76

25 51 76

25 51 76

25 51 76

25 51 76

25 51 76

25 51 76

25 51 76

25 51 76

25 51 76

25 51 76

25 51 76

25 51 76

25 51 76

25 51 76

25 51 76

25 51 76

25 51 76

25 51 76

25 51 76

25 51 76

25 51 76

25 51 76

25 51 76

25 51 76

25 51 76

25 51 76

25 51 76

25 51 76

25 51 76

25 51 76

25 51 76

25 51 76

25 51 76

25 51 76

25 51 76

25 51 76

25 51 76

25 51 76

25 51 76

25 51 76

25 51 76

25 51 76

25 51 76

25 51 76

25 51 76

25 51 76

25 51 76

25 51 76

25 51 76

25 51 76

25 51 76

25 51 76

25 51 76

25 51 76

25 51 76

25 51 76

25 51 76

25 51 76

25 51 76

25 51 76

25 51 76

25 51 76

25 51 76

25 51 76

25 51 76

25 51 76

25 51 76

25 51 76

25 51 76

25 51 76

25 51 76

25 51 76

25 51 76

25 51 76

25 51 76

25 51 76

25 51 76

25 51 76

25 51 76

25 51 76

25 51 76

25 51 76

25 51 76

25 51 76

25 51 76

25 51 76

25 51 76

25 51 76

25 51 76

25 51 76

25 51 76

25 51 76

25 51 76

25 51 76

25 51 76

25 51 76

25 51 76

25 51 76

25 51 76

25 51 76

25 51 76

25 51 76

25 51 76

25 51 76

25 51 76

25 51 76

25 51 76

25 51 76

25 51 76

25 51 76

25 51 76

25 51 76

25 51 76

25 51 76

25 51 76

25 51 76

25 51 76

25 51 76

25 51 76

25 51 76

25 51 76

25 51 76

25 51 76

25 51 76

25 51 76

25 51 76

25 51 76

25 51 76

25 51 76

25 51 76

25 51 76

25 51 76

25 51 76

25 51 76

25 51 76

25 51 76

25 51 76

25 51 76

25 51 76

25 51 76

25 51 76

25 51 76

25 51 76

25 51 76

25 51 76

25 51 76

25 51 76

25 51 76

25 51 76

25 51 76

25 51 76

25 51 76

25 51 76

25 51 76

25 51 76

25 51 76

25 51 76

25 51 76

25 51 76

25 51 76

25 51 76

25 51 76

25 51 76

25 51 76

25 51 76

25 51 76

25 51 76

25 51 76

25 51 76

25 51 76

25 51 76

25 51 76

25 51 76

25 51 76

25 51 76

25 51 76

25 51 76

25 51 76

25 51 76

25 51 76

25 51 76

25 51 76

25 51 76

25 51 76

25 51 76

25 51 76

25 51 76

25 51 76

25 51 76

25 51 76

25 51 76

25 51 76

25 51 76

25 51 76

25 51 76

25 51 76

25 51 76

25 51 76

25 51 76

25 51 76

25 51 76

25 51 76

25 51 76

25 51 76

25 51 76

25 51 76

25 51 76

25 51 76

25 51 76

25 51 76

25 51 76

25 51 76

25 51 76

25 51 76

25 51 76

25 51 76

25 51 76

25 51 76

25 51 76

25 51 76

25 51 76

25 51 76

25 51 76

25 51 76

25 51 76

25 51 76

25 51 76

25 51 76

25 51 76

25 51 76

25 51 76

25 51 76

25 51 76

25 51 76

25 51 76

25 51 76

25 51 76

25 51 76

25 51 76

25 51 76

25 51 76

25 51 76

25 51 76

25 51 76

25 51 76

25 51 76

25 51 76

25 51 76

25 51 76

25 51 76

25 51 76

25 51 76

25 51 76

25 51 76

25 51 76

25 51 76

25 51 76

25 51 76

25 51 76

25 51 76

25 51 76

25 51 76

25 51 76

25 51 76

25 51 76

25 51 76

25 51 76

25 51 76

25 51 76

25 51 76

25 51 76

25 51 76

25 51 76

25 51 76

25 51 76

25 51 76

25 51 76

25 51 76

25 51 76

25 51 76

25 51 76

25 51 76

25 51 76

25 51 76

25 51 76

25 51 76

25 51 76

25 51 76

25 51 76

25 51 76

25 51 76

25 51 76

25 51 76

25 51 76

25 51 76

25 51 76

25 51 76

25 51 76

25 51 76

25 51 76

25 51 76

25 51 76

25 51 76

25 51 76

25 51 76

25 51 76

25 51 76

25 51 76

25 51 76

25 51 76

25 51 76

25 51 76

25 51 76

25 51 76

25 51 76

25 51 76

25 51 76

25 51 76

25 51 76

25 51 76

25 51 76

25 51 76

25 51 76

25 51 76

25 51 76

25 51 76

25 51 76

25 51 76

25 51 76

25 51 76

25 51 76

25 51 76

25 51 76

25 51 76

25 51 76

25 51 76

25 51 76

25 51 76

25 51 76

25 51 76

25 51 76

25 51 76

25 51 76

25 51 76

25 51 76

25 51 76

25 51 76

25 51 76

25 51 76

25 51 76

25 51 76

25 51 76

25 51 76

25 51 76

25 51 76

25 51 76

25 51 76

25 51 76

25 51 76

25 51 76

25 51 76

25 51 76

25 51 76

25 51 76

25 51 76

25 51 76

25 51 76

25 51 76

25 51 76

25 51 76

25 51 76

25 51 76

25 51 76

25 51 76

25 51 76

25 51 76

25 51 76

25 51 76

25 51 76

25 51 76

25 51 76

25 51 76

25 51 76

25 51 76

25 51 76

25 51 76

25 51 76

25 51 76

25 51 76

25 51 76

25 51 76

25 51 76

25 51 76

25 51 76

25 51 76

25 51 76

25 51 76

25 51 76

25 51 76

25 51 76

25 51 76

25 51 76

25 51 76

25 51 76

25 51 76

25 51 76

25 51 76

25 51 76

25 51 76

25 51 76

25 51 76

25 51 76

25 51 76

25 51 76

25 51 76

25 51 76

25 51 76

25 51 76

25 51 76

25 51 76

25 51 76

25 51 76

25 51 76

25 51 76

25 51 76

25 51 76

25 51 76

25 51 76

25 51 76

25 51 76

25 51 76

25 51 76

25 51 76

25 51 76

25 51 76

25 51 76

25 51 76

25 51 76

25 51 76

25 51 76

25 51 76

25 51 76

25 51 76

25 51 76

25 51 76

25 51 76

25 51 76

25 51 76

25 51 76

25 51 76

25 51 76

25 51 76

25 51 76

25 51 76

25 51 76

25 51 76

25 51 76

25 51 76

25 51 76

25 51 76

25 51 76

25 51 76

25 51 76

25 51 76

25 51 76

25 51 76

25 51 76

25 51 76

25 51 76

25 51 76

25 51 76

25 51 76

25 51 76

25 51 76

25 51 76

25 51 76

25 51 76

25 51 76

25 51 76

25 51 76

25 51 76

25 51 76

25 51 76

25 51 76

25 51 76

25 51 76

25 51 76

25 51 76

25 51 76

25 51 76

25 51 76

25 51 76

25 51 76

25 51 76

25 51 76

25 51 76

25 51 76

25 51 76

25 51 76

25 51 76

25 51 76

25 51 76

25 51 76

25 51 76

25 51 76

25 51 76

25 51 76

25 51 76

25 51 76

25 51 76

25 51 76

25 51 76

25 51 76

25 51 76

25 51 76

25 51 76

25 51 76

25 51 76

25 51 76

25 51 76

25 51 76

25 51 76

25 51 76

25 51 76

25 51 76

25 51 76

25 51 76

25 51 76

25 51 76

25 51 76

25 51 76

25 51 76

25 51 76

25 51 76

25 51 76

25 51 76

25 51 76

25 51 76

25 51 76

25 51 76

25 51 76

25 51 76

25 51 76

25 51 76

25 51 76

25 51 76

25 51 76

25 51 76

25 51 76

25 51 76

25 51 76

25 51 76

25 51 76

25 51 76

25 51 76

25 51 76

25 51 76

25 51 76

25 51 76

25 51 76

25 51 76

25 51 76

25 51 76

25 51 76

25 51 76

25 51 76

25 51 76

25 51 76

25 51 76

25 51 76

25 51 76

25 51 76

25 51 76

25 51 76

25 51 76

25 51 76

25 51 76

25 51 76

25 51 76

25 51 76

25 51 76

25 51 76

25 51 76

25 51 76

25 51 76

25 51 76

25 51 76

25 51 76

25 51 76

25 51 76

25 51 76

25 51 76

25 51 76

25 51 76

25 51 76

25 51 76

25 51 76

25 51 76

25 51 76

25 51 76

25 51 76

25 51 76

25 51 76

25 51 76

25 51 76

25 51 76

25 51 76

25 51 76

25 51 76

25 51 76

25 51 76

25 51 76

25 51 76

25 51 76

25 51 76

25 51 76

25 51 76

25 51 76

25 51 76

25 51 76

25 51 76

25 51 76

25 51 76

25 51 76

25 51 76

25 51 76

25 51 76

25 51 76

25 51 76

25 51 76

25 51 76

25 51 76

25 51 76

25 51 76

25 51 76

25 51 76

25 51 76

25 51 76

25 51 76

25 51 76

25 51 76

25 51 76

25 51 76

25 51 76

25 51 76

25 51 76

25 51 76

25 51 76

25 51 76

25 51 76

25 51 76

25 51 76

25 51 76

25 51 76

25 51 76

25 51 76

25 51 76

25 51 76

25 51 76

25 51 76

25 51 76

25 51 76

25 51 76

25 51 76

25 51 76

25 51 76

25 51 76

25 51 76

25 51 76

25 51 76

25 51 76

25 51 76

25 51 76

25 51 76

25 51 76

25 51 76

25 51 76

25 51 76

25 51 76

25 51 76

25 51 76

25 51 76

25 51 76

25 51 76

25 51 76

25 51 76

25 51 76

25 51 76

25 51 76

25 51 76

25 51 76

25 51 76

25 51 76

25 51 76

25 51 76

25 51 76

25 51 76

25 51 76

25 51 76

25 51 76

25 51 76

25 51 76

25 51 76

25 51 76

25 51 76

25 51 76

25 51 76

25 51 76

25 51 76

25 51 76

25 51 76

25 51 76

25 51 76

25 51 76

25 51 76

25 51 76

25 51 76

25 51 76

25 51 76

25 51 76

25 51 76

25 51 76

25 51 76

25 51 76

25 51 76

25 51 76

25 51 76

25 51 76

25 51 76

25 51 76

25 51 76

25 51 76

25 51 76

25 51 76

25 51 76

25 51 76

25 51 76

25 51 76

25 51 76

25 51 76

25 51 76

25 51 76

25 51 76

25 51 76

25 51 76

25 51 76

25 51 76

25 51 76

25 51 76

25 51 76

25 51 76

25 51 76

25 51 76

25 51 76

25 51 76

25 51 76

25 51 76

25 51 76

25 51 76

25 51 76

25 51 76

25 51 76

25 51 76

25 51 76

25 51 76

25 51 76

25 51 76

25 51 76

25 51 76

25 51 76

25 51 76

25 51 76

25 51 76

25 51 76

25 51 76

25 51 76

25 51 76

25 51 76

25 51 76

25 51 76

25 51 76

25 51 76

25 51 76

25 51 76

25 51 76

25 51 76

25 51 76

25 51 76

25 51 76

25 51 76

25 51 76

25 51 76

25 51 76

25 51 76

25 51 76

25 51 76

25 51 76

25 51 76

25 51 76

25 51 76

25 51 76

25 51 76

25 51 76

25 51 76

25 51 76

25 51 76

25 51 76

25 51 76

25 51 76

25 51 76

25 51 76

25 51 76

25 51 76

25 51 76

25 51 76

25 51 76

25 51 76

25 51 76

25 51 76

25 51 76

25 51 76

25 51 76

25 51 76

25 51 76

25 51 76

25 51 76

25 51 76

25 51 76

25 51 76

25 51 76

25 51 76

25 51 76

25 51 76

25 51 76

25 51 76

25 51 76

25 51 76

25 51 76

25 51 76

25 51 76

25 51 76

25 51 76

25 51 76

25 51 76

25 51 76

25 51 76

25 51 76

25 51 76

25 51 76

25 51 76

25 51 76

25 51 76

25 51 76

25 51 76

25 51 76

25 51 76

25 51 76

25 51 76

25 51 76

25 51 76

25 51 76

25 51 76

25 51 76

25 51 76

25 51 76

25 51 76

25 51 76

25 51 76

25 51 76

25 51 76

25 51 76

25 51 76

25 51 76

25 51 76

25 51 76

25 51 76

25 51 76

25 51 76

25 51 76

25 51 76

25 51 76

25 51 76

25 51 76

25 51 76

25 51 76

25 51 76

25 51 76

25 51 76

25 51 76

25 51 76

25 51 76

25 51 76

25 51 76

25 51 76

25 51 76

25 51 76

25 51 76

25 51 76

25 51 76

25 51 76

25 51 76

25 51 76

25 51 76

25 51 76

25 51 76

25 51 76

25 51 76

25 51 76

25 51 76

25 51 76

25 51 76

25 51 76

25 51 76

25 51 76

25 51 76

25 51 76

25 51 76

25 51 76

25 51 76

25 51 76

25 51 76

25 51 76

25 51 76

25 51 76

25 51 76

25 51 76

25 51 76

25 51 76

25 51 76

25 51 76

25 51 76

25 51 76

25 51 76

25 51 76

25 51 76

25 51 76

25 51 76

25 51 76

25 51 76

25 51 76

25 51 76

25 51 76

25 51 76

25 51 76

25 51 76

25 51 76

25 51 76

25 51 76

25 51 76

25 51 76

25 51 76

25 51 76

25 51 76

25 51 76

25 51 76

25 51 76

25 51 76

25 51 76

25 51 76

25 51 76

25 51 76

25 51 76

25 51 76

25 51 76

25 51 76

25 51 76

25 51 76

25 51 76

25 51 76

25 51 76

25 51 76

25 51 76

25 51 76

25 51 76

25 51 76

25 51 76

25 51 76

25 51 76

25 51 76

25 51 76

25 51 76

25 51 76

25 51 76

25 51 76

25 51 76

25 51 76

25 51 76

25 51 76

25 51 76

25 51 76

25 51 76

25 51 76

25 51 76

25 51 76

25 51 76

25 51 76

25 51 76

25 51 76

25 51 76

25 51 76

25 51 76

25 51 76

25 51 76

25 51 76

25 51 76

25 51 76

25 51 76

25 51 76

25 51 76

25 51 76

25 51 76

25 51 76

25 51 76

25 51 76

25 51 76

25 51 76

25 51 76

25 51 76

25 51 76

25 51 76

25 51 76

25 51 76

25 51 76

25 51 76

25 51 76

25 51 76

25 51 76

25 51 76

25 51 76

25 51 76

25 51 76

25 51 76

25 51 76

25 51 76

25 51 76

25 51 76

25 51 76

25 51 76

25 51 76

25 51 76

25 51 76

25 51 76

25 51 76

25 51 76

25 51 76

25 51 76

25 51 76

25 51 76

25 51 76

25 51 76

25 51 76

25 51 76

25 51 76

25 51 76

25 51 76

25 51 76

25 51 76

25 51 76

25 51 76

25 51 76

25 51 76

25 51 76

25 51 76

25 51 76

25 51 76

25 51 76

25 51 76

25 51 76

25 51 76

25 51 76

25 51 76

25 51 76

25 51 76

25 51 76

25 51 76

25 51 76

25 51 76

25 51 76

25 51 76

25 51 76

25 51 76

25 51 76

25 51 76

25 51 76

25 51 76

25 51 76

25 51 76

25 51 76

25 51 76

25 51 76

25 51 76

25 51 76

25 51 76

25 51 76

25 51 76

25 51 76

25 51 76

25 51 76

25 51 76

25 51 76

25 51 76

25 51 76

25 51 76

25 51 76

25 51 76

25 51 76

25 51 76

25 51 76

25 51 76

25 51 76

25 51 76

25 51 76

25 51 76

25 51 76

25 51 76

25 51 76

25 51 76

25 51 76

25 51 76

25 51 76

25 51 76

25 51 76

25 51 76

25 51 76

25 51 76

25 51 76

25 51 76

25 51 76

25 51 76

25 51 76

25 51 76

25 51 76

25 51 76

25 51 76

25 51 76

25 51 76

25 51 76

25 51 76

25 51 76

25 51 76

25 51 76

25 51 76

25 51 76

25 51 76

25 51 76

25 51 76

25 51 76

25 51 76

25 51 76

25 51 76

25 51 76

25 51 76

25 51 76

25 51 76

25 51 76

25 51 76

25 51 76

25 51 76

25 51 76

25 51 76

25 51 76

25 51 76

25 51 76

25 51 76

25 51 76

25 51 76

25 51 76

25 51 76

25 51 76

25 51 76

25 51 76

25 51 76

25 51 76

25 51 76

25 51 76

25 51 76

25 51 76

25 51 76

25 51 76

25 51 76

25 51 76

25 51 76

25 51 76

25 51 76

25 51 76

25 51 76

25 51 76

25 51 76

25 51 76

25 51 76

25 51 76

25 51 76

25 51 76

25 51 76

25 51 76

25 51 76

25 51 76

25 51 76

25 51 76

25 51 76

25 51 76

25 51 76

25 51 76

25 51 76

25 51 76

25 51 76

25 51 76

25 51 76

25 51 76

25 51 76

25 51 76

25 51 76

25 51 76

25 51 76

25 51 76

25 51 76

25 51 76

25 51 76

25 51 76

25 51 76

25 51 76

25 51 76

25 51 76

25 51 76

25 51 76

25 51 76

25 51 76

25 51 76

25 51 76

25 51 76

25 51 76

25 51 76

25 51 76

25 51 76

25 51 76

25 51 76

25 51 76

25 51 76

25 51 76

25 51 76

25 51 76

25 51 76

25 51 76

25 51 76

25 51 76

25 51 76

25 51 76

25 51 76

25 51 76

25 51 76

25 51 76

25 51 76

25 51 76

25 51 76

25 51 76

25 51 76

25 51 76

25 51 76

25 51 76

25 51 76

25 51 76

25 51 76

25 51 76

25 51 76

25 51 76

25 51 76

25 51 76

25 51 76

25 51 76

25 51 76

25 51 76

25 51 76

25 51 76

25 51 76

25 51 76

25 51 76

25 51 76

25 51 76

25 51 76

25 51 76

25 51 76

25 51 76

25 51 76

25 51 76

25 51 76

25 51 76

25 51 76

25 51 76

25 51 76

25 51 76

25 51 76

25 51 76

25 51 76

25 51 76

25 51 76

25 51 76

25 51 76

25 51 76

25 51 76

25 51 76

25 51 76

25 51 76

25 51 76

25 51 76

25 51 76

25 51 76

25 51 76

25 51 76

25 51 76

25 51 76

25 51 76

25 51 76

25 51 76

25 51 76

25 51 76

25 51 76

25 51 76

25 51 76

25 51 76

25 51 76

25 51 76

25 51 76

25 51 76

25 51 76

25 51 76

25 51 76

25 51 76

25 51 76

25 51 76

25 51 76

25 51 76

25 51 76

25 51 76

25 51 76

25 51 76

25 51 76

25 51 76

25 51 76

25 51 76

25 51 76

25 51 76

25 51 76

25 51 76

25 51 76

25 51 76

25 51 76

25 51 76

25 51 76

25 51 76

25 51 76

25 51 76

25 51 76

25 51 76

25 51 76

25 51 76

25 51 76

25 51 76

25 51 76

25 51 76

25 51 76

25 51 76

25 51 76

25 51 76

25 51 76

25 51 76

25 51 76

25 51 76

25 51 76

25 51 76

25 51 76

25 51 76

25 51 76

25 51 76

25 51 76

25 51 76

25 51 76

25 51 76

25 51 76

25 51 76

25 51 76

25 51 76

25 51 76

25 51 76

25 51 76

25 51 76

25 51 76

25 51 76

25 51 76

25 51 76

25 51 76

25 51 76

25 51 76

25 51 76

25 51 76

25 51 76

25 51 76

25 51 76

25 51 76

25 51 76

25 51 76

25 51 76

25 51 76

25 51 76

25 51 76

25 51 76

25 51 76

25 51 76

25 51 76

25 51 76

25 51 76

25 51 76

25 51 76

25 51 76

25 51 76

25 51 76

25 51 76

25 51 76

25 51 76

25 51 76

25 51 76

25 51 76

25 51 76

25 51 76

25 51 76

25 51 76

25 51 76

25 51 76

25 51 76

25 51 76

25 51 76

25 51 76

25 51 76

25 51 76

25 51 76

25 51 76

25 51 76

25 51 76

25 51 76

25 51 76

25 51 76

25 51 76

25 51 76

25 51 76

25 51 76

25 51 76

25 51 76

25 51 76

25 51 76

25 51 76

25 51 76

25 51 76

25 51 76

25 51 76

25 51 76

25 51 76

25 51 76

25 51 76

25 51 76

25 51 76

25 51 76

25 51 76

25 51 76

25 51 76

25 51 76

25 51 76

25 51 76

25 51 76

25 51 76

25 51 76

25 51 76

25 51 76

25 51 76

25 51 76

25 51 76

25 51 76

25 51 76

25 51 76

25 51 76

25 51 76

25 51 76

25 51 76

25 51 76

25 51 76

25 51 76

25 51 76

25 51 76

25 51 76

25 51 76

25 51 76

25 51 76

25 51 76

25 51 76

25 51 76

25 51 76

25 51 76

25 51 76

25 51 76

25 51 76

25 51 76

25 51 76

25 51 76

25 51 76

25 51 76

25 51 76

25 51 76

25 51 76

25 51 76

25 51 76

25 51 76

25 51 76

25 51 76

25 51 76

25 51 76

25 51 76

25 51 76

25 51 76

25 51 76

25 51 76

25 51 76

25 51 76

25 51 76

25 51 76

25 51 76

25 51 76

25 51 76

25 51 76

25 51 76

25 51 76

25 51 76

25 51 76

25 51 76

25 51 76

25 51 76

25 51 76

25 51 76

25 51 76

25 51 76

25 51 76

25 51 76

25 51 76

25 51 76

25 51 76

25 51 76

25 51 76

25 51 76

25 51 76

25 51 76

25 51 76

25 51 76

25 51 76

25 51 76

25 51 76

25 51 76

25 51 76

25 51 76

25 51 76

25 51 76

25 51 76

25 51 76

25 51 76

25 51 76

25 51 76

25 51 76

25 51 76

25 51 76

25 51 76

25 51 76

25 51 76

25 51 76

25 51 76

25 51 76

25 51 76

25 51 76

25 51 76

25 51 76

25 51 76

25 51 76

25 51 76

25 51 76

25 51 76

25 51 76

25 51 76

25 51 76

25 51 76

25 51 76

25 51 76

25 51 76

25 51 76

25 51 76

25 51 76

25 51 76

25 51 76

25 51 76

25 51 76

25 51 76

25 51 76

25 51 76

25 51 76

25 51 76

25 51 76

25 51 76

25 51 76

25 51 76

25 51 76

25 51 76

25 51 76

25 51 76

25 51 76

25 51 76

25 51 76

25 51 76

25 51 76

25 51 76

25 51 76

25 51 76

25 51 76

25 51 76

25 51 76

25 51 76

25 51 76

25 51 76

25 51 76

25 51 76

25 51 76

25 51 76

25 51 76

25 51 76

25 51 76

25 51 76

25 51 76

25 51 76

25 51 76

25 51 76

25 51 76

25 51 76

25 51 76

25 51 76

25 51 76

25 51 76

25 51 76

25 51 76

25 51 76

25 51 76

25 51 76

25 51 76

25 51 76

25 51 76

25 51 76

25 51 76

25 51 76

25 51 76

25 51 76

25 51 76

25 51 76

25 51 76

25 51 76

25 51 76

25 51 76

25 51 76

25 51 76

25 51 76

25 51 76

25 51 76

25 51 76

25 51 76

25 51 76

25 51 76

25 51 76

25 51 76

25 51 76

25 51 76

25 51 76

25 51 76

25 51 76

25 51 76

25 51 76

25 51 76

25 51 76

25 51 76

25 51 76

25 51 76

25 51 76

25 51 76

25 51 76

25 51 76

25 51 76

25 51 76

25 51 76

25 51 76

25 51 76

25 51 76

25 51 76

25 51 76

25 51 76

25 51 76

25 51 76

25 51 76

25 51 76

25 51 76

25 51 76

25 51 76

25 51 76

25 51 76

25 51 76

25 51 76

25 51 76

25 51 76

25 51 76

25 51 76

25 51 76

25 51 76

25 51 76

25 51 76

25 51 76

25 51 76

25 51 76

25 51 76

25 51 76

25 51 76

25 51 76

25 51 76

25 51 76

25 51 76

25 51 76

25 51 76

25 51 76

25 51 76

25 51 76

25 51 76

25 51 76

25 51 76

25 51 76

25 51 76

25 51 76

25 51 76

25 51 76

25 51 76

25 51 76

25 51 76

25 51 76

25 51 76

25 51 76

25 51 76

25 51 76

25 51 76

25 51 76

25 51 76

25 51 76

25 51 76

25 51 76

25 51 76

25 51 76

25 51 76

25 51 76

25 51 76

25 51 76

25 51 76

25 51 76

25 51 76

25 51 76

25 51 76

25 51 76

25 51 76

25 51 76

25 51 76

25 51 76

25 51 76

25 51 76

25 51 76

25 51 76

25 51 76

25 51 76

25 51 76

25 51 76

25 51 76

25 51 76

25 51 76

25 51 76

25 51 76

25 51 76

25 51 76

25 51 76

25 51 76

25 51 76

25 51 76

25 51 76

25 51 76

25 51 76

25 51 76

25 51 76

25 51 76

25 51 76

25 51 76

25 51 76

25 51 76

25 51 76

25 51 76

25 51 76

25 51 76

25 51 76

25 51 76

25 51 76

25 51 76

25 51 76

25 51 76

25 51 76

25 51 76

25 51 76

25 51 76

25 51 76

25 51 76

25 51 76

25 51 76

25 51 76

25 51 76

25 51 76

25 51 76

25 51 76

25 51 76

25 51 76

25 51 76

25 51 76

25 51 76

25 51 76

25 51 76

25 51 76

25 51 76

25 51 76

25 51 76

25 51 76

25 51 76

25 51 76

25 51 76

25 51 76

25 51 76

25 51 76

25 51 76

25 51 76

25 51 76

25 51 76

25 51 76

25 51 76

25 51 76

25 51 76

25 51 76

25 51 76

25 51 76

25 51 76

25 51 76

25 51 76

25 51 76

25 51 76

25 51 76

25 51 76

25 51 76

25 51 76

25 51 76

25 51 76

25 51 76

25 51 76

25 51 76

25 51 76

25 51 76

25 51 76

25 51 76

25 51 76

25 51 76

25 51 76

25 51 76

25 51 76

25 51 76

25 51 76

25 51 76

25 51 76

25 51 76

25 51 76

25 51 76

25 51 76

25 51 76

25 51 76

25 51 76

25 51 76

25 51 76

25 51 76

25 51 76

25 51 76

25 51 76

25 51 76

25 51 76

25 51 76

25 51 76

25 51 76

25 51 76

25 51 76

25 51 76

25 51 76

25 51 76

25 51 76

25 51 76

25 51 76

25 51 76

25 51 76

25 51 76

25 51 76

25 51 76

25 51 76

25 51 76

25 51 76

25 51 76

25 51 76

25 51 76

25 51 76

25 51 76

25 51 76

25 51 76

25 51 76

25 51 76

25 51 76

25 51 76

25 51 76

25 51 76

25 51 76

25 51 76

25 51 76

25 51 76

25 51 76

25 51 76

25 51 76

25 51 76

25 51 76

25 51 76

25 51 76

25 51 76

25 51 76

25 51 76

25 51 76

25 51 76

25 51 76

25 51 76

25 51 76

25 51 76

25 51 76

25 51 76

25 51 76

25 51 76

25 51 76

25 51 76

25 51 76

25 51 76

25 51 76

25 51 76

25 51 76

25 51 76

25 51 76

25 51 76

25 51 76

25 51 76

25 51 76

25 51 76

25 51 76

25 51 76

25 51 76

25 51 76

25 51 76

25 51 76

25 51 76

25 51 76

25 51 76

25 51 76

25 51 76

25 51 76

25 51 76

25 51 76

25 51 76

25 51 76

25 51 76

25 51 76

25 51 76

25 51 76

25 51 76

25 51 76

25 51 76

25 51 76

25 51 76

25 51 76

25 51 76

25 51 76

25 51 76

25 51 76

25 51 76

25 51 76

25 51 76

25 51 76

25 51 76

25 51 76

25 51 76

25 51 76

25 51 76

25 51 76

25 51 76

25 51 76

25 51 76

25 51 76

25 51 76

25 51 76

25 51 76

25 51 76

25 51 76

25 51 76

25 51 76

25 51 76

25 51 76

25 51 76

25 51 76

25 51 76

25 51 76

25 51 76

25 51 76

25 51 76

25 51 76

25 51 76

25 51 76

25 51 76

25 51 76

25 51 76

25 51 76

25 51 76

25 51 76

25 51 76

25 51 76

25 51 76

25 51 76

25 51 76

25 51 76

25 51 76

25 51 76

25 51 76

25 51 76

25 51 76

25 51 76

25 51 76

25 51 76

25 51 76

25 51 76

25 51 76

25 51 76

25 51 76

25 51 76

25 51 76

25 51 76

25 51 76

25 51 76

25 51 76

25 51 76

25 51 76

25 51 76

25 51 76

25 51 76

25 51 76

25 51 76

25 51 76

25 51 76

25 51 76

25 51 76

25 51 76

25 51 76

25 51 76

25 51 76

25 51 76

25 51 76

25 51 76

25 51 76

25 51 76

25 51 76

25 51 76

25 51 76

25 51 76

25 51 76

25 51 76

25 51 76

25 51 76

25 51 76

25 51 76

25 51 76

25 51 76

25 51 76

25 51 76

25 51 76

25 51 76

25 51 76

25 51 76

25 51 76

25 51 76

25 51 76

25 51 76

25 51 76

25 51 76

25 51 76

25 51 76

25 51 76

25 51 76

25 51 76

25 51 76

25 51 76

25 51 76

25 51 76

25 51 76

25 51 76

25 51 76

25 51 76

25 51 76

25 51 76

25 51 76

25 51 76

25 51 76

25 51 76

25 51 76

25 51 76

25 51 76

25 51 76

25 51 76

25 51 76

25 51 76

25 51 76

25 51 76

25 51 76

25 51 76

25 51 76

25 51 76

25 51 76

25 51 76

25 51 76

25 51 76

25 51 76

25 51 76

25 51 76

25 51 76

25 51 76

25 51 76

25 51 76

25 51 76

25 51 76

25 51 76

25 51 76

25 51 76

25 51 76

25 51 76

25 51 76

25 51 76

25 51 76

25 51 76

25 51 76

25 51 76

25 51 76

25 51 76

25 51 76

25 51 76

25 51 76

25 51 76

25 51 76

25 51 76

25 51 76

25 51 76

25 51 76

25 51 76

25 51 76

25 51 76

25 51 76

25 51 76

25 51 76

25 51 76

25 51 76

25 51 76

25 51 76

25 51 76

25 51 76

25 51 76

25 51 76

25 51 76

25 51 76

25 51 76

25 51 76

25 51 76

25 51 76

25 51 76

25 51 76

25 51 76

25 51 76

25 51 76

25 51 76

25 51 76

25 51 76

25 51 76

25 51 76

25 51 76

25 51 76

25 51 76

25 51 76

25 51 76

25 51 76

25 51 76

25 51 76

25 51 76

25 51 76

25 51 76

25 51 76

25 51 76

25 51 76

25 51 76

25 51 76

25 51 76

25 51 76

25 51 76

25 51 76

25 51 76

25 51 76

25 51 76

25 51 76

25 51 76

25 51 76

25 51 76

25 51 76

25 51 76

25 51 76

25 51 76

25 51 76

25 51 76

25 51 76

25 51 76

25 51 76

25 51 76

25 51 76

25 51 76

25 51 76

25 51 76

25 51 76

25 51 76

25 51 76

25 51 76

25 51 76

25 51 76

25 51 76

25 51 76

25 51 76

25 51 76

25 51 76

25 51 76

25 51 76

25 51 76

25 51 76

25 51 76

25 51 76

25 51 76

25 51 76

25 51 76

25 51 76

25 51 76

25 51 76

25 51 76

25 51 76

25 51 76

25 51 76

25 51 76

25 51 76

25 51 76

25 51 76

25 51 76

25 51 76

25 51 76

25 51 76

25 51 76

25 51 76

25 51 76

25 51 76

25 51 76

25 51 76

25 51 76

25 51 76

25 51 76

25 51 76

25 51 76

25 51 76

25 51 76

25 51 76

25 51 76

25 51 76

25 51 76

25 51 76

25 51 76

25 51 76

25 51 76

25 51 76

25 51 76

25 51 76

25 51 76

25 51 76

25 51 76

25 51 76

25 51 76

25 51 76

25 51 76

25 51 76

25 51 76

25 51 76

25 51 76

25 51 76

25 51 76

25 51 76

25 51 76

25 51 76

25 51 76

25 51 76

25 51 76

25 51 76

25 51 76

25 51 76

25 51 76

25 51 76

25 51 76

25 51 76

25 51 76

25 51 76

25 51 76

25 51 76

25 51 76

25 51 76

25 51 76

25 51 76

25 51 76

25 51 76

25 51 76

25 51 76

25 51 76

25 51 76

25 51 76

25 51 76

25 51 76

25 51 76

25 51 76

25 51 76

25 51 76

25 51 76

25 51 76

25 51 76

25 51 76

25 51 76

25 51 76

25 51 76

25 51 76

25 51 76

25 51 76

25 51 76

25 51 76

25 51 76

25 51 76

25 51 76

25 51 76

25 51 76

25 51 76

25 51 76

25 51 76

25 51 76

25 51 76

25 51 76

25 51 76

25 51 76

25 51 76

25 51 76

25 51 76

25 51 76

25 51 76

25 51 76

25 51 76

25 51 76

25 51 76

25 51 76

25 51 76

25 51 76

25 51 76

25 51 76

25 51 76

25 51 76

25 51 76

25 51 76

25 51 76

25 51 76

25 51 76

25 51 76

25 51 76

25 51 76

25 51 76

25 51 76

25 51 76

25 51 76

25 51 76

25 51 76

25 51 76

25 51 76

25 51 76

25 51 76

25 51 76

25 51 76

25 51 76

25 51 76

25 51 76

25 51 76

25 51 76

25 51 76

25 51 76

25 51 76

25 51 76

25 51 76

25 51 76

25 51 76

25 51 76

25 51 76

25 51 76

25 51 76

25 51 76

25 51 76

25 51 76

25 51 76

25 51 76

25 51 76

25 51 76

25 51 76

25 51 76

25 51 76

25 51 76

25 51 76

25 51 76

25 51 76

25 51 76

25 51 76

25 51 76

25 51 76

25 51 76

25 51 76

25 51 76

25 51 76

25 51 76

25 51 76

25 51 76

25 51 76

25 51 76

25 51 76

25 51 76

25 51 76

25 51 76

25 51 76

25 51 76

25 51 76

25 51 76

25 51 76

25 51 76

25 51 76

25 51 76

25 51 76

25 51 76

25 51 76

25 51 76

25 51 76

25 51 76

25 51 76

25 51 76

25 51 76

25 51 76

25 51 76

25 51 76

25 51 76

25 51 76

25 51 76

25 51 76

25 51 76

25 51 76

25 51 76

25 51 76

25 51 76

25 51 76

25 51 76

25 51 76

25 51 76

25 51 76

25 51 76

25 51 76

25 51 76

25 51 76

25 51 76

25 51 76

25 51 76

25 51 76

25 51 76

25 51 76

25 51 76

25 51 76

25 51 76

25 51 76

25 51 76

25 51 76

25 51 76

25 51 76

25 51 76

25 51 76

25 51 76

25 51 76

25 51 76

25 51 76

25 51 76

25 51 76

25 51 76

25 51 76

25 51 76

25 51 76

25 51 76

25 51 76

25 51 76

25 51 76

25 51 76

25 51 76

25 51 76

25 51 76

25 51 76

25 51 76

25 51 76

25 51 76

25 51 76

25 51 76

25 51 76

25 51 76

25 51 76

25 51 76

25 51 76

25 51 76

25 51 76

25 51 76

25 51 76

25 51 76

25 51 76

25 51 76

25 51 76

25 51 76

25 51 76

25 51 76

25 51 76

25 51 76

25 51 76

25 51 76

25 51 76

25 51 76

25 51 76

25 51 76

25 51 76

25 51 76

25 51 76

25 51 76

25 51 76

25 51 76

25 51 76

25 51 76

25 51 76

25 51 76

25 51 76

25 51 76

25 51 76

25 51 76

25 51 76

25 51 76

25 51 76

25 51 76

25 51 76

25 51 76

25 51 76

25 51 76

25 51 76

25 51 76

25 51 76

25 51 76

25 51 76

25 51 76

25 51 76

25 51 76

25 51 76

25 51 76

25 51 76

25 51 76

25 51 76

25 51 76

25 51 76

25 51 76

25 51 76

25 51 76

25 51 76

25 51 76

25 51 76

25 51 76

25 51 76

25 51 76

25 51 76

25 51 76

25 51 76

25 51 76

25 51 76

25 51 76

25 51 76

25 51 76

25 51 76

25 51 76

25 51 76

25 51 76

25 51 76

25 51 76

25 51 76

25 51 76

25 51 76

25 51 76

25 51 76

25 51 76

25 51 76

25 51 76

25 51 76

25 51 76

25 51 76

25 51 76

25 51 76

25 51 76

25 51 76

25 51 76

25 51 76

25 51 76

25 51 76

25 51 76

25 51 76

25 51 76

25 51 76

25 51 76

25 51 76

25 51 76

25 51 76

25 51 76

25 51 76

25 51 76

25 51 76

25 51 76

25 51 76

25 51 76

25 51 76

25 51 76

25 51 76

25 51 76

25 51 76

25 51 76

25 51 76

25 51 76

25 51 76

25 51 76

25 51 76

25 51 76

25 51 76

25 51 76

25 51 76

25 51 76

25 51 76

25 51 76

25 51 76

25 51 76

25 51 76

25 51 76

25 51 76

25 51 76

25 51 76

25 51 76

25 51 76

25 51 76

25 51 76

25 51 76

25 51 76

25 51 76

25 51 76

25 51 76

25 51 76

25 51 76

25 51 76

25 51 76

25 51 76

25 51 76

25 51 76

25 51 76

25 51 76

25 51 76

25 51 76

25 51 76

25 51 76

25 51 76

25 51 76

25 51 76

25 51 76

25 51 76

25 51 76

25 51 76

25 51 76

25 51 76

25 51 76

25 51 76

25 51 76

25 51 76

25 51 76

25 51 76

25 51 76

25 51 76

25 51 76

25 51 76

25 51 76

25 51 76

25 51 76

25 51 76

25 51 76

25 51 76

25 51 76

25 51 76

25 51 76

25 51 76

25 51 76

25 51 76

25 51 76

25 51 76

25 51 76

25 51 76

25 51 76

25 51 76

25 51 76

25 51 76

25 51 76

25 51 76

25 51 76

25 51 76

25 51 76

25 51 76

25 51 76

25 51 76

25 51 76

25 51 76

25 51 76

25 51 76

25 51 76

25 51 76

25 51 76

25 51 76

25 51 76

25 51 76

25 51 76

25 51 76

25 51 76

25 51 76

25 51 76

25 51 76

25 51 76

25 51 76

25 51 76

25 51 76

25 51 76

25 51 76

25 51 76

25 51 76

25 51 76

25 51 76

25 51 76

25 51 76

25 51 76

25 51 76

25 51 76

25 51 76

25 51 76

25 51 76

25 51 76

25 51 76

25 51 76

25 51 76

25 51 76

25 51 76

25 51 76

25 51 76

25 51 76

25 51 76

25 51 76

25 51 76

25 51 76

25 51 76

25 51 76

25 51 76

25 51 76

25 51 76

25 51 76

25 51 76

25 51 76

25 51 76

25 51 76

25 51 76

25 51 76

25 51 76

25 51 76

25 51 76

25 51 76

25 51 76

25 51 76

25 51 76

25 51 76

25 51 76

25 51 76

25 51 76

25 51 76

25 51 76

25 51 76

25 51 76

25 51 76

25 51 76

25 51 76

25 51 76

25 51 76

25 51 76

25 51 76

25 51 76

25 51 76

25 51 76

25 51 76

25 51 76

25 51 76

25 51 76

25 51 76

25 51 76

25 51 76

25 51 76

25 51 76

25 51 76

25 51 76

25 51 76

25 51 76

25 51 76

25 51 76

25 51 76

25 51 76

25 51 76

25 51 76

25 51 76

25 51 76

25 51 76

25 51 76

25 51 76

25 51 76

25 51 76

25 51 76

25 51 76

25 51 76

25 51 76

25 51 76

25 51 76

25 51 76

25 51 76

25 51 76

25 51 76

25 51 76

25 51 76

25 51 76

25 51 76

25 51 76

25 51 76

25 51 76

25 51 76

25 51 76

25 51 76

25 51 76

25 51 76

25 51 76

25 51 76

25 51 76

25 51 76

25 51 76

25 51 76

25 51 76

25 51 76

25 51 76

25 51 76

25 51 76

25 51 76

25 51 76

25 51 76

25 51 76

25 51 76

25 51 76

25 51 76

25 51 76

25 51 76

25 51 76

25 51 76

25 51 76

25 51 76

25 51 76

25 51 76

25 51 76

25 51 76

25 51 76

25 51 76

25 51 76

25 51 76

25 51 76

25 51 76

25 51 76

25 51 76

25 51 76

25 51 76

25 51 76

25 51 76

25 51 76

25 51 76

25 51 76

25 51 76

25 51 76

25 51 76

25 51 76

25 51 76

25 51 76

25 51 76

25 51 76

25 51 76

25 51 76

25 51 76

25 51 76

25 51 76

25 51 76

25 51 76

25 51 76

25 51 76

25 51 76

25 51 76

25 51 76

25 51 76

25 51 76

25 51 76

25 51 76

25 51 76

25 51 76

25 51 76

25 51 76

25 51 76

25 51 76

25 51 76

25 51 76

25 51 76

25 51 76

25 51 76

25 51 76

25 51 76

25 51 76

25 51 76

25 51 76

25 51 76

25 51 76

25 51 76

25 51 76

25 51 76

25 51 76

25 51 76

25 51 76

25 51 76

25 51 76

25 51 76

25 51 76

25 51 76

25 51 76

25 51 76

25 51 76

25 51 76

25 51 76

25 51 76

25 51 76

25 51 76

25 51 76

25 51 76

25 51 76

25 51 76

25 51 76

25 51 76

25 51 76

25 51 76

25 51 76

25 51 76

25 51 76

25 51 76

25 51 76

25 51 76

25 51 76

25 51 76

25 51 76

25 51 76

25 51 76

25 51 76

25 51 76

25 51 76

25 51 76

25 51 76

25 51 76

25 51 76

25 51 76

25 51 76

25 51 76

25 51 76

25 51 76

25 51 76

25 51 76

25 51 76

25 51 76

25 51 76

25 51 76

25 51 76

25 51 76

25 51 76

25 51 76

25 51 76

25 51 76

25 51 76

25 51 76

25 51 76

25 51 76

25 51 76

25 51 76

25 51 76

25 51 76

25 51 76

25 51 76

25 51 76

25 51 76

25 51 76

25 51 76

25 51 76

25 51 76

25 51 76

25 51 76

25 51 76

25 51 76

25 51 76

25 51 76

25 51 76

25 51 76

25 51 76

25 51 76

25 51 76

25 51 76

25 51 76

25 51 76

25 51 76

25 51 76

25 51 76

25 51 76

25 51 76

25 51 76

25 51 76

25 51 76

25 51 76

25 51 76

25 51 76

25 51 76

25 51 76

25 51 76

25 51 76

25 51 76

25 51 76

25 51 76

25 51 76

25 51 76

25 51 76

25 51 76

25 51 76

25 51 76

25 51 76

25 51 76

25 51 76

25 51 76

25 51 76

25 51 76

25 51 76

25 51 76

25 51 76

25 51 76

25 51 76

25 51 76

25 51 76

25 51 76

25 51 76

25 51 76

25 51 76

25 51 76

25 51 76

25 51 76

25 51 76

25 51 76

25 51 76

25 51 76

25 51 76

25 51 76

25 51 76

25 51 76

25 51 76

25 51 76

25 51 76

25 51 76

25 51 76

25 51 76

25 51 76

25 51 76

25 51 76

25 51 76

25 51 76

25 51 76

25 51 76

25 51 76

25 51 76

25 51 76

25 51 76

25 51 76

25 51 76

25 51 76

25 51 76

25 51 76

25 51 76

25 51 76

25 51 76

25 51 76

25 51 76

25 51 76

25 51 76

25 51 76

25 51 76

25 51 76

25 51 76

25 51 76

25 51 76

25 51 76

25 51 76

25 51 76

25 51 76

25 51 76

25 51 76

25 51 76

25 51 76

25 51 76

25 51 76

25 51 76

25 51 76

25 51 76

25 51 76

25 51 76

25 51 76

25 51 76

25 51 76

25 51 76

25 51 76

25 51 76

25 51 76

25 51 76

25 51 76

25 51 76

25 51 76

25 51 76

25 51 76

25 51 76

25 51 76

25 51 76

25 51 76

25 51 76

25 51 76

25 51 76

25 51 76

25 51 76

25 51 76

25 51 76

25 51 76

25 51 76

25 51 76

25 51 76

25 51 76

25 51 76

25 51 76

25 51 76

25 51 76

25 51 76

25 51 76

25 51 76

25 51 76

25 51 76

25 51 76

25 51 76

25 51 76

25 51 76

25 51 76

25 51 76

25 51 76

25 51 76

25 51 76

25 51 76

25 51 76

25 51 76

25 51 76

25 51 76

25 51 76

25 51 76

25 51 76

25 51 76

25 51 76

25 51 76

25 51 76

25 51 76

25 51 76

25 51 76

25 51 76

25 51 76

25 51 76

25 51 76

25 51 76

25 51 76

25 51 76

25 51 76

25 51 76

25 51 76

25 51 76

25 51 76

25 51 76

25 51 76

25 51 76

25 51 76

25 51 76

25 51 76

25 51 76

25 51 76

25 51 76

25 51 76

25 51 76

25 51 76

25 51 76

25 51 76

25 51 76

25 51 76

25 51 76

25 51 76

25 51 76

25 51 76

25 51 76

25 51 76

25 51 76

25 51 76

25 51 76

25 51 76

25 51 76

25 51 76

25 51 76

25 51 76

25 51 76

25 51 76

25 51 76

25 51 76

25 51 76

25 51 76

25 51 76

25 51 76

25 51 76

25 51 76

25 51 76

25 51 76

25 51 76

25 51 76

25 51 76

25 51 76

25 51 76

25 51 76

25 51 76

25 51 76

25 51 76

25 51 76

25 51 76

25 51 76

25 51 76

25 51 76

25 51 76

25 51 76

25 51 76

25 51 76

25 51 76

25 51 76

25 51 76

25 51 76

25 51 76

25 51 76

25 51 76

25 51 76

25 51 76

25 51 76

25 51 76

25 51 76

25 51 76

25 51 76

25 51 76

25 51 76

25 51 76

25 51 76

25 51 76

25 51 76

25 51 76

25 51 76

25 51 76

25 51 76

25 51 76

25 51 76

25 51 76

25 51 76

25 51 76

25 51 76

25 51 76

25 51 76

25 51 76

25 51 76

25 51 76

25 51 76

25 51 76

25 51 76

25 51 76

25 51 76

25 51 76

25 51 76

25 51 76

25 51 76

25 51 76

25 51 76

25 51 76

25 51 76

25 51 76

25 51 76

25 51 76

25 51 76

25 51 76

25 51 76

25 51 76

25 51 76

25 51 76

25 51 76

25 51 76

25 51 76

25 51 76

25 51 76

25 51 76

25 51 76

25 51 76

25 51 76

25 51 76

25 51 76

25 51 76

25 51 76

25 51 76

25 51 76

25 51 76

25 51 76

25 51 76

25 51 76

25 51 76

25 51 76

25 51 76

25 51 76

25 51 76

25 51 76

25 51 76

25 51 76

25 51 76

25 51 76

25 51 76

25 51 76

25 51 76

25 51 76

25 51 76

25 51 76

25 51 76

25 51 76

25 51 76

25 51 76

25 51 76

25 51 76

25 51 76

25 51 76

25 51 76

25 51 76

25 51 76

25 51 76

25 51 76

25 51 76

25 51 76

25 51 76

25 51 76

25 51 76

25 51 76

25 51 76

25 51 76

25 51 76

25 51 76

25 51 76

25 51 76

25 51 76

25 51 76

25 51 76

25 51 76

25 51 76

25 51 76

25 51 76

25 51 76

25 51 76

25 51 76

25 51 76

25 51 76

25 51 76

25 51 76

25 51 76

25 51 76

25 51 76

25 51 76

25 51 76

25 51 76

25 51 76

25 51 76

25 51 76

25 51 76

25 51 76

25 51 76

25 51 76

25 51 76

25 51 76

25 51 76

25 51 76

25 51 76

25 51 76

25 51 76

25 51 76

25 51 76

25 51 76

25 51 76

25 51 76

25 51 76

25 51 76

25 51 76

25 51 76

25 51 76

25 51 76

25 51 76

25 51 76

25 51 76

25 51 76

25 51 76

25 51 76

25 51 76

25 51 76

25 51 76

25 51 76

25 51 76

25 51 76

25 51 76

25 51 76

25 51 76

25 51 76

25 51 76

25 51 76

25 51 76

25 51 76

25 51 76

25 51 76

25 51 76

25 51 76

25 51 76

25 51 76

25 51 76

25 51 76

25 51 76

25 51 76

25 51 76

25 51 76

25 51 76

25 51 76

25 51 76

25 51 76

25 51 76

25 51 76

25 51 76

25 51 76

25 51 76

25 51 76

25 51 76

25 51 76

25 51 76

25 51 76

25 51 76

25 51 76

25 51 76

25 51 76

25 51 76

25 51 76

25 51 76

25 51 76

25 51 76

25 51 76

25 51 76

25 51 76

25 51 76

25 51 76

25 51 76

25 51 76

25 51 76

25 51 76

25 51 76

25 51 76

25 51 76

25 51 76

25 51 76

25 51 76

25 51 76

25 51 76

25 51 76

25 51 76

25 51 76

25 51 76

25 51 76

25 51 76

25 51 76

25 51 76

25 51 76

25 51 76

25 51 76

25 51 76

25 51 76

25 51 76

25 51 76

25 51 76

25 51 76

25 51 76

25 51 76

25 51 76

25 51 76

25 51 76

25 51 76

25 51 76

25 51 76

25 51 76

25 51 76

25 51 76

25 51 76

25 51 76

25 51 76

25 51 76

25 51 76

25 51 76

25 51 76

25 51 76

25 51 76

25 51 76

25 51 76

25 51 76

25 51 76

25 51 76

25 51 76

25 51 76

25 51 76

25 51 76

25 51 76

25 51 76

25 51 76

25 51 76

25 51 76

25 51 76

25 51 76

25 51 76

25 51 76

25 51 76

25 51 76

25 51 76

25 51 76

25 51 76

25 51 76

25 51 76

25 51 76

25 51 76

25 51 76

25 51 76

25 51 76

25 51 76

25 51 76

25 51 76

25 51 76

25 51 76

25 51 76

25 51 76

25 51 76

25 51 76

25 51 76

25 51 76

25 51 76

25 51 76

25 51 76

25 51 76

25 51 76

25 51 76

25 51 76

25 51 76

25 51 76

25 51 76

25 51 76

25 51 76

25 51 76

25 51 76

25 51 76

25 51 76

25 51 76

25 51 76

25 51 76

25 51 76

25 51 76

25 51 76

25 51 76

25 51 76

25 51 76

25 51 76

25 51 76

25 51 76

25 51 76

25 51 76

25 51 76

25 51 76

25 51 76

25 51 76

25 51 76

25 51 76

25 51 76

25 51 76

25 51 76

25 51 76

25 51 76

25 51 76

25 51 76

25 51 76

25 51 76

25 51 76

25 51 76

25 51 76

25 51 76

25 51 76

25 51 76

25 51 76

25 51 76

25 51 76

25 51 76

25 51 76

25 51 76

25 51 76

25 51 76

25 51 76

25 51 76

25 51 76

25 51 76

25 51 76

25 51 76

25 51 76

25 51 76

25 51 76

25 51 76

25 51 76

25 51 76

25 51 76

25 51 76

25 51 76

25 51 76

25 51 76

25 51 76

25 51 76

25 51 76

25 51 76

25 51 76

25 51 76

25 51 76

25 51 76

25 51 76

25 51 76

25 51 76

25 51 76

25 51 76

25 51 76

25 51 76

25 51 76

25 51 76

25 51 76

25 51 76

25 51 76

25 51 76

25 51 76

25 51 76

25 51 76

25 51 76

25 51 76

25 51 76

25 51 76

25 51 76

25 51 76

25 51 76

25 51 76

25 51 76

25 51 76

25 51 76

25 51 76

25 51 76

25 51 76

25 51 76

25 51 76

25 51 76

25 51 76

25 51 76

25 51 76

25 51 76

25 51 76

25 51 76

25 51 76

25 51 76

25 51 76

25 51 76

25 51 76

25 51 76

25 51 76

25 51 76

25 51 76

25 51 76

25 51 76

25 51 76

25 51 76

25 51 76

25 51 76

25 51 76

25 51 76

25 51 76

25 51 76

25 51 76

25 51 76

25 51 76

25 51 76

25 51 76

25 51 76

25 51 76

25 51 76

25 51 76

25 51 76

25 51 76

25 51 76

25 51 76

25 51 76

25 51 76

25 51 76

25 51 76

25 51 76

25 51 76

25 51 76

25 51 76

25 51 76

25 51 76

25 51 76

25 51 76

25 51 76

25 51 76

25 51 76

25 51 76

25 51 76

25 51 76

25 51 76

25 51 76

25 51 76

25 51 76

25 51 76

25 51 76

25 51 76

25 51 76

25 51 76

25 51 76

25 51 76

25 51 76

25 51 76

25 51 76

25 51 76

25 51 76

25 51 76

25 51 76

25 51 76

25 51 76

25 51 76

25 51 76

25 51 76

25 51 76

25 51 76

25 51 76

25 51 76

25 51 76

25 51 76

25 51 76

25 51 76

25 51 76

25 51 76

25 51 76

25 51 76

25 51 76

25 51 76

25 51 76

25 51 76

25 51 76

25 51 76

25 51 76

25 51 76

25 51 76

25 51 76

25 51 76

25 51 76

25 51 76

25 51 76

25 51 76

25 51 76

25 51 76

25 51 76

25 51 76

25 51 76

25 51 76

25 51 76

25 51 76

25 51 76

25 51 76

25 51 76

25 51 76

25 51 76

25 51 76

25 51 76

25 51 76

25 51 76

25 51 76

25 51 76

25 51 76

25 51 76

25 51 76

25 51 76

25 51 76

25 51 76

25 51 76

25 51 76

25 51 76

25 51 76

25 51 76

25 51 76

25 51 76

25 51 76

25 51 76

25 51 76

25 51 76

25 51 76

25 51 76

25 51 76

25 51 76

25 51 76

25 51 76

25 51 76

25 51 76

25 51 76

25 51 76

25 51 76

25 51 76

25 51 76

25 51 76

25 51 76

25 51 76

25 51 76

25 51 76

25 51 76

25 51 76

25 51 76

25 51 76

25 51 76

25 51 76

25 51 76

25 51 76

25 51 76

25 51 76

25 51 76

25 51 76

25 51 76

25 51 76

25 51 76

25 51 76

25 51 76

25 51 76

25 51 76

25 51 76

25 51 76

25 51 76

25 51 76

25 51 76

25 51 76

25 51 76

25 51 76

25 51 76

25 51 76

25 51 76

25 51 76

25 51 76

25 51 76

25 51 76

25 51 76

25 51 76

25 51 76

25 51 76

25 51 76

25 51 76

25 51 76

25 51 76

25 51 76

25 51 76

25 51 76

25 51 76

25 51 76

25 51 76

25 51 76

25 51 76

25 51 76

25 51 76

25 51 76

25 51 76

25 51 76

25 51 76

25 51 76

25 51 76

25 51 76

25 51 76

25 51 76

25 51 76

25 51 76

25 51 76

25 51 76

25 51 76

25 51 76

25 51 76

25 51 76

25 51 76

25 51 76

25 51 76

25 51 76

25 51 76

25 51 76

25 51 76

25 51 76

25 51 76

25 51 76

25 51 76

25 51 76

25 51 76

25 51 76

25 51 76

25 51 76

25 51 76

25 51 76

25 51 76

25 51 76

25 51 76

25 51 76

25 51 76

25 51 76

25 51 76

25 51 76

25 51 76

25 51 76

25 51 76

25 51 76

25 51 76

25 51 76

25 51 76

25 51 76

25 51 76

25 51 76

25 51 76

25 51 76

25 51 76

25 51 76

25 51 76

25 51 76

25 51 76

25 51 76

25 51 76

25 51 76

25 51 76

25 51 76

25 51 76

25 51 76

25 51 76

25 51 76

25 51 76

25 51 76

25 51 76

25 51 76

25 51 76

25 51 76

25 51 76

25 51 76

25 51 76

25 51 76

25 51 76

25 51 76

25 51 76

25 51 76

25 51 76

25 51 76

25 51 76

25 51 76

25 51 76

25 51 76

25 51 76

25 51 76

25 51 76

25 51 76

25 51 76

25 51 76

25 51 76

25 51 76

25 51 76

25 51 76

25 51 76

25 51 76

25 51 76

25 51 76

25 51 76

25 51 76

25 51 76

25 51 76

25 51 76

25 51 76

25 51 76

25 51 76

25 51 76

25 51 76

25 51 76

25 51 76

25 51 76

25 51 76

25 51 76

25 51 76

25 51 76

25 51 76

25 51 76

25 51 76

25 51 76

25 51 76

25 51 76

25 51 76

25 51 76

25 51 76

25 51 76

25 51 76

25 51 76

25 51 76

25 51 76

25 51 76

25 51 76

25 51 76

25 51 76

25 51 76

25 51 76

25 51 76

25 51 76

25 51 76

25 51 76

25 51 76

25 51 76

25 51 76

25 51 76

25 51 76

25 51 76

25 51 76

25 51 76

25 51 76

25 51 76

25 51 76

25 51 76

25 51 76

25 51 76

25 51 76

25 51 76

25 51 76

25 51 76

25 51 76

25 51 76

25 51 76

25 51 76

25 51 76

25 51 76

25 51 76

25 51 76

25 51 76

25 51 76

25 51 76

25 51 76

25 51 76

25 51 76

25 51 76

25 51 76

25 51 76

25 51 76

25 51 76

25 51 76

25 51 76

25 51 76

25 51 76

25 51 76

25 51 76

25 51 76

25 51 76

25 51 76

25 51 76

25 51 76

25 51 76

25 51 76

25 51 76

25 51 76

25 51 76

25 51 76

25 51 76

25 51 76

25 51 76

25 51 76

25 51 76

25 51 76

25 51 76

25 51 76

25 51 76

25 51 76

25 51 76

25 51 76

25 51 76

25 51 76

25 51 76

25 51 76

25 51 76

25 51 76

25 51 76

25 51 76

25 51 76

25 51 76

25 51 76

25 51 76

25 51 76

25 51 76

25 51 76

25 51 76

25 51 76

25 51 76

25 51 76

25 51 76

25 51 76

25 51 76

25 51 76

25 51 76

25 51 76

25 51 76

25 51 76

25 51 76

25 51 76

25 51 76

25 51 76

25 51 76

25 51 76

25 51 76

25 51 76

25 51 76

25 51 76

25 51 76

25 51 76

25 51 76

25 51 76

25 51 76

25 51 76

25 51 76

25 51 76

25 51 76

25 51 76

25 51 76

25 51 76

25 51 76

25 51 76

25 51 76

25 51 76

25 51 76

25 51 76

25 51 76

25 51 76

25 51 76

25 51 76

25 51 76

25 51 76

25 51 76

25 51 76

25 51 76

25 51 76

25 51 76

25 51 76

25 51 76

25 51 76

25 51 76

25 51 76

25 51 76

25 51 76

25 51 76

25 51 76

25 51 76

25 51 76

25 51 76

25 51 76

25 51 76

25 51 76

25 51 76

25 51 76

25 51 76

25 51 76

25 51 76

25 51 76

25 51 76

25 51 76

25 51 76

25 51 76

25 51 76

25 51 76

25 51 76

25 51 76

25 51 76

25 51 76

25 51 76

25 51 76

25 51 76

25 51 76

25 51 76

25 51 76

25 51 76

25 51 76

25 51 76

25 51 76

25 51 76

25 51 76

25 51 76

25 51 76

25 51 76

25 51 76

25 51 76

25 51 76

25 51 76

25 51 76

25 51 76

25 51 76

25 51 76

25 51 76

25 51 76

25 51 76

25 51 76

25 51 76

25 51 76

25 51 76

25 51 76

25 51 76

25 51 76

25 51 76

25 51 76

25 51 76

25 51 76

25 51 76

25 51 76

25 51 76

25 51 76

25 51 76

25 51 76

25 51 76

25 51 76

25 51 76

25 51 76

25 51 76

25 51 76

25 51 76

25 51 76

25 51 76

25 51 76

25 51 76

25 51 76

25 51 76

25 51 76

25 51 76

25 51 76

25 51 76

25 51 76

25 51 76

25 51 76

25 51 76

25 51 76

25 51 76

25 51 76

25 51 76

25 51 76

25 51 76

25 51 76

25 51 76

25 51 76

25 51 76

25 51 76

25 51 76

25 51 76

25 51 76

25 51 76

25 51 76

25 51 76

25 51 76

25 51 76

25 51 76

25 51 76

25 51 76

25 51 76

25 51 76

25 51 76

25 51 76

25 51 76

25 51 76

25 51 76

25 51 76

25 51 76

25 51 76

25 51 76

25 51 76

25 51 76

25 51 76

25 51 76

25 51 76

25 51 76

25 51 76

25 51 76

25 51 76

25 51 76

25 51 76

25 51 76

25 51 76

25 51 76

25 51 76

25 51 76

25 51 76

25 51 76

25 51 76

25 51 76

25 51 76

25 51 76

25 51 76

25 51 76

25 51 76

25 51 76

25 51 76

25 51 76

25 51 76

25 51 76

25 51 76

25 51 76

25 51 76

25 51 76

25 51 76

25 51 76

25 51 76

25 51 76

25 51 76

25 51 76

25 51 76

25 51 76

25 51 76

25 51 76

25 51 76

25 51 76

25 51 76

25 51 76

25 51 76

25 51 76

25 51 76

25 51 76

25 51 76

25 51 76

25 51 76

25 51 76

25 51 76

25 51 76

25 51 76

25 51 76

25 51 76

25 51 76

25 51 76

25 51 76

25 51 76

25 51 76

25 51 76

25 51 76

25 51 76

25 51 76

25 51 76

25 51 76

25 51 76

25 51 76

25 51 76

25 51 76

25 51 76

25 51 76

25 51 76

25 51 76

25 51 76

25 51 76

25 51 76

25 51 76

25 51 76

25 51 76

25 51 76

25 51 76

25 51 76

25 51 76

25 51 76

25 51 76

25 51 76

25 51 76

25 51 76

25 51 76

25 51 76

25 51 76

25 51 76

25 51 76

25 51 76

25 51 76

25 51 76

25 51 76

25 51 76

25 51 76

25 51 76

25 51 76

25 51 76

25 51 76

25 51 76

25 51 76

25 51 76

25 51 76

25 51 76

25 51 76

25 51 76

25 51 76

25 51 76

25 51 76

25 51 76

25 51 76

25 51 76

25 51 76

25 51 76

25 51 76

25 51 76

25 51 76

25 51 76

25 51 76

25 51 76

25 51 76

25 51 76

25 51 76

25 51 76

25 51 76

25 51 76

25 51 76

25 51 76

25 51 76

25 51 76

25 51 76

25 51 76

25 51 76

25 51 76

25 51 76

25 51 76

25 51 76

25 51 76

25 51 76

25 51 76

25 51 76

25 51 76

25 51 76

25 51 76

25 51 76

25 51 76

25 51 76

25 51 76

25 51 76

25 51 76

25 51 76

25 51 76

25 51 76

25 51 76

25 51 76

25 51 76

25 51 76

25 51 76

25 51 76

25 51 76

25 51 76

25 51 76

25 51 76

25 51 76

25 51 76

25 51 76

25 51 76

25 51 76

25 51 76

25 51 76

25 51 76

25 51 76

25 51 76

25 51 76

25 51 76

25 51 76

25 51 76

25 51 76

25 51 76

25 51 76

25 51 76

25 51 76

25 51 76

25 51 76

25 51 76

25 51 76

25 51 76

25 51 76

25 51 76

25 51 76

25 51 76

25 51 76

25 51 76

25 51 76

25 51 76

25 51 76

25 51 76

25 51 76

25 51 76

25 51 76

25 51 76

25 51 76

25 51 76

25 51 76

25 51 76

25 51 76

25 51 76

25 51 76

25 51 76

25 51 76

25 51 76

25 51 76

25 51 76

25 51 76

25 51 76

25 51 76

25 51 76

25 51 76

25 51 76

25 51 76

25 51 76

25 51 76

25 51 76

25 51 76

25 51 76

25 51 76

25 51 76

25 51 76

25 51 76

25 51 76

25 51 76

25 51 76

25 51 76

25 51 76

25 51 76

25 51 76

25 51 76

25 51 76

25 51 76

25 51 76

25 51 76

25 51 76

25 51 76

25 51 76

25 51 76

25 51 76

25 51 76

25 51 76

25 51 76

25 51 76

25 51 76

25 51 76

25 51 76

25 51 76

25 51 76

25 51 76

25 51 76

25 51 76

25 51 76

25 51 76

25 51 76

25 51 76

25 51 76

25 51 76

25 51 76

25 51 76

25 51 76

25 51 76

25 51 76

25 51 76

25 51 76

25 51 76

25 51 76

25 51 76

25 51 76

25 51 76

25 51 76

25 51 76

25 51 76

25 51 76

25 51 76

25 51 76

25 51 76

25 51 76

25 51 76

25 51 76

25 51 76

25 51 76

25 51 76

25 51 76

25 51 76

25 51 76

25 51 76

25 51 76

25 51 76

25 51 76

25 51 76

25 51 76

25 51 76

25 51 76

25 51 76

25 51 76

25 51 76

25 51 76

25 51 76

25 51 76

25 51 76

25 51 76

25 51 76

25 51 76

25 51 76

25 51 76

25 51 76

25 51 76

25 51 76

25 51 76

25 51 76

25 51 76

25 51 76

25 51 76

25 51 76

25 51 76

25 51 76

25 51 76

25 51 76

25 51 76

25 51 76

25 51 76

25 51 76

25 51 76

25 51 76

25 51 76

25 51 76

25 51 76

25 51 76

25 51 76

25 51 76

25 51 76

25 51 76

25 51 76

25 51 76

25 51 76

25 51 76

25 51 76

25 51 76

25 51 76

25 51 76

25 51 76

25 51 76

25 51 76

25 51 76

25 51 76

25 51 76

25 51 76

25 51 76

25 51 76

25 51 76

25 51 76

25 51 76

25 51 76

25 51 76

25 51 76

25 51 76

25 51 76

25 51 76

25 51 76

25 51 76

25 51 76

25 51 76

25 51 76

25 51 76

25 51 76

25 51 76

25 51 76

25 51 76

25 51 76

25 51 76

25 51 76

25 51 76

25 51 76

25 51 76

25 51 76

25 51 76

25 51 76

25 51 76

25 51 76

25 51 76

25 51 76

25 51 76

25 51 76

25 51 76

25 51 76

25 51 76

25 51 76

25 51 76

25 51 76

25 51 76

25 51 76

25 51 76

25 51 76

25 51 76

25 51 76

25 51 76

25 51 76

25 51 76

25 51 76

25 51 76

25 51 76

25 51 76

25 51 76

25 51 76

25 51 76

25 51 76

25 51 76

25 51 76

25 51 76

25 51 76

25 51 76

25 51 76

25 51 76

25 51 76

25 51 76

25 51 76

25 51 76

25 51 76

25 51 76

25 51 76

25 51 76

25 51 76

25 51 76

25 51 76

25 51 76

25 51 76

25 51 76

25 51 76

25 51 76

25 51 76

25 51 76

25 51 76

25 51 76

25 51 76

25 51 76

25 51 76

25 51 76

25 51 76

25 51 76

25 51 76

25 51 76

25 51 76

25 51 76

25 51 76

25 51 76

25 51 76

25 51 76

25 51 76

25 51 76

25 51 76

25 51 76

25 51 76

25 51 76

25 51 76

25 51 76

25 51 76

25 51 76

25 51 76

25 51 76

25 51 76

25 51 76

25 51 76

25 51 76

25 51 76

25 51 76

25 51 76

25 51 76

25 51 76

25 51 76

25 51 76

25 51 76

25 51 76

25 51 76

25 51 76

25 51 76

25 51 76

25 51 76

25 51 76

25 51 76

25 51 76

25 51 76

25 51 76

25 51 76

25 51 76

25 51 76

25 51 76

25 51 76

25 51 76

25 51 76

25 51 76

25 51 76

25 51 76

25 51 76

25 51 76

25 51 76

25 51 76

25 51 76

25 51 76

25 51 76

25 51 76

25 51 76

25 51 76

25 51 76

25 51 76

25 51 76

25 51 76

25 51 76

25 51 76

25 51 76

25 51 76

25 51 76

25 51 76

25 51 76

25 51 76

25 51 76

25 51 76

25 51 76

25 51 76

25 51 76

25 51 76

25 51 76

25 51 76

25 51 76

25 51 76

25 51 76

25 51 76

25 51 76

25 51 76

25 51 76

25 51 76

25 51 76

25 51 76

25 51 76

25 51 76

25 51 76

25 51 76

25 51 76

25 51 76

25 51 76

25 51 76

25 51 76

25 51 76

25 51 76

25 51 76

25 51 76

25 51 76

25 51 76

25 51 76

25 51 76

25 51 76

25 51 76

25 51 76

25 51 76

25 51 76

25 51 76

25 51 76

25 51 76

25 51 76

25 51 76

25 51 76

25 51 76

25 51 76

25 51 76

25 51 76

25 51 76

25 51 76

25 51 76

25 51 76

25 51 76

25 51 76

25 51 76

25 51 76

25 51 76

25 51 76

25 51 76

25 51 76

25 51 76

25 51 76

25 51 76

25 51 76

25 51 76

25 51 76

25 51 76

25 51 76

25 51 76

25 51 76

25 51 76

25 51 76

25 51 76

25 51 76

25 51 76

25 51 76

25 51 76

25 51 76

25 51 76

25 51 76

25 51 76

25 51 76

25 51 76

25 51 76

25 51 76

25 51 76

25 51 76

25 51 76

25 51 76

25 51 76

25 51 76

25 51 76

25 51 76

25 51 76

25 51 76

25 51 76

25 51 76

25 51 76

25 51 76

25 51 76

25 51 76

25 51 76

25 51 76

25 51 76

25 51 76

25 51 76

25 51 76

25 51 76

25 51 76

25 51 76

25 51 76

25 51 76

25 51 76

25 51 76

25 51 76

25 51 76

25 51 76

25 51 76

25 51 76

25 51 76

25 51 76

25 51 76

25 51 76

25 51 76

25 51 76

25 51 76

25 51 76

25 51 76

25 51 76

25 51 76

25 51 76

25 51 76

25 51 76

25 51 76

25 51 76

25 51 76

25 51 76

25 51 76

25 51 76

25 51 76

25 51 76

25 51 76

25 51 76

25 51 76

25 51 76

25 51 76

25 51 76

25 51 76

25 51 76

25 51 76

25 51 76

25 51 76

25 51 76

25 51 76

25 51 76

25 51 76

25 51 76

25 51 76

25 51 76

25 51 76

25 51 76

25 51 76

25 51 76

25 51 76

25 51 76

25 51 76

25 51 76

25 51 76

25 51 76

25 51 76

25 51 76

25 51 76

25 51 76

25 51 76

25 51 76

25 51 76

25 51 76

25 51 76

25 51 76

25 51 76

25 51 76

25 51 76

25 51 76

25 51 76

25 51 76

25 51 76

25 51 76

25 51 76

25 51 76

25 51 76

25 51 76

25 51 76

25 51 76

25 51 76

25 51 76

25 51 76

25 51 76

25 51 76

25 51 76

25 51 76

25 51 76

25 51 76

25 51 76

25 51 76

25 51 76

25 51 76

25 51 76

25 51 76

25 51 76

25 51 76

25 51 76

25 51 76

25 51 76

25 51 76

25 51 76

25 51 76

25 51 76

25 51 76

25 51 76

25 51 76

25 51 76

25 51 76

25 51 76

25 51 76

25 51 76

25 51 76

25 51 76

25 51 76

25 51 76

25 51 76

25 51 76

25 51 76

25 51 76

25 51 76

25 51 76

25 51 76

25 51 76

25 51 76

25 51 76

25 51 76

25 51 76

25 51 76

25 51 76

25 51 76

25 51 76

25 51 76

25 51 76

25 51 76

25 51 76

25 51 76

25 51 76

25 51 76

25 51 76

25 51 76

25 51 76

25 51 76

25 51 76

25 51 76

25 51 76

25 51 76

25 51 76

25 51 76

25 51 76

25 51 76

25 51 76

25 51 76

25 51 76

25 51 76

25 51 76

25 51 76

25 51 76

25 51 76

25 51 76

25 51 76

25 51 76

25 51 76

25 51 76

25 51 76

25 51 76

25 51 76

25 51 76

25 51 76

25 51 76

25 51 76

25 51 76

25 51 76

25 51 76

25 51 76

25 51 76

25 51 76

25 51 76

25 51 76

25 51 76

25 51 76

25 51 76

25 51 76

25 51 76

25 51 76

25 51 76

25 51 76

25 51 76

25 51 76

25 51 76

25 51 76

25 51 76

25 51 76

25 51 76

25 51 76

25 51 76

25 51 76

25 51 76

25 51 76

25 51 76

25 51 76

25 51 76

25 51 76

25 51 76

25 51 76

25 51 76

25 51 76

25 51 76

25 51 76

25 51 76

25 51 76

25 51 76

25 51 76

25 51 76

25 51 76

25 51 76

25 51 76

25 51 76

25 51 76

25 51 76

25 51 76

25 51 76

25 51 76

25 51 76

25 51 76

25 51 76

25 51 76

25 51 76

25 51 76

25 51 76

25 51 76

25 51 76

25 51 76

25 51 76

25 51 76

25 51 76

25 51 76

25 51 76

25 51 76

25 51 76

25 51 76

25 51 76

25 51 76

25 51 76

25 51 76

25 51 76

25 51 76

25 51 76

25 51 76

25 51 76

25 51 76

25 51 76

25 51 76

25 51 76

25 51 76

25 51 76

25 51 76

25 51 76

25 51 76

25 51 76

25 51 76

25 51 76

25 51 76

25 51 76

25 51 76

25 51 76

25 51 76

25 51 76

25 51 76

25 51 76

25 51 76

25 51 76

25 51 76

25 51 76

25 51 76

25 51 76

25 51 76

25 51 76

25 51 76

25 51 76

25 51 76

25 51 76

25 51 76

25 51 76

25 51 76

25 51 76

25 51 76

25 51 76

25 51 76

25 51 76

25 51 76

25 51 76

25 51 76

25 51 76

25 51 76

25 51 76

25 51 76

25 51 76

25 51 76

25 51 76

25 51 76

25 51 76

25 51 76

25 51 76

25 51 76

25 51 76

25 51 76

25 51 76

25 51 76

25 51 76

25 51 76

25 51 76

25 51 76

25 51 76

25 51 76

25 51 76

25 51 76

25 51 76

25 51 76

25 51 76

25 51 76

25 51 76

25 51 76

25 51 76

25 51 76

25 51 76

25 51 76

25 51 76

25 51 76

25 51 76

25 51 76

25 51 76

25 51 76

25 51 76

25 51 76

25 51 76

25 51 76

25 51 76

25 51 76

25 51 76

25 51 76

25 51 76

25 51 76

25 51 76

25 51 76

25 51 76

25 51 76

25 51 76

25 51 76

25 51 76

25 51 76

25 51 76

25 51 76

25 51 76

25 51 76

25 51 76

25 51 76

25 51 76

25 51 76

25 51 76

25 51 76

25 51 76

25 51 76

25 51 76

25 51 76

25 51 76

25 51 76

25 51 76

25 51 76

25 51 76

25 51 76

25 51 76

25 51 76

25 51 76

25 51 76

25 51 76

25 51 76

25 51 76

25 51 76

25 51 76

25 51 76

25 51 76

25 51 76

25 51 76

25 51 76

25 51 76

25 51 76

25 51 76

25 51 76

25 51 76

25 51 76

25 51 76

25 51 76

25 51 76

25 51 76

25 51 76

25 51 76

25 51 76

25 51 76

25 51 76

25 51 76

25 51 76

25 51 76

25 51 76

25 51 76

25 51 76

25 51 76

25 51 76

25 51 76

25 51 76

25 51 76

25 51 76

25 51 76

25 51 76

25 51 76

25 51 76

25 51 76

25 51 76

25 51 76

25 51 76

25 51 76

25 51 76

25 51 76

25 51 76

25 51 76

25 51 76

25 51 76

25 51 76

25 51 76

25 51 76

25 51 76

25 51 76

25 51 76

25 51 76

25 51 76

25 51 76

25 51 76

25 51 76

25 51 76

25 51 76

25 51 76

25 51 76

25 51 76

25 51 76

25 51 76

25 51 76

25 51 76

25 51 76

25 51 76

25 51 76

25 51 76

25 51 76

25 51 76

25 51 76

25 51 76

25 51 76

25 51 76

25 51 76

25 51 76

25 51 76

25 51 76

25 51 76

25 51 76

25 51 76

25 51 76

25 51 76

25 51 76

25 51 76

25 51 76

25 51 76

25 51 76

25 51 76

25 51 76

25 51 76

25 51 76

25 51 76

25 51 76

25 51 76

25 51 76

25 51 76

25 51 76

25 51 76

25 51 76

25 51 76

25 51 76

25 51 76

25 51 76

25 51 76

25 51 76

25 51 76

25 51 76

25 51 76

25 51 76

25 51 76

25 51 76

25 51 76

25 51 76

25 51 76

25 51 76

25 51 76

25 51 76

25 51 76

25 51 76

25 51 76

25 51 76

25 51 76

25 51 76

25 51 76

25 51 76

25 51 76

25 51 76

25 51 76

25 51 76

25 51 76

25 51 76

25 51 76

25 51 76

25 51 76

25 51 76

25 51 76

25 51 76

25 51 76

25 51 76

25 51 76

25 51 76

25 51 76

25 51 76

25 51 76

25 51 76

25 51 76

25 51 76

25 51 76

25 51 76

25 51 76

25 51 76

25 51 76

25 51 76

25 51 76

25 51 76

25 51 76

25 51 76

25 51 76

25 51 76

25 51 76

25 51 76

25 51 76

25 51 76

25 51 76

25 51 76

25 51 76

25 51 76

25 51 76

25 51 76

25 51 76

25 51 76

25 51 76

25 51 76

25 51 76

25 51 76

25 51 76

25 51 76

25 51 76

25 51 76

25 51 76

25 51 76

25 51 76

25 51 76

25 51 76

25 51 76

25 51 76

25 51 76

25 51 76

25 51 76

25 51 76

25 51 76

25 51 76

25 51 76

25 51 76

25 51 76

25 51 76

25 51 76

25 51 76

25 51 76

25 51 76

25 51 76

25 51 76

25 51 76

25 51 76

25 51 76

25 51 76

25 51 76

25 51 76

25 51 76

25 51 76

25 51 76

25 51 76

25 51 76

25 51 76

25 51 76

25 51 76

25 51 76

25 51 76

25 51 76

25 51 76

25 51 76

25 51 76

25 51 76

25 51 76

25 51 76

25 51 76

25 51 76

25 51 76

25 51 76

25 51 76

25 51 76

25 51 76

25 51 76

25 51 76

25 51 76

25 51 76

25 51 76

25 51 76

25 51 76

25 51 76

25 51 76

25 51 76

25 51 76

25 51 76

25 51 76

25 51 76

25 51 76

25 51 76

25 51 76

25 51 76

25 51 76

25 51 76

25 51 76

25 51 76

25 51 76

25 51 76

25 51 76

25 51 76

25 51 76

25 51 76

25 51 76

25 51 76

25 51 76

25 51 76

25 51 76

25 51 76

25 51 76

25 51 76

25 51 76

25 51 76

25 51 76

25 51 76

25 51 76

25 51 76

25 51 76

25 51 76

25 51 76

25 51 76

25 51 76

25 51 76

25 51 76

25 51 76

25 51 76

25 51 76

25 51 76

25 51 76

25 51 76

25 51 76

25 51 76

25 51 76

25 51 76

25 51 76

25 51 76

25 51 76

25 51 76

25 51 76

25 51 76

25 51 76

25 51 76

25 51 76

25 51 76

25 51 76

25 51 76

25 51 76

25 51 76

25 51 76

25 51 76

25 51 76

25 51 76

25 51 76

25 51 76

25 51 76

25 51 76

25 51 76

25 51 76

25 51 76

25 51 76

25 51 76

25 51 76

25 51 76

25 51 76

25 51 76

25 51 76

25 51 76

25 51 76

25 51 76

25 51 76

25 51 76

25 51 76

25 51 76

25 51 76

25 51 76

25 51 76

25 51 76

25 51 76

25 51 76

25 51 76

25 51 76

25 51 76

25 51 76

25 51 76

25 51 76

25 51 76

25 51 76

25 51 76

25 51 76

25 51 76

25 51 76

25 51 76

25 51 76

25 51 76

25 51 76

25 51 76

25 51 76

25 51 76

25 51 76

25 51 76

25 51 76

25 51 76

25 51 76

25 51 76

25 51 76

25 51 76

25 51 76

25 51 76

25 51 76

25 51 76

25 51 76

25 51 76

25 51 76

25 51 76

25 51 76

25 51 76

25 51 76

25 51 76

25 51 76

25 51 76

25 51 76

25 51 76

25 51 76

25 51 76

25 51 76

25 51 76

25 51 76

25 51 76

25 51 76

25 51 76

25 51 76

25 51 76

25 51 76

25 51 76

25 51 76

25 51 76

25 51 76

25 51 76

25 51 76

25 51 76

25 51 76

25 51 76

25 51 76

25 51 76

25 51 76

25 51 76

25 51 76

25 51 76

25 51 76

25 51 76

25 51 76

25 51 76

25 51 76

25 51 76

25 51 76

25 51 76

25 51 76

25 51 76

25 51 76

25 51 76

25 51 76

25 51 76

25 51 76

25 51 76

25 51 76

25 51 76

25 51 76

25 51 76

25 51 76

25 51 76

25 51 76

25 51 76

25 51 76

25 51 76

25 51 76

25 51 76

25 51 76

25 51 76

25 51 76

25 51 76

25 51 76

25 51 76

25 51 76

25 51 76

25 51 76

25 51 76

25 51 76

25 51 76

25 51 76

25 51 76

25 51 76

25 51 76

25 51 76

25 51 76

25 51 76

25 51 76

25 51 76

25 51 76

25 51 76

25 51 76

25 51 76

25 51 76

25 51 76

25 51 76

25 51 76

25 51 76

25 51 76

25 51 76

25 51 76

25 51 76

25 51 76

25 51 76

25 51 76

25 51 76

25 51 76

25 51 76

25 51 76

25 51 76

25 51 76

25 51 76

25 51 76

25 51 76

25 51 76

25 51 76

25 51 76

25 51 76

25 51 76

25 51 76

25 51 76

25 51 76

25 51 76

25 51 76

25 51 76

25 51 76

25 51 76

25 51 76

25 51 76

25 51 76

25 51 76

25 51 76

25 51 76

25 51 76

25 51 76

25 51 76

25 51 76

25 51 76

25 51 76

25 51 76

25 51 76

25 51 76

25 51 76

25 51 76

25 51 76

25 51 76

25 51 76

25 51 76

25 51 76

25 51 76

25 51 76

25 51 76

25 51 76

25 51 76

25 51 76

25 51 76

25 51 76

25 51 76

25 51 76

25 51 76

25 51 76

25 51 76

25 51 76

25 51 76

25 51 76

25 51 76

25 51 76

25 51 76

25 51 76

25 51 76

25 51 76

25 51 76

25 51 76

25 51 76

25 51 76

25 51 76

25 51 76

25 51 76

25 51 76

25 51 76

25 51 76

25 51 76

25 51 76

25 51 76

25 51 76

25 51 76

25 51 76

25 51 76

25 51 76

25 51 76

25 51 76

25 51 76

25 51 76

25 51 76

25 51 76

25 51 76

25 51 76

25 51 76

25 51 76

25 51 76

25 51 76

25 51 76

25 51 76

25 51 76

25 51 76

25 51 76

25 51 76

25 51 76

25 51 76

25 51 76

25 51 76

25 51 76

25 51 76

25 51 76

25 51 76

25 51 76

25 51 76

25 51 76

25 51 76

25 51 76

25 51 76

25 51 76

25 51 76

25 51 76

25 51 76

25 51 76

25 51 76

25 51 76

25 51 76

25 51 76

25 51 76

25 51 76

25 51 76

25 51 76

25 51 76

25 51 76

25 51 76

25 51 76

25 51 76

25 51 76

25 51 76

25 51 76

25 51 76

25 51 76

25 51 76

25 51 76

25 51 76

25 51 76

25 51 76

25 51 76

25 51 76

25 51 76

25 51 76

25 51 76

25 51 76

25 51 76

25 51 76

25 51 76

25 51 76

25 51 76

25 51 76

25 51 76

25 51 76

25 51 76

25 51 76

25 51 76

25 51 76

25 51 76

25 51 76

25 51 76

25 51 76

25 51 76

25 51 76

25 51 76

25 51 76

25 51 76

25 51 76

25 51 76

25 51 76

25 51 76

25 51 76

25 51 76

25 51 76

25 51 76

25 51 76

25 51 76

25 51 76

25 51 76

25 51 76

25 51 76

25 51 76

25 51 76

25 51 76

25 51 76

25 51 76

25 51 76

25 51 76

25 51 76

25 51 76

25 51 76

25 51 76

25 51 76

25 51 76

25 51 76

25 51 76

25 51 76

25 51 76

25 51 76

25 51 76

25 51 76

25 51 76

25 51 76

25 51 76

25 51 76

25 51 76

25 51 76

25 51 76

25 51 76

25 51 76

25 51 76

25 51 76

25 51 76

25 51 76

25 51 76

25 51 76

25 51 76

25 51 76

25 51 76

25 51 76

25 51 76

25 51 76

25 51 76

25 51 76

25 51 76

25 51 76

25 51 76

25 51 76

25 51 76

25 51 76

25 51 76

25 51 76

25 51 76

25 51 76

25 51 76

25 51 76

25 51 76

25 51 76

25 51 76

25 51 76

25 51 76

25 51 76

25 51 76

25 51 76

25 51 76

25 51 76

25 51 76

25 51 76

25 51 76

25 51 76

25 51 76

25 51 76

25 51 76

25 51 76

25 51 76

25 51 76

25 51 76

25 51 76

25 51 76

25 51 76

25 51 76

25 51 76

25 51 76

25 51 76

25 51 76

25 51 76

25 51 76

25 51 76

25 51 76

25 51 76

25 51 76

25 51 76

25 51 76

25 51 76

25 51 76

25 51 76

25 51 76

25 51 76

25 51 76

25 51 76

25 51 76

25 51 76

25 51 76

25 51 76

25 51 76

25 51 76

25 51 76

25 51 76

25 51 76

25 51 76

25 51 76

25 51 76

25 51 76

25 51 76

25 51 76

25 51 76

25 51 76

25 51 76

25 51 76

25 51 76

25 51 76

25 51 76

25 51 76

25 51 76

25 51 76

25 51 76

25 51 76

25 51 76

25 51 76

25 51 76

25 51 76

25 51 76

25 51 76

25 51 76

25 51 76

25 51 76

25 51 76

25 51 76

25 51 76

25 51 76

25 51 76

25 51 76

25 51 76

25 51 76

25 51 76

25 51 76

25 51 76

25 51 76

25 51 76

25 51 76

25 51 76

25 51 76

25 51 76

25 51 76

25 51 76

25 51 76

25 51 76

25 51 76

25 51 76

25 51 76

25 51 76

25 51 76

25 51 76

25 51 76

25 51 76

25 51 76

25 51 76

25 51 76

25 51 76

25 51 76

25 51 76

25 51 76

25 51 76

25 51 76

25 51 76

25 51 76

25 51 76

25 51 76

25 51 76

25 51 76

25 51 76

25 51 76

25 51 76

25 51 76

25 51 76

25 51 76

25 51 76

25 51 76

25 51 76

25 51 76

25 51 76

25 51 76

25 51 76

25 51 76

25 51 76

25 51 76

25 51 76

25 51 76

25 51 76

25 51 76

25 51 76

25 51 76

25 51 76

25 51 76

25 51 76

25 51 76

25 51 76

25 51 76

25 51 76

25 51 76

25 51 76

25 51 76

25 51 76

25 51 76

25 51 76

25 51 76

25 51 76

25 51 76

25 51 76

25 51 76

25 51 76

25 51 76

25 51 76

25 51 76

25 51 76

25 51 76

25 51 76

25 51 76

25 51 76

25 51 76

25 51 76

25 51 76

25 51 76

25 51 76

25 51 76

25 51 76

25 51 76

25 51 76

25 51 76

25 51 76

25 51 76

25 51 76

25 51 76

25 51 76

25 51 76

25 51 76

25 51 76

25 51 76

25 51 76

25 51 76

25 51 76

25 51 76

25 51 76

25 51 76

25 51 76

25 51 76

25 51 76

25 51 76

25 51 76

25 51 76

25 51 76

25 51 76

25 51 76

25 51 76

25 51 76

25 51 76

25 51 76

25 51 76

25 51 76

25 51 76

25 51 76

25 51 76

25 51 76

25 51 76

25 51 76

25 51 76

25 51 76

25 51 76

25 51 76

25 51 76

25 51 76

25 51 76

25 51 76

25 51 76

25 51 76

25 51 76

25 51 76

25 51 76

25 51 76

25 51 76

25 51 76

25 51 76

25 51 76

25 51 76

25 51 76

25 51 76

25 51 76

25 51 76

25 51 76

25 51 76

25 51 76

25 51 76

25 51 76

25 51 76

25 51 76

25 51 76

25 51 76

25 51 76

25 51 76

25 51 76

25 51 76

25 51 76

25 51 76

25 51 76

25 51 76

25 51 76

25 51 76

25 51 76

25 51 76

25 51 76

25 51 76

25 51 76

25 51 76

25 51 76

25 51 76

25 51 76

25 51 76

25 51 76

25 51 76

25 51 76

25 51 76

25 51 76

25 51 76

25 51 76

25 51 76

25 51 76

25 51 76

25 51 76

25 51 76

25 51 76

25 51 76

25 51 76

25 51 76

25 51 76

25 51 76

25 51 76

25 51 76

25 51 76

25 51 76

25 51 76

25 51 76

25 51 76

25 51 76

25 51 76

25 51 76

25 51 76

25 51 76

25 51 76

25 51 76

25 51 76

25 51 76

25 51 76

25 51 76

25 51 76

25 51 76

25 51 76

25 51 76

25 51 76

25 51 76

25 51 76

25 51 76

25 51 76

25 51 76

25 51 76

25 51 76

25 51 76

25 51 76

25 51 76

25 51 76

25 51 76

25 51 76

25 51 76

25 51 76

25 51 76

25 51 76

25 51 76

25 51 76

25 51 76

25 51 76

25 51 76

25 51 76

25 51 76

25 51 76

25 51 76

25 51 76

25 51 76

25 51 76

25 51 76

25 51 76

25 51 76

25 51 76

25 51 76

25 51 76

25 51 76

25 51 76

25 51 76

25 51 76

25 51 76

25 51 76

25 51 76

25 51 76

25 51 76

25 51 76

25 51 76

25 51 76

25 51 76

25 51 76

25 51 76

25 51 76

25 51 76

25 51 76

25 51 76

25 51 76

25 51 76

25 51 76

25 51 76

25 51 76

25 51 76

25 51 76

25 51 76

25 51 76

25 51 76

25 51 76

25 51 76

25 51 76

25 51 76

25 51 76

25 51 76

25 51 76

25 51 76

25 51 76

25 51 76

25 51 76

25 51 76

25 51 76

25 51 76

25 51 76

25 51 76

25 51 76

25 51 76

25 51 76

25 51 76

25 51 76

25 51 76

25 51 76

25 51 76

25 51 76

25 51 76

25 51 76

25 51 76

25 51 76

25 51 76

25 51 76

25 51 76

25 51 76

25 51 76

25 51 76

25 51 76

25 51 76

25 51 76

25 51 76

25 51 76

25 51 76

25 51 76

25 51 76

25 51 76

25 51 76

25 51 76

25 51 76

25 51 76

25 51 76

25 51 76

25 51 76

25 51 76

25 51 76

25 51 76

25 51 76

25 51 76

25 51 76

25 51 76

25 51 76

25 51 76

25 51 76

25 51 76

25 51 76

25 51 76

25 51 76

25 51 76

25 51 76

25 51 76

25 51 76

25 51 76

25 51 76

25 51 76

25 51 76

25 51 76

25 51 76

25 51 76

25 51 76

25 51 76

25 51 76

25 51 76

25 51 76

25 51 76

25 51 76

25 51 76

25 51 76

25 51 76

25 51 76

25 51 76

25 51 76

25 51 76

25 51 76

25 51 76

25 51 76

25 51 76

25 51 76

25 51 76

25 51 76

25 51 76

25 51 76

25 51 76

25 51 76

25 51 76

25 51 76

25 51 76

25 51 76

25 51 76

25 51 76

25 51 76

25 51 76

25 51 76

25 51 76

25 51 76

25 51 76

25 51 76

25 51 76

25 51 76

25 51 76

25 51 76

25 51 76

25 51 76

25 51 76

25 51 76

25 51 76

25 51 76

25 51 76

25 51 76

25 51 76

25 51 76

25 51 76

25 51 76

25 51 76

25 51 76

25 51 76

25 51 76

25 51 76

25 51 76

25 51 76

25 51 76

25 51 76

25 51 76

25 51 76

25 51 76

25 51 76

25 51 76

25 51 76

25 51 76

25 51 76

25 51 76

25 51 76

25 51 76

25 51 76

25 51 76

25 51 76

25 51 76

25 51 76

25 51 76

25 51 76

25 51 76

25 51 76

25 51 76

25 51 76

25 51 76

25 51 76

25 51 76

25 51 76

25 51 76

25 51 76

25 51 76

25 51 76

25 51 76

25 51 76

25 51 76

25 51 76

25 51 76

25 51 76

25 51 76

25 51 76

25 51 76

25 51 76

25 51 76

25 51 76

25 51 76

25 51 76

25 51 76

25 51 76

25 51 76

25 51 76

25 51 76

25 51 76

25 51 76

25 51 76

25 51 76

25 51 76

25 51 76

25 51 76

25 51 76

25 51 76

25 51 76

25 51 76

25 51 76

25 51 76

25 51 76

25 51 76

25 51 76

25 51 76

25 51 76

25 51 76

25 51 76

25 51 76

25 51 76

25 51 76

25 51 76

25 51 76

25 51 76

25 51 76

25 51 76

25 51 76

25 51 76

25 51 76

25 51 76

25 51 76

25 51 76

25 51 76

25 51 76

25 51 76

25 51 76

25 51 76

25 51 76

25 51 76

25 51 76

25 51 76

25 51 76

25 51 76

25 51 76

25 51 76

25 51 76

25 51 76

25 51 76

25 51 76

25 51 76

25 51 76

25 51 76

25 51 76

25 51 76

25 51 76

25 51 76

25 51 76

25 51 76

25 51 76

25 51 76

25 51 76

25 51 76

25 51 76

25 51 76

25 51 76

25 51 76

25 51 76

25 51 76

25 51 76

25 51 76

25 51 76

25 51 76

25 51 76

25 51 76

25 51 76

25 51 76

25 51 76

25 51 76

25 51 76

25 51 76

25 51 76

25 51 76

25 51 76

25 51 76

25 51 76

25 51 76

25 51 76

25 51 76

25 51 76

25 51 76

25 51 76

25 51 76

25 51 76

25 51 76

25 51 76

25 51 76

25 51 76

25 51 76

25 51 76

25 51 76

25 51 76

25 51 76

25 51 76

25 51 76

25 51 76

25 51 76

25 51 76

25 51 76

25 51 76

25 51 76

25 51 76

25 51 76

25 51 76

25 51 76

25 51 76

25 51 76

25 51 76

25 51 76

25 51 76

25 51 76

25 51 76

25 51 76

25 51 76

25 51 76

25 51 76

25 51 76

25 51 76

25 51 76

25 51 76

25 51 76

25 51 76

25 51 76

25 51 76

25 51 76

25 51 76

25 51 76

25 51 76

25 51 76

25 51 76

25 51 76

25 51 76

25 51 76

25 51 76

25 51 76

25 51 76

25 51 76

25 51 76

25 51 76

25 51 76

25 51 76

25 51 76

25 51 76

25 51 76

25 51 76

25 51 76

25 51 76

25 51 76

25 51 76

25 51 76

25 51 76

25 51 76

25 51 76

25 51 76

25 51 76

25 51 76

25 51 76

25 51 76

25 51 76

25 51 76

25 51 76

25 51 76

25 51 76

25 51 76

25 51 76

25 51 76

25 51 76

25 51 76

25 51 76

25 51 76

25 51 76

25 51 76

25 51 76

25 51 76

25 51 76

25 51 76

25 51 76

25 51 76

25 51 76

25 51 76

25 51 76

25 51 76

25 51 76

25 51 76

25 51 76

25 51 76

25 51 76

25 51 76

25 51 76

25 51 76

25 51 76

25 51 76

25 51 76

25 51 76

25 51 76

25 51 76

25 51 76

25 51 76

25 51 76

25 51 76

25 51 76

25 51 76

25 51 76

25 51 76

25 51 76

25 51 76

25 51 76

25 51 76

25 51 76

25 51 76

25 51 76

25 51 76

25 51 76

25 51 76

25 51 76

25 51 76

25 51 76

25 51 76

25 51 76

25 51 76

25 51 76

25 51 76

25 51 76

25 51 76

25 51 76

25 51 76

25 51 76

25 51 76

25 51 76

25 51 76

25 51 76

25 51 76

25 51 76

25 51 76

25 51 76

25 51 76

25 51 76

25 51 76

25 51 76

25 51 76

25 51 76

25 51 76

25 51 76

25 51 76

25 51 76

25 51 76

25 51 76

25 51 76

25 51 76

25 51 76

25 51 76

25 51 76

25 51 76

25 51 76

25 51 76

25 51 76

25 51 76

25 51 76

25 51 76

25 51 76

25 51 76

25 51 76

25 51 76

25 51 76

25 51 76

25 51 76

25 51 76

25 51 76

25 51 76

25 51 76

25 51 76

25 51 76

25 51 76

25 51 76

25 51 76

25 51 76

25 51 76

25 51 76

25 51 76

25 51 76

25 51 76

25 51 76

25 51 76

25 51 76

25 51 76

25 51 76

25 51 76

25 51 76

25 51 76

25 51 76

25 51 76

25 51 76

25 51 76

25 51 76

25 51 76

25 51 76

25 51 76

25 51 76

25 51 76

25 51 76

25 51 76

25 51 76

25 51 76

25 51 76

25 51 76

25 51 76

25 51 76

25 51 76

25 51 76

25 51 76

25 51 76

25 51 76

25 51 76

25 51 76

25 51 76

25 51 76

25 51 76

25 51 76

25 51 76

25 51 76

25 51 76

25 51 76

25 51 76

25 51 76

25 51 76

25 51 76

25 51 76

25 51 76

25 51 76

25 51 76

25 51 76

25 51 76

25 51 76

25 51 76

25 51 76

25 51 76

25 51 76

25 51 76

25 51 76

25 51 76

25 51 76

25 51 76

25 51 76

25 51 76

25 51 76

25 51 76

25 51 76

25 51 76

25 51 76

25 51 76

25 51 76

25 51 76

25 51 76

25 51 76

25 51 76

25 51 76

25 51 76

25 51 76

25 51 76

25 51 76

25 51 76

25 51 76

25 51 76

25 51 76

25 51 76

25 51 76

25 51 76

25 51 76

25 51 76

25 51 76

25 51 76

25 51 76

25 51 76

25 51 76

25 51 76

25 51 76

25 51 76

25 51 76

25 51 76

25 51 76

25 51 76

25 51 76

25 51 76

25 51 76

25 51 76

25 51 76

25 51 76

25 51 76

25 51 76

25 51 76

25 51 76

25 51 76

25 51 76

25 51 76

25 51 76

25 51 76

25 51 76

25 51 76

25 51 76

25 51 76

25 51 76

25 51 76

25 51 76

25 51 76

25 51 76

25 51 76

25 51 76

25 51 76

25 51 76

25 51 76

25 51 76

25 51 76

25 51 76

25 51 76

25 51 76

25 51 76

25 51 76

25 51 76

25 51 76

25 51 76

25 51 76

25 51 76

25 51 76

25 51 76

25 51 76

25 51 76

25 51 76

25 51 76

25 51 76

25 51 76

25 51 76

25 51 76

25 51 76

25 51 76

25 51 76

25 51 76

25 51 76

25 51 76

25 51 76

25 51 76

25 51 76

25 51 76

25 51 76

25 51 76

25 51 76

25 51 76

25 51 76

25 51 76

25 51 76

25 51 76

25 51 76

25 51 76

25 51 76

25 51 76

25 51 76

25 51 76

25 51 76

25 51 76

25 51 76

25 51 76

25 51 76

25 51 76

25 51 76

25 51 76

25 51 76

25 51 76

25 51 76

25 51 76

25 51 76

25 51 76

25 51 76

25 51 76

25 51 76

25 51 76

25 51 76

25 51 76

25 51 76

25 51 76

25 51 76

25 51 76

25 51 76

25 51 76

25 51 76

25 51 76

25 51 76

25 51 76

25 51 76

25 51 76

25 51 76

25 51 76

25 51 76

25 51 76

25 51 76

25 51 76

25 51 76

25 51 76

25 51 76

25 51 76

25 51 76

25 51 76

25 51 76

25 51 76

25 51 76

25 51 76

25 51 76

25 51 76

25 51 76

25 51 76

25 51 76

25 51 76

25 51 76

25 51 76

25 51 76

25 51 76

25 51 76

25 51 76

25 51 76

25 51 76

25 51 76

25 51 76

25 51 76

25 51 76

25 51 76

25 51 76

25 51 76

25 51 76

25 51 76

25 51 76

25 51 76

25 51 76

25 51 76

25 51 76

25 51 76

25 51 76

25 51 76

25 51 76

25 51 76

25 51 76

25 51 76

25 51 76

25 51 76

25 51 76

25 51 76

25 51 76

25 51 76

25 51 76

25 51 76

25 51 76

25 51 76

25 51 76

25 51 76

25 51 76

25 51 76

25 51 76

25 51 76

25 51 76

25 51 76

25 51 76

25 51 76

25 51 76

25 51 76

25 51 76

25 51 76

25 51 76

25 51 76

25 51 76

25 51 76

25 51 76

25 51 76

25 51 76

25 51 76

25 51 76

25 51 76

25 51 76

25 51 76

25 51 76

25 51 76

25 51 76

25 51 76

25 51 76

25 51 76

25 51 76

25 51 76

25 51 76

25 51 76

25 51 76

25 51 76

25 51 76

25 51 76

25 51 76

25 51 76

25 51 76

25 51 76

25 51 76

25 51 76

25 51 76

25 51 76

25 51 76

25 51 76

25 51 76

25 51 76

25 51 76

25 51 76

25 51 76

25 51 76

25 51 76

25 51 76

25 51 76

25 51 76

25 51 76

25 51 76

25 51 76

25 51 76

25 51 76

25 51 76

25 51 76

25 51 76

25 51 76

25 51 76

25 51 76

25 51 76

25 51 76

25 51 76

25 51 76

25 51 76

25 51 76

25 51 76

25 51 76

25 51 76

25 51 76

25 51 76

25 51 76

25 51 76

25 51 76

25 51 76

25 51 76

25 51 76

25 51 76

25 51 76

25 51 76

25 51 76

25 51 76

25 51 76

25 51 76

25 51 76

25 51 76

25 51 76

25 51 76

25 51 76

25 51 76

25 51 76

25 51 76

25 51 76

25 51 76

25 51 76

25 51 76

25 51 76

25 51 76

25 51 76

25 51 76

25 51 76

25 51 76

25 51 76

25 51 76

25 51 76

25 51 76

25 51 76

25 51 76

25 51 76

25 51 76

25 51 76

25 51 76

25 51 76

25 51 76

25 51 76

25 51 76

25 51 76

25 51 76

25 51 76

25 51 76

25 51 76

25 51 76

25 51 76

25 51 76

25 51 76

25 51 76

25 51 76

25 51 76

25 51 76

25 51 76

25 51 76

25 51 76

25 51 76

25 51 76

25 51 76

25 51 76

25 51 76

25 51 76

25 51 76

25 51 76

25 51 76

25 51 76

25 51 76

25 51 76

25 51 76

25 51 76

25 51 76

25 51 76

25 51 76

25 51 76

25 51 76

25 51 76

25 51 76

25 51 76

25 51 76

25 51 76

25 51 76

25 51 76

25 51 76

25 51 76

25 51 76

25 51 76

25 51 76

25 51 76

25 51 76

25 51 76

25 51 76

25 51 76

25 51 76

25 51 76

25 51 76

25 51 76

25 51 76

25 51 76

25 51 76

25 51 76

25 51 76

25 51 76

25 51 76

25 51 76

25 51 76

25 51 76

25 51 76

25 51 76

25 51 76

25 51 76

25 51 76

25 51 76

25 51 76

25 51 76

25 51 76

25 51 76

25 51 76

25 51 76

25 51 76

25 51 76

25 51 76

25 51 76

25 51 76

25 51 76

25 51 76

25 51 76

25 51 76

25 51 76

25 51 76

25 51 76

25 51 76

25 51 76

25 51 76

25 51 76

25 51 76

25 51 76

25 51 76

25 51 76

25 51 76

25 51 76

25 51 76

25 51 76

25 51 76

25 51 76

25 51 76

25 51 76

25 51 76

25 51 76

25 51 76

25 51 76

25 51 76

25 51 76

25 51 76

25 51 76

25 51 76

25 51 76

25 51 76

25 51 76

25 51 76

25 51 76

25 51 76

25 51 76

25 51 76

25 51 76

25 51 76

25 51 76

25 51 76

25 51 76

25 51 76

25 51 76

25 51 76

25 51 76

25 51 76

25 51 76

25 51 76

25 51 76

25 51 76

25 51 76

25 51 76

25 51 76

25 51 76

25 51 76

25 51 76

25 51 76

25 51 76

25 51 76

25 51 76

25 51 76

25 51 76

25 51 76

25 51 76

25 51 76

25 51 76

25 51 76

25 51 76

25 51 76

25 51 76

25 51 76

25 51 76

25 51 76

25 51 76

25 51 76

25 51 76

25 51 76

25 51 76

25 51 76

25 51 76

25 51 76

25 51 76

25 51 76

25 51 76

25 51 76

25 51 76

25 51 76

25 51 76

25 51 76

25 51 76

25 51 76

25 51 76

25 51 76

25 51 76

25 51 76

25 51 76

25 51 76

25 51 76

25 51 76

25 51 76

25 51 76

25 51 76

25 51 76

25 51 76

25 51 76

25 51 76

25 51 76

25 51 76

25 51 76

25 51 76

25 51 76

25 51 76

25 51 76

25 51 76

25 51 76

25 51 76

25 51 76

25 51 76

25 51 76

25 51 76

25 51 76

25 51 76

25 51 76

25 51 76

25 51 76

25 51 76

25 51 76

25 51 76

25 51 76

25 51 76

25 51 76

25 51 76

25 51 76

25 51 76

25 51 76

25 51 76

25 51 76

25 51 76

25 51 76

25 51 76

25 51 76

25 51 76

25 51 76

25 51 76

25 51 76

25 51 76

25 51 76

25 51 76

25 51 76

25 51 76

25 51 76

25 51 76

25 51 76

25 51 76

25 51 76

25 51 76

25 51 76

25 51 76

25 51 76

25 51 76

25 51 76

25 51 76

25 51 76

25 51 76

25 51 76

25 51 76

25 51 76

25 51 76

25 51 76

25 51 76

25 51 76

25 51 76

25 51 76

25 51 76

25 51 76

25 51 76

25 51 76

25 51 76

25 51 76

25 51 76

25 51 76

25 51 76

25 51 76

25 51 76

25 51 76

25 51 76

25 51 76

25 51 76

25 51 76

25 51 76

25 51 76

25 51 76

25 51 76

25 51 76

25 51 76

25 51 76

25 51 76

25 51 76

25 51 76

25 51 76

25 51 76

25 51 76

25 51 76

25 51 76

25 51 76

25 51 76

25 51 76

25 51 76

25 51 76

25 51 76

25 51 76

25 51 76

25 51 76

25 51 76

25 51 76

25 51 76

25 51 76

25 51 76

25 51 76

25 51 76

25 51 76

25 51 76

25 51 76

25 51 76

25 51 76

25 51 76

25 51 76

25 51 76

25 51 76

25 51 76

25 51 76

25 51 76

25 51 76

25 51 76

25 51 76

25 51 76

25 51 76

25 51 76

25 51 76

25 51 76

25 51 76

25 51 76

25 51 76

25 51 76

25 51 76

25 51 76

25 51 76

25 51 76

25 51 76

25 51 76

25 51 76

25 51 76

25 51 76

25 51 76

25 51 76

25 51 76

25 51 76

25 51 76

25 51 76

25 51 76

25 51 76

25 51 76

25 51 76

25 51 76

25 51 76

25 51 76

25 51 76

25 51 76

25 51 76

25 51 76

25 51 76

25 51 76

25 51 76

25 51 76

25 51 76

25 51 76

25 51 76

25 51 76

25 51 76

25 51 76

25 51 76

25 51 76

25 51 76

25 51 76

25 51 76

25 51 76

25 51 76

25 51 76

25 51 76

25 51 76

25 51 76

25 51 76

25 51 76

25 51 76

25 51 76

25 51 76

25 51 76

25 51 76

25 51 76

25 51 76

25 51 76

25 51 76

25 51 76

25 51 76

25 51 76

25 51 76

25 51 76

25 51 76

25 51 76

25 51 76

25 51 76

25 51 76

25 51 76

25 51 76

25 51 76

25 51 76

25 51 76

25 51 76

25 51 76

25 51 76

25 51 76

25 51 76

25 51 76

25 51 76

25 51 76

25 51 76

25 51 76

25 51 76

25 51 76

25 51 76

25 51 76

25 51 76

25 51 76

25 51 76

25 51 76

25 51 76

25 51 76

25 51 76

25 51 76

25 51 76

25 51 76

25 51 76

25 51 76

25 51 76

25 51 76

25 51 76

25 51 76

25 51 76

25 51 76

25 51 76

25 51 76

25 51 76

25 51 76

25 51 76

25 51 76

25 51 76

25 51 76

25 51 76

25 51 76

25 51 76

25 51 76

25 51 76

25 51 76

25 51 76

25 51 76

25 51 76

25 51 76

25 51 76

25 51 76

25 51 76

25 51 76

25 51 76

25 51 76

25 51 76

25 51 76

25 51 76

25 51 76

25 51 76

25 51 76

25 51 76

25 51 76

25 51 76

25 51 76

25 51 76

25 51 76

25 51 76

25 51 76

25 51 76

25 51 76

25 51 76

25 51 76

25 51 76

25 51 76

25 51 76

25 51 76

25 51 76

25 51 76

25 51 76

25 51 76

25 51 76

25 51 76

25 51 76

25 51 76

25 51 76

25 51 76

25 51 76

25 51 76

25 51 76

25 51 76

25 51 76

25 51 76

25 51 76

25 51 76

25 51 76

25 51 76

25 51 76

25 51 76

25 51 76

25 51 76

25 51 76

25 51 76

25 51 76

25 51 76

25 51 76

25 51 76

25 51 76

25 51 76

25 51 76

25 51 76

25 51 76

25 51 76

25 51 76

25 51 76

25 51 76

25 51 76

25 51 76

25 51 76

25 51 76

25 51 76

25 51 76

25 51 76

25 51 76

25 51 76

25 51 76

25 51 76

25 51 76

25 51 76

25 51 76

25 51 76

25 51 76

25 51 76

25 51 76

25 51 76

25 51 76

25 51 76

25 51 76

25 51 76

25 51 76

25 51 76

25 51 76

25 51 76

25 51 76

25 51 76

25 51 76

25 51 76

25 51 76

25 51 76

25 51 76

25 51 76

25 51 76

25 51 76

25 51 76

25 51 76

25 51 76

25 51 76

25 51 76

25 51 76

25 51 76

25 51 76

25 51 76

25 51 76

25 51 76

25 51 76

25 51 76

25 51 76

25 51 76

25 51 76

25 51 76

25 51 76

25 51 76

25 51 76

25 51 76

25 51 76

25 51 76

25 51 76

25 51 76

25 51 76

25 51 76

25 51 76

25 51 76

25 51 76

25 51 76

25 51 76

25 51 76

25 51 76

25 51 76

25 51 76

25 51 76

25 51 76

25 51 76

25 51 76

25 51 76

25 51 76

25 51 76

25 51 76

25 51 76

25 51 76

25 51 76

25 51 76

25 51 76

25 51 76

25 51 76

25 51 76

25 51 76

25 51 76

25 51 76

25 51 76

25 51 76

25 51 76

25 51 76

25 51 76

25 51 76

25 51 76

25 51 76

25 51 76

25 51 76

25 51 76

25 51 76

25 51 76

25 51 76

25 51 76

25 51 76

25 51 76

25 51 76

25 51 76

25 51 76

25 51 76

25 51 76

25 51 76

25 51 76

25 51 76

25 51 76

25 51 76

25 51 76

25 51 76

25 51 76

25 51 76

25 51 76

25 51 76

25 51 76

25 51 76

25 51 76

25 51 76

25 51 76

25 51 76

25 51 76

25 51 76

25 51 76

25 51 76

25 51 76

25 51 76

25 51 76

25 51 76

25 51 76

25 51 76

25 51 76

25 51 76

25 51 76

25 51 76

25 51 76

25 51 76

25 51 76

25 51 76

25 51 76

25 51 76

25 51 76

25 51 76

25 51 76

25 51 76

25 51 76

25 51 76

25 51 76

25 51 76

25 51 76

25 51 76

25 51 76

25 51 76

25 51 76

25 51 76

25 51 76

25 51 76

25 51 76

25 51 76

25 51 76

25 51 76

25 51 76

25 51 76

25 51 76

25 51 76

25 51 76

25 51 76

25 51 76

25 51 76

25 51 76

25 51 76

25 51 76

25 51 76

25 51 76

25 51 76

25 51 76

25 51 76

25 51 76

25 51 76

25 51 76

25 51 76

25 51 76

25 51 76

25 51 76

25 51 76

25 51 76

25 51 76

25 51 76

25 51 76

25 51 76

25 51 76

25 51 76

25 51 76

25 51 76

25 51 76

25 51 76

25 51 76

25 51 76

25 51 76

25 51 76

25 51 76

25 51 76

25 51 76

25 51 76

25 51 76

25 51 76

25 51 76

25 51 76

25 51 76

25 51 76

25 51 76

25 51 76

25 51 76

25 51 76

25 51 76

25 51 76

25 51 76

25 51 76

25 51 76

25 51 76

25 51 76

25 51 76

25 51 76

25 51 76

25 51 76

25 51 76

25 51 76

25 51 76

25 51 76

25 51 76

25 51 76

25 51 76

25 51 76

25 51 76

25 51 76

25 51 76

25 51 76

25 51 76

25 51 76

25 51 76

25 51 76

25 51 76

25 51 76

25 51 76

25 51 76

25 51 76

25 51 76

25 51 76

25 51 76

25 51 76

25 51 76

25 51 76

25 51 76

25 51 76

25 51 76

25 51 76

25 51 76

25 51 76

25 51 76

25 51 76

25 51 76

25 51 76

25 51 76

25 51 76

25 51 76

25 51 76

25 51 76

25 51 76

25 51 76

25 51 76

25 51 76

25 51 76

25 51 76

25 51 76

25 51 76

25 51 76

25 51 76

25 51 76

25 51 76

25 51 76

25 51 76

25 51 76

25 51 76

25 51 76

25 51 76

25 51 76

25 51 76

25 51 76

25 51 76

25 51 76

25 51 76

25 51 76

25 51 76

25 51 76

25 51 76

25 51 76

25 51 76

25 51 76

25 51 76

25 51 76

25 51 76

25 51 76

25 51 76

25 51 76

25 51 76

25 51 76

25 51 76

25 51 76

25 51 76

25 51 76

25 51 76

25 51 76

25 51 76

25 51 76

25 51 76

25 51 76

25 51 76

25 51 76

25 51 76

25 51 76

25 51 76

25 51 76

25 51 76

25 51 76

25 51 76

25 51 76

25 51 76

25 51 76

25 51 76

25 51 76

25 51 76

25 51 76

25 51 76

25 51 76

25 51 76

25 51 76

25 51 76

25 51 76

25 51 76

25 51 76

25 51 76

25 51 76

25 51 76

25 51 76

25 51 76

25 51 76

25 51 76

25 51 76

25 51 76

25 51 76

25 51 76

25 51 76

25 51 76

25 51 76

25 51 76

25 51 76

25 51 76

25 51 76

25 51 76

25 51 76

25 51 76

25 51 76

25 51 76

25 51 76

25 51 76

25 51 76

25 51 76

25 51 76

25 51 76

25 51 76

25 51 76

25 51 76

25 51 76

25 51 76

25 51 76

25 51 76

25 51 76

25 51 76

25 51 76

25 51 76

25 51 76

25 51 76

25 51 76

25 51 76

25 51 76

25 51 76

25 51 76

25 51 76

25 51 76

25 51 76

25 51 76

25 51 76

25 51 76

25 51 76

25 51 76

25 51 76

25 51 76

25 51 76

25 51 76

25 51 76

25 51 76

25 51 76

25 51 76

25 51 76

25 51 76

25 51 76

25 51 76

25 51 76

25 51 76

25 51 76

25 51 76

25 51 76

25 51 76

25 51 76

25 51 76

25 51 76

25 51 76

25 51 76

25 51 76

25 51 76

25 51 76

25 51 76

25 51 76

25 51 76

25 51 76

25 51 76

25 51 76

25 51 76

25 51 76

25 51 76

25 51 76

25 51 76

25 51 76

25 51 76

25 51 76

25 51 76

25 51 76

25 51 76

25 51 76

25 51 76

25 51 76

25 51 76

25 51 76

25 51 76

25 51 76

25 51 76

25 51 76

25 51 76

25 51 76

25 51 76

25 51 76

25 51 76

25 51 76

25 51 76

25 51 76

25 51 76

25 51 76

25 51 76

25 51 76

25 51 76

25 51 76

25 51 76

25 51 76

25 51 76

25 51 76

25 51 76

25 51 76

25 51 76

25 51 76

25 51 76

25 51 76

25 51 76

25 51 76

25 51 76

25 51 76

25 51 76

25 51 76

25 51 76

25 51 76

25 51 76

25 51 76

25 51 76

25 51 76

25 51 76

25 51 76

25 51 76

25 51 76

25 51 76

25 51 76

25 51 76

25 51 76

25 51 76

25 51 76

25 51 76

25 51 76

25 51 76

25 51 76

25 51 76

25 51 76

25 51 76

25 51 76

25 51 76

25 51 76

25 51 76

25 51 76

25 51 76

25 51 76

25 51 76

25 51 76

25 51 76

25 51 76

25 51 76

25 51 76

25 51 76

25 51 76

25 51 76

25 51 76

25 51 76

25 51 76

25 51 76

25 51 76

25 51 76

25 51 76

25 51 76

25 51 76

25 51 76

25 51 76

25 51 76

25 51 76

25 51 76

25 51 76

25 51 76

25 51 76

25 51 76

25 51 76

25 51 76

25 51 76

25 51 76

25 51 76

25 51 76

25 51 76

25 51 76

25 51 76

25 51 76

25 51 76

25 51 76

25 51 76

25 51 76

25 51 76

25 51 76

25 51 76

25 51 76

25 51 76

25 51 76

25 51 76

25 51 76

25 51 76

25 51 76

25 51 76

25 51 76

25 51 76

25 51 76

25 51 76

25 51 76

25 51 76

25 51 76

25 51 76

25 51 76

25 51 76

25 51 76

25 51 76

25 51 76

25 51 76

25 51 76

25 51 76

25 51 76

25 51 76

25 51 76

25 51 76

25 51 76

25 51 76

25 51 76

25 51 76

25 51 76

25 51 76

25 51 76

25 51 76

25 51 76

25 51 76

25 51 76

25 51 76

25 51 76

25 51 76

25 51 76

25 51 76

25 51 76

25 51 76

25 51 76

25 51 76

25 51 76

25 51 76

25 51 76

25 51 76

25 51 76

25 51 76

25 51 76

25 51 76

25 51 76

25 51 76

25 51 76

25 51 76

25 51 76

25 51 76

25 51 76

25 51 76

25 51 76

25 51 76

25 51 76

25 51 76

25 51 76

25 51 76

25 51 76

25 51 76

25 51 76

25 51 76

25 51 76

25 51 76

25 51 76

25 51 76

25 51 76

25 51 76

25 51 76

25 51 76

25 51 76

25 51 76

25 51 76

25 51 76

25 51 76

25 51 76

25 51 76

25 51 76

25 51 76

25 51 76

25 51 76

25 51 76

25 51 76

25 51 76

25 51 76

25 51 76

25 51 76

25 51 76

25 51 76

25 51 76

25 51 76

25 51 76

25 51 76

25 51 76

25 51 76

25 51 76

25 51 76

25 51 76

25 51 76

25 51 76

25 51 76

25 51 76

25 51 76

25 51 76

25 51 76

25 51 76

25 51 76

25 51 76

25 51 76

25 51 76

25 51 76

25 51 76

25 51 76

25 51 76

25 51 76

25 51 76

25 51 76

25 51 76

25 51 76

25 51 76

25 51 76

25 51 76

25 51 76

25 51 76

25 51 76

25 51 76

25 51 76

25 51 76

25 51 76

25 51 76

25 51 76

25 51 76

25 51 76

25 51 76

25 51 76

25 51 76

25 51 76

25 51 76

25 51 76

25 51 76

25 51 76

25 51 76

25 51 76

25 51 76

25 51 76

25 51 76

25 51 76

25 51 76

25 51 76

25 51 76

25 51 76

25 51 76

25 51 76

25 51 76

25 51 76

25 51 76

25 51 76

25 51 76

25 51 76

25 51 76

25 51 76

25 51 76

25 51 76

25 51 76

25 51 76

25 51 76

25 51 76

25 51 76

25 51 76

25 51 76

25 51 76

25 51 76

25 51 76

25 51 76

25 51 76

25 51 76

25 51 76

25 51 76

25 51 76

25 51 76

25 51 76

25 51 76

25 51 76

25 51 76

25 51 76

25 51 76

25 51 76

25 51 76

25 51 76

25 51 76

25 51 76

25 51 76

25 51 76

25 51 76

25 51 76

25 51 76

25 51 76

25 51 76

25 51 76

25 51 76

25 51 76

25 51 76

25 51 76

25 51 76

25 51 76

25 51 76

25 51 76

25 51 76

25 51 76

25 51 76

25 51 76

25 51 76

25 51 76

25 51 76

25 51 76

25 51 76

25 51 76

25 51 76

25 51 76

25 51 76

25 51 76

25 51 76

25 51 76

25 51 76

25 51 76

25 51 76

25 51 76

25 51 76

25 51 76

25 51 76

25 51 76

25 51 76

25 51 76

25 51 76

25 51 76

25 51 76

25 51 76

25 51 76

25 51 76

25 51 76

25 51 76

25 51 76

25 51 76

25 51 76

25 51 76

25 51 76

25 51 76

25 51 76

25 51 76

25 51 76

25 51 76

25 51 76

25 51 76

25 51 76

25 51 76

25 51 76

25 51 76

25 51 76

25 51 76

25 51 76

25 51 76

25 51 76

25 51 76

25 51 76

25 51 76

25 51 76

25 51 76

25 51 76

25 51 76

25 51 76

25 51 76

25 51 76

25 51 76

25 51 76

25 51 76

25 51 76

25 51 76

25 51 76

25 51 76

25 51 76

25 51 76

25 51 76

25 51 76

25 51 76

25 51 76

25 51 76

25 51 76

25 51 76

25 51 76

25 51 76

25 51 76

25 51 76

25 51 76

25 51 76

25 51 76

25 51 76

25 51 76

25 51 76

25 51 76

25 51 76

25 51 76

25 51 76

25 51 76

25 51 76

25 51 76

25 51 76

25 51 76

25 51 76

25 51 76

25 51 76

25 51 76

25 51 76

25 51 76

25 51 76

25 51 76

25 51 76

25 51 76

25 51 76

25 51 76

25 51 76

25 51 76

25 51 76

25 51 76

25 51 76

25 51 76

25 51 76

25 51 76

25 51 76

25 51 76

25 51 76

25 51 76

25 51 76

25 51 76

25 51 76

25 51 76

25 51 76

25 51 76

25 51 76

25 51 76

25 51 76

25 51 76

25 51 76

25 51 76

25 51 76

25 51 76

25 51 76

25 51 76

25 51 76

25 51 76

25 51 76

25 51 76

25 51 76

25 51 76

25 51 76

25 51 76

25 51 76

25 51 76

25 51 76

25 51 76

25 51 76

25 51 76

25 51 76

25 51 76

25 51 76

25 51 76

25 51 76

25 51 76

25 51 76

25 51 76

25 51 76

25 51 76

25 51 76

25 51 76

25 51 76

25 51 76

25 51 76

25 51 76

25 51 76

25 51 76

25 51 76

25 51 76

25 51 76

25 51 76

25 51 76

25 51 76

25 51 76

25 51 76

25 51 76

25 51 76

25 51 76

25 51 76

25 51 76

25 51 76

25 51 76

25 51 76

25 51 76

25 51 76

25 51 76

25 51 76

25 51 76

25 51 76

25 51 76

25 51 76

25 51 76

25 51 76

25 51 76

25 51 76

25 51 76

25 51 76

25 51 76

25 51 76

25 51 76

25 51 76

25 51 76

25 51 76

25 51 76

25 51 76

25 51 76

25 51 76

25 51 76

25 51 76

25 51 76

25 51 76

25 51 76

25 51 76

25 51 76

25 51 76

25 51 76

25 51 76

25 51 76

25 51 76

25 51 76

25 51 76

25 51 76

25 51 76

25 51 76

25 51 76

25 51 76

25 51 76

25 51 76

25 51 76

25 51 76

25 51 76

25 51 76

25 51 76

25 51 76

25 51 76

25 51 76

25 51 76

25 51 76

25 51 76

25 51 76

25 51 76

25 51 76

25 51 76

25 51 76

25 51 76

25 51 76

25 51 76

25 51 76

25 51 76

25 51 76

25 51 76

25 51 76

25 51 76

25 51 76

25 51 76

25 51 76

25 51 76

25 51 76

25 51 76

25 51 76

25 51 76

25 51 76

25 51 76

25 51 76

25 51 76

25 51 76

25 51 76

25 51 76

25 51 76

25 51 76

25 51 76

25 51 76

25 51 76

25 51 76

25 51 76

25 51 76

25 51 76

25 51 76

25 51 76

25 51 76

25 51 76

25 51 76

25 51 76

25 51 76

25 51 76

25 51 76

25 51 76

25 51 76

25 51 76

25 51 76

25 51 76

25 51 76

25 51 76

25 51 76

25 51 76

25 51 76

25 51 76

25 51 76

25 51 76

25 51 76

25 51 76

25 51 76

25 51 76

25 51 76

25 51 76

25 51 76

25 51 76

25 51 76

25 51 76

25 51 76

25 51 76

25 51 76

25 51 76

25 51 76

25 51 76

25 51 76

25 51 76

25 51 76

25 51 76

25 51 76

25 51 76

25 51 76

25 51 76

25 51 76

25 51 76

25 51 76

25 51 76

25 51 76

25 51 76

25 51 76

25 51 76

25 51 76

25 51 76

25 51 76

25 51 76

25 51 76

25 51 76

25 51 76

25 51 76

25 51 76

25 51 76

25 51 76

25 51 76

25 51 76

25 51 76

25 51 76

25 51 76

25 51 76

25 51 76

25 51 76

25 51 76

25 51 76

25 51 76

25 51 76

25 51 76

25 51 76

25 51 76

25 51 76

25 51 76

25 51 76

25 51 76

25 51 76

25 51 76

25 51 76

25 51 76

25 51 76

25 51 76

25 51 76

25 51 76

25 51 76

25 51 76

25 51 76

25 51 76

25 51 76

25 51 76

25 51 76

25 51 76

25 51 76

25 51 76

25 51 76

25 51 76

25 51 76

25 51 76

25 51 76

25 51 76

25 51 76

25 51 76

25 51 76

25 51 76

25 51 76

25 51 76

25 51 76

25 51 76

25 51 76

25 51 76

25 51 76

25 51 76

25 51 76

25 51 76

25 51 76

25 51 76

25 51 76

25 51 76

25 51 76

25 51 76

25 51 76

25 51 76

25 51 76

25 51 76

25 51 76

25 51 76

25 51 76

25 51 76

25 51 76

25 51 76

25 51 76

25 51 76

25 51 76

25 51 76

25 51 76

25 51 76

25 51 76

25 51 76

25 51 76

25 51 76

25 51 76

25 51 76

25 51 76

25 51 76

25 51 76

25 51 76

25 51 76

25 51 76

25 51 76

25 51 76

25 51 76

25 51 76

25 51 76

25 51 76

25 51 76

25 51 76

25 51 76

25 51 76

25 51 76

25 51 76

25 51 76

25 51 76

25 51 76

25 51 76

25 51 76

25 51 76

25 51 76

25 51 76

25 51 76

25 51 76

25 51 76

25 51 76

25 51 76

25 51 76

25 51 76

25 51 76

25 51 76

25 51 76

25 51 76

25 51 76

25 51 76

25 51 76

25 51 76

25 51 76

25 51 76

25 51 76

25 51 76

25 51 76

25 51 76

25 51 76

25 51 76

25 51 76

25 51 76

25 51 76

25 51 76

25 51 76

25 51 76

25 51 76

25 51 76

25 51 76

25 51 76

25 51 76

25 51 76

25 51 76

25 51 76

25 51 76

25 51 76

25 51 76

25 51 76

25 51 76

25 51 76

25 51 76

25 51 76

25 51 76

25 51 76

25 51 76

25 51 76

25 51 76

25 51 76

25 51 76

25 51 76

25 51 76

25 51 76

25 51 76

25 51 76

25 51 76

25 51 76

25 51 76

25 51 76

25 51 76

25 51 76

25 51 76

25 51 76

25 51 76

25 51 76

25 51 76

25 51 76

25 51 76

25 51 76

25 51 76

25 51 76

25 51 76

25 51 76

25 51 76

25 51 76

25 51 76

25 51 76

25 51 76

25 51 76

25 51 76

25 51 76

25 51 76

25 51 76

25 51 76

25 51 76

25 51 76

25 51 76

25 51 76

25 51 76

25 51 76

25 51 76

25 51 76

25 51 76

25 51 76

25 51 76

25 51 76

25 51 76

25 51 76

25 51 76

25 51 76

25 51 76

25 51 76

25 51 76

25 51 76

25 51 76

25 51 76

25 51 76

25 51 76

25 51 76

25 51 76

25 51 76

25 51 76

25 51 76

25 51 76

25 51 76

25 51 76

25 51 76

25 51 76

25 51 76

25 51 76

25 51 76

25 51 76

25 51 76

25 51 76

25 51 76

25 51 76

25 51 76

25 51 76

25 51 76

25 51 76

25 51 76

25 51 76

25 51 76

25 51 76

25 51 76

25 51 76

25 51 76

25 51 76

25 51 76

25 51 76

25 51 76

25 51 76

25 51 76

25 51 76

25 51 76

25 51 76

25 51 76

25 51 76

25 51 76

25 51 76

25 51 76

25 51 76

25 51 76

25 51 76

25 51 76

25 51 76

25 51 76

25 51 76

25 51 76

25 51 76

25 51 76

25 51 76

25 51 76

25 51 76

25 51 76

25 51 76

25 51 76

25 51 76

25 51 76

25 51 76

25 51 76

25 51 76

25 51 76

25 51 76

25 51 76

25 51 76

25 51 76

25 51 76

25 51 76

25 51 76

25 51 76

25 51 76

25 51 76

25 51 76

25 51 76

25 51 76

25 51 76

25 51 76

25 51 76

25 51 76

25 51 76

25 51 76

25 51 76

25 51 76

25 51 76

25 51 76

25 51 76

25 51 76

25 51 76

25 51 76

25 51 76

25 51 76

25 51 76

25 51 76

25 51 76

25 51 76

25 51 76

25 51 76

25 51 76

25 51 76

25 51 76

25 51 76

25 51 76

25 51 76

25 51 76

25 51 76

25 51 76

25 51 76

25 51 76

25 51 76

25 51 76

25 51 76

25 51 76

25 51 76

25 51 76

25 51 76

25 51 76

25 51 76

25 51 76

25 51 76

25 51 76

25 51 76

25 51 76

25 51 76

25 51 76

25 51 76

25 51 76

25 51 76

25 51 76

25 51 76

25 51 76

25 51 76

25 51 76

25 51 76

25 51 76

25 51 76

25 51 76

25 51 76

25 51 76

25 51 76

25 51 76

25 51 76

25 51 76

25 51 76

25 51 76

25 51 76

25 51 76

25 51 76

25 51 76

25 51 76

25 51 76

25 51 76

25 51 76

25 51 76

25 51 76

25 51 76

25 51 76

25 51 76

25 51 76

25 51 76

25 51 76

25 51 76

25 51 76

25 51 76

25 51 76

25 51 76

25 51 76

25 51 76

25 51 76

25 51 76

25 51 76

25 51 76

25 51 76

25 51 76

25 51 76

25 51 76

25 51 76

25 51 76

25 51 76

25 51 76

25 51 76

25 51 76

25 51 76

25 51 76

25 51 76

25 51 76

25 51 76

25 51 76

25 51 76

25 51 76

25 51 76

25 51 76

25 51 76

25 51 76

25 51 76

25 51 76

25 51 76

25 51 76

25 51 76

25 51 76

25 51 76

25 51 76

25 51 76

25 51 76

25 51 76

25 51 76

25 51 76

25 51 76

25 51 76

25 51 76

25 51 76

25 51 76

25 51 76

25 51 76

25 51 76

25 51 76

25 51 76

25 51 76

25 51 76

25 51 76

25 51 76

25 51 76

25 51 76

25 51 76

25 51 76

25 51 76

25 51 76

25 51 76

25 51 76

25 51 76

25 51 76

25 51 76

25 51 76

25 51 76

25 51 76

25 51 76

25 51 76

25 51 76

25 51 76

25 51 76

25 51 76

25 51 76

25 51 76

25 51 76

25 51 76

25 51 76

25 51 76

25 51 76

25 51 76

25 51 76

25 51 76

25 51 76

25 51 76

25 51 76

25 51 76

25 51 76

25 51 76

25 51 76

25 51 76

25 51 76

25 51 76

25 51 76

25 51 76

25 51 76

25 51 76

25 51 76

25 51 76

25 51 76

25 51 76

25 51 76

25 51 76

25 51 76

25 51 76

25 51 76

25 51 76

25 51 76

25 51 76

25 51 76

25 51 76

25 51 76

25 51 76

25 51 76

25 51 76

25 51 76

25 51 76

25 51 76

25 51 76

25 51 76

25 51 76

25 51 76

25 51 76

25 51 76

25 51 76

25 51 76

25 51 76

25 51 76

25 51 76

25 51 76

25 51 76

25 51 76

25 51 76

25 51 76

25 51 76

25 51 76

25 51 76

25 51 76

25 51 76

25 51 76

25 51 76

25 51 76

25 51 76

25 51 76

25 51 76

25 51 76

25 51 76

25 51 76

25 51 76

25 51 76

25 51 76

25 51 76

25 51 76

25 51 76

25 51 76

25 51 76

25 51 76

25 51 76

25 51 76

25 51 76

25 51 76

25 51 76

25 51 76

25 51 76

25 51 76

25 51 76

25 51 76

25 51 76

25 51 76

25 51 76

25 51 76

25 51 76

25 51 76

25 51 76

25 51 76

25 51 76

25 51 76

25 51 76

25 51 76

25 51 76

25 51 76

25 51 76

25 51 76

25 51 76

25 51 76

25 51 76

25 51 76

25 51 76

25 51 76

25 51 76

25 51 76

25 51 76

25 51 76

25 51 76

25 51 76

25 51 76

25 51 76

25 51 76

25 51 76

25 51 76

25 51 76

25 51 76

25 51 76

25 51 76

25 51 76

25 51 76

25 51 76

25 51 76

25 51 76

25 51 76

25 51 76

25 51 76

25 51 76

25 51 76

25 51 76

25 51 76

25 51 76

25 51 76

25 51 76

25 51 76

25 51 76

25 51 76

25 51 76

25 51 76

25 51 76

25 51 76

25 51 76

25 51 76

25 51 76

25 51 76

25 51 76

25 51 76

25 51 76

25 51 76

25 51 76

25 51 76

25 51 76

25 51 76

25 51 76

25 51 76

25 51 76

25 51 76

25 51 76

25 51 76

25 51 76

25 51 76

25 51 76

25 51 76

25 51 76

25 51 76

25 51 76

25 51 76

25 51 76

25 51 76

25 51 76

25 51 76

25 51 76

25 51 76

25 51 76

25 51 76

25 51 76

25 51 76

25 51 76

25 51 76

25 51 76

25 51 76

25 51 76

25 51 76

25 51 76

25 51 76

25 51 76

25 51 76

25 51 76

25 51 76

25 51 76

25 51 76

25 51 76

25 51 76

25 51 76

25 51 76

25 51 76

25 51 76

25 51 76

25 51 76

25 51 76

25 51 76

25 51 76

25 51 76

25 51 76

25 51 76

25 51 76

25 51 76

25 51 76

25 51 76

25 51 76

25 51 76

25 51 76

25 51 76

25 51 76

25 51 76

25 51 76

25 51 76

25 51 76

25 51 76

25 51 76

25 51 76

25 51 76

25 51 76

25 51 76

25 51 76

25 51 76

25 51 76

25 51 76

25 51 76

25 51 76

25 51 76

25 51 76

25 51 76

25 51 76

25 51 76

25 51 76

25 51 76

25 51 76

25 51 76

25 51 76

25 51 76

25 51 76

25 51 76

25 51 76

25 51 76

25 51 76

25 51 76

25 51 76

25 51 76

25 51 76

25 51 76

25 51 76

25 51 76

25 51 76

25 51 76

25 51 76

25 51 76

25 51 76

25 51 76

25 51 76

25 51 76

25 51 76

25 51 76

25 51 76

25 51 76

25 51 76

25 51 76

25 51 76

25 51 76

25 51 76

25 51 76

25 51 76

25 51 76

25 51 76

25 51 76

25 51 76

25 51 76

25 51 76

25 51 76

25 51 76

25 51 76

25 51 76

25 51 76

25 51 76

25 51 76

25 51 76

25 51 76

25 51 76

25 51 76

25 51 76

25 51 76

25 51 76

25 51 76

25 51 76

25 51 76

25 51 76

25 51 76

25 51 76

25 51 76

25 51 76

25 51 76

25 51 76

25 51 76

25 51 76

25 51 76

25 51 76

25 51 76

25 51 76

25 51 76

25 51 76

25 51 76

25 51 76

25 51 76

25 51 76

25 51 76

25 51 76

25 51 76

25 51 76

25 51 76

25 51 76

25 51 76

25 51 76

25 51 76

25 51 76

25 51 76

25 51 76

25 51 76

25 51 76

25 51 76

25 51 76

25 51 76

25 51 76

25 51 76

25 51 76

25 51 76

25 51 76

25 51 76

25 51 76

25 51 76

25 51 76

25 51 76

25 51 76

25 51 76

25 51 76

25 51 76

25 51 76

25 51 76

25 51 76

25 51 76

25 51 76

25 51 76

25 51 76

25 51 76

25 51 76

25 51 76

25 51 76

25 51 76

25 51 76

25 51 76

25 51 76

25 51 76

25 51 76

25 51 76

25 51 76

25 51 76

25 51 76

25 51 76

25 51 76

25 51 76

25 51 76

25 51 76

25 51 76

25 51 76

25 51 76

25 51 76

25 51 76

25 51 76

25 51 76

25 51 76

25 51 76

25 51 76

25 51 76

25 51 76

25 51 76

25 51 76

25 51 76

25 51 76

25 51 76

25 51 76

25 51 76

25 51 76

25 51 76

25 51 76

25 51 76

25 51 76

25 51 76

25 51 76

25 51 76

25 51 76

25 51 76

25 51 76

25 51 76

25 51 76

25 51 76

25 51 76

25 51 76

25 51 76

25 51 76

25 51 76

25 51 76

25 51 76

25 51 76

25 51 76

25 51 76

25 51 76

25 51 76

25 51 76

25 51 76

25 51 76

25 51 76

25 51 76

25 51 76

25 51 76

25 51 76

25 51 76

25 51 76

25 51 76

25 51 76

25 51 76

25 51 76

25 51 76

25 51 76

25 51 76

25 51 76

25 51 76

25 51 76

25 51 76

25 51 76

25 51 76

25 51 76

25 51 76

25 51 76

25 51 76

25 51 76

25 51 76

25 51 76

25 51 76

25 51 76

25 51 76

25 51 76

25 51 76

25 51 76

25 51 76

25 51 76

25 51 76

25 51 76

25 51 76

25 51 76

25 51 76

25 51 76

25 51 76

25 51 76

25 51 76

25 51 76

25 51 76

25 51 76

25 51 76

25 51 76

25 51 76

25 51 76

25 51 76

25 51 76

25 51 76

25 51 76

25 51 76

25 51 76

25 51 76

25 51 76

25 51 76

25 51 76

25 51 76

25 51 76

25 51 76

25 51 76

25 51 76

25 51 76

25 51 76

25 51 76

25 51 76

25 51 76

25 51 76

25 51 76

25 51 76

25 51 76

25 51 76

25 51 76

25 51 76

25 51 76

25 51 76

25 51 76

25 51 76

25 51 76

25 51 76

25 51 76

25 51 76

25 51 76

25 51 76

25 51 76

25 51 76

25 51 76

25 51 76

25 51 76

25 51 76

25 51 76

25 51 76

25 51 76

25 51 76

25 51 76

25 51 76

25 51 76

25 51 76

25 51 76

25 51 76

25 51 76

25 51 76

25 51 76

25 51 76

25 51 76

25 51 76

25 51 76

25 51 76

25 51 76

25 51 76

25 51 76

25 51 76

25 51 76

25 51 76

25 51 76

25 51 76

25 51 76

25 51 76

25 51 76

25 51 76

25 51 76

25 51 76

25 51 76

25 51 76

25 51 76

25 51 76

25 51 76

25 51 76

25 51 76

25 51 76

25 51 76

25 51 76

25 51 76

25 51 76

25 51 76

25 51 76

25 51 76

25 51 76

25 51 76

25 51 76

25 51 76

25 51 76

25 51 76

25 51 76

25 51 76

25 51 76

25 51 76

25 51 76

25 51 76

25 51 76

25 51 76

25 51 76

25 51 76

25 51 76

25 51 76

25 51 76

25 51 76

25 51 76

25 51 76

25 51 76

25 51 76

25 51 76

25 51 76

25 51 76

25 51 76

25 51 76

25 51 76

25 51 76

25 51 76

25 51 76

25 51 76

25 51 76

25 51 76

25 51 76

25 51 76

25 51 76

25 51 76

25 51 76

25 51 76

25 51 76

25 51 76

25 51 76

25 51 76

25 51 76

25 51 76

25 51 76

25 51 76

25 51 76

25 51 76

25 51 76

25 51 76

25 51 76

25 51 76

25 51 76

25 51 76

25 51 76

25 51 76

25 51 76

25 51 76

25 51 76

25 51 76

25 51 76

25 51 76

25 51 76

25 51 76

25 51 76

25 51 76

25 51 76

25 51 76

25 51 76

25 51 76

25 51 76

25 51 76

25 51 76

25 51 76

25 51 76

25 51 76

25 51 76

25 51 76

25 51 76

25 51 76

25 51 76

25 51 76

25 51 76

25 51 76

25 51 76

25 51 76

25 51 76

25 51 76

25 51 76

25 51 76

25 51 76

25 51 76

25 51 76

25 51 76

25 51 76

25 51 76

25 51 76

25 51 76

25 51 76

25 51 76

25 51 76

25 51 76

25 51 76

25 51 76

25 51 76

25 51 76

25 51 76

25 51 76

25 51 76

25 51 76

25 51 76

25 51 76

25 51 76

25 51 76

25 51 76

25 51 76

25 51 76

25 51 76

25 51 76

25 51 76

25 51 76

25 51 76

25 51 76

25 51 76

25 51 76

25 51 76

25 51 76

25 51 76

25 51 76

25 51 76

25 51 76

25 51 76

25 51 76

25 51 76

25 51 76

25 51 76

25 51 76

25 51 76

25 51 76

25 51 76

25 51 76

25 51 76

25 51 76

25 51 76

25 51 76

25 51 76

25 51 76

25 51 76

25 51 76

25 51 76

25 51 76

25 51 76

25 51 76

25 51 76

25 51 76

25 51 76

25 51 76

25 51 76

25 51 76

25 51 76

25 51 76

25 51 76

25 51 76

25 51 76

25 51 76

25 51 76

25 51 76

25 51 76

25 51 76

25 51 76

25 51 76

25 51 76

25 51 76

25 51 76

25 51 76

25 51 76

25 51 76

25 51 76

25 51 76

25 51 76

25 51 76

25 51 76

25 51 76

25 51 76

25 51 76

25 51 76

25 51 76

25 51 76

25 51 76

25 51 76

25 51 76

25 51 76

25 51 76

25 51 76

25 51 76

25 51 76

25 51 76

25 51 76

25 51 76

25 51 76

25 51 76

25 51 76

25 51 76

25 51 76

25 51 76

25 51 76

25 51 76

25 51 76

25 51 76

25 51 76

25 51 76

25 51 76

25 51 76

25 51 76

25 51 76

25 51 76

25 51 76

25 51 76

25 51 76

25 51 76

25 51 76

25 51 76

25 51 76

25 51 76

25 51 76

25 51 76

25 51 76

25 51 76

25 51 76

25 51 76

25 51 76

25 51 76

25 51 76

25 51 76

25 51 76

25 51 76

25 51 76

25 51 76

25 51 76

25 51 76

25 51 76

25 51 76

25 51 76

25 51 76

25 51 76

25 51 76

25 51 76

25 51 76

25 51 76

25 51 76

25 51 76

25 51 76

25 51 76

25 51 76

25 51 76

25 51 76

25 51 76

25 51 76

25 51 76

25 51 76

25 51 76

25 51 76

25 51 76

25 51 76

25 51 76

25 51 76

25 51 76

25 51 76

25 51 76

25 51 76

25 51 76

25 51 76

25 51 76

25 51 76

25 51 76

25 51 76

25 51 76

25 51 76

25 51 76

25 51 76

25 51 76

25 51 76

25 51 76

25 51 76

25 51 76

25 51 76

25 51 76

25 51 76

25 51 76

25 51 76

25 51 76

25 51 76

25 51 76

25 51 76

25 51 76

25 51 76

25 51 76

25 51 76

25 51 76

25 51 76

25 51 76

25 51 76

25 51 76

25 51 76

25 51 76

25 51 76

25 51 76

25 51 76

25 51 76

25 51 76

25 51 76

25 51 76

25 51 76

25 51 76

25 51 76

25 51 76

25 51 76

25 51 76

25 51 76

25 51 76

25 51 76

25 51 76

25 51 76

25 51 76

25 51 76

25 51 76

25 51 76

25 51 76

25 51 76

25 51 76

25 51 76

25 51 76

25 51 76

25 51 76

25 51 76

25 51 76

25 51 76

25 51 76

25 51 76

25 51 76

25 51 76

25 51 76

25 51 76

25 51 76

25 51 76

25 51 76

25 51 76

25 51 76

25 51 76

25 51 76

25 51 76

25 51 76

25 51 76

25 51 76

25 51 76

25 51 76

25 51 76

25 51 76

25 51 76

25 51 76

25 51 76

25 51 76

25 51 76

25 51 76

25 51 76

25 51 76

25 51 76

25 51 76

25 51 76

25 51 76

25 51 76

25 51 76

25 51 76

25 51 76

25 51 76

25 51 76

25 51 76

25 51 76

25 51 76

25 51 76

25 51 76

25 51 76

25 51 76

25 51 76

25 51 76

25 51 76

25 51 76

25 51 76

25 51 76

25 51 76

25 51 76

25 51 76

25 51 76

25 51 76

25 51 76

25 51 76

25 51 76

25 51 76

25 51 76

25 51 76

25 51 76

25 51 76

25 51 76

25 51 76

25 51 76

25 51 76

25 51 76

25 51 76

25 51 76

25 51 76

25 51 76

25 51 76

25 51 76

25 51 76

25 51 76

25 51 76

25 51 76

25 51 76

25 51 76

25 51 76

25 51 76

25 51 76

25 51 76

25 51 76

25 51 76

25 51 76

25 51 76

25 51 76

25 51 76

25 51 76

25 51 76

25 51 76

25 51 76

25 51 76

25 51 76

25 51 76

25 51 76

25 51 76

25 51 76

25 51 76

25 51 76

25 51 76

25 51 76

25 51 76

25 51 76

25 51 76

25 51 76

25 51 76

25 51 76

25 51 76

25 51 76

25 51 76

25 51 76

25 51 76

25 51 76

25 51 76

25 51 76

25 51 76

25 51 76

25 51 76

25 51 76

25 51 76

25 51 76

25 51 76

25 51 76

25 51 76

25 51 76

25 51 76

25 51 76

25 51 76

25 51 76

25 51 76

25 51 76

25 51 76

25 51 76

25 51 76

25 51 76

25 51 76

25 51 76

25 51 76

25 51 76

25 51 76

25 51 76

25 51 76

25 51 76

25 51 76

25 51 76

25 51 76

25 51 76

25 51 76

25 51 76

25 51 76

25 51 76

25 51 76

25 51 76

25 51 76

25 51 76

25 51 76

25 51 76

25 51 76

25 51 76

25 51 76

25 51 76

25 51 76

25 51 76

25 51 76

25 51 76

25 51 76

25 51 76

25 51 76

25 51 76

25 51 76

25 51 76

25 51 76

25 51 76

25 51 76

25 51 76

25 51 76

25 51 76

25 51 76

25 51 76

25 51 76

25 51 76

25 51 76

25 51 76

25 51 76

25 51 76

25 51 76

25 51 76

25 51 76

25 51 76

25 51 76

25 51 76

25 51 76

25 51 76

25 51 76

25 51 76

25 51 76

25 51 76

25 51 76

25 51 76

25 51 76

25 51 76

25 51 76

25 51 76

25 51 76

25 51 76

25 51 76

25 51 76

25 51 76

25 51 76

25 51 76

25 51 76

25 51 76

25 51 76

25 51 76

25 51 76

25 51 76

25 51 76

25 51 76

25 51 76

25 51 76

25 51 76

25 51 76

25 51 76

25 51 76

25 51 76

25 51 76

25 51 76

25 51 76

25 51 76

25 51 76

25 51 76

25 51 76

25 51 76

25 51 76

25 51 76

25 51 76

25 51 76

25 51 76

25 51 76

25 51 76

25 51 76

25 51 76

25 51 76

25 51 76

25 51 76

25 51 76

25 51 76

25 51 76

25 51 76

25 51 76

25 51 76

25 51 76

25 51 76

25 51 76

25 51 76

25 51 76

25 51 76

25 51 76

25 51 76

25 51 76

25 51 76

25 51 76

25 51 76

25 51 76

25 51 76

25 51 76

25 51 76

25 51 76

25 51 76

25 51 76

25 51 76

25 51 76

25 51 76

25 51 76

25 51 76

25 51 76

25 51 76

25 51 76

25 51 76

25 51 76

25 51 76

25 51 76

25 51 76

25 51 76

25 51 76

25 51 76

25 51 76

25 51 76

25 51 76

25 51 76

25 51 76

25 51 76

25 51 76

25 51 76

25 51 76

25 51 76

25 51 76

25 51 76

25 51 76

25 51 76

25 51 76

25 51 76

25 51 76

25 51 76

25 51 76

25 51 76

25 51 76

25 51 76

25 51 76

25 51 76

25 51 76

25 51 76

25 51 76

25 51 76

25 51 76

25 51 76

25 51 76

25 51 76

25 51 76

25 51 76

25 51 76

25 51 76

25 51 76

25 51 76

25 51 76

25 51 76

25 51 76

25 51 76

25 51 76

25 51 76

25 51 76

25 51 76

25 51 76

25 51 76

25 51 76

25 51 76

25 51 76

25 51 76

25 51 76

25 51 76

25 51 76

25 51 76

25 51 76

25 51 76

25 51 76

25 51 76

25 51 76

25 51 76

25 51 76

25 51 76

25 51 76

25 51 76

25 51 76

25 51 76

25 51 76

25 51 76

25 51 76

25 51 76

25 51 76

25 51 76

25 51 76

25 51 76

25 51 76

25 51 76

25 51 76

25 51 76

25 51 76

25 51 76

25 51 76

25 51 76

25 51 76

25 51 76

25 51 76

25 51 76

25 51 76

25 51 76

25 51 76

25 51 76

25 51 76

25 51 76

25 51 76

25 51 76

25 51 76

25 51 76

25 51 76

25 51 76

25 51 76

25 51 76

25 51 76

25 51 76

25 51 76

25 51 76

25 51 76

25 51 76

25 51 76

25 51 76

25 51 76

25 51 76

25 51 76

25 51 76

25 51 76

25 51 76

25 51 76

25 51 76

25 51 76

25 51 76

25 51 76

25 51 76

25 51 76

25 51 76

25 51 76

25 51 76

25 51 76

25 51 76

25 51 76

25 51 76

25 51 76

25 51 76

25 51 76

25 51 76

25 51 76

25 51 76

25 51 76

25 51 76

25 51 76

25 51 76

25 51 76

25 51 76

25 51 76

25 51 76

25 51 76

25 51 76

25 51 76

25 51 76

25 51 76

25 51 76

25 51 76

25 51 76

25 51 76

25 51 76

25 51 76

25 51 76

25 51 76

25 51 76

25 51 76

25 51 76

25 51 76

25 51 76

25 51 76

25 51 76

25 51 76

25 51 76

25 51 76

25 51 76

25 51 76

25 51 76

25 51 76

25 51 76

25 51 76

25 51 76

25 51 76

25 51 76

25 51 76

25 51 76

25 51 76

25 51 76

25 51 76

25 51 76

25 51 76

25 51 76

25 51 76

25 51 76

25 51 76

25 51 76

25 51 76

25 51 76

25 51 76

25 51 76

25 51 76

25 51 76

25 51 76

25 51 76

25 51 76

25 51 76

25 51 76

25 51 76

25 51 76

25 51 76

25 51 76

25 51 76

25 51 76

25 51 76

25 51 76

25 51 76

25 51 76

25 51 76

25 51 76

25 51 76

25 51 76

25 51 76

25 51 76

25 51 76

25 51 76

25 51 76

25 51 76

25 51 76

25 51 76

25 51 76

25 51 76

25 51 76

25 51 76

25 51 76

25 51 76

25 51 76

25 51 76

25 51 76

25 51 76

25 51 76

25 51 76

25 51 76

25 51 76

25 51 76

25 51 76

25 51 76

25 51 76

25 51 76

25 51 76

25 51 76

25 51 76

25 51 76

25 51 76

25 51 76

25 51 76

25 51 76

25 51 76

25 51 76

25 51 76

25 51 76

25 51 76

25 51 76

25 51 76

25 51 76

25 51 76

25 51 76

25 51 76

25 51 76

25 51 76

25 51 76

25 51 76

25 51 76

25 51 76

25 51 76

25 51 76

25 51 76

25 51 76

25 51 76

25 51 76

25 51 76

25 51 76

25 51 76

25 51 76

25 51 76

25 51 76

25 51 76

25 51 76

25 51 76

25 51 76

25 51 76

25 51 76

25 51 76

25 51 76

25 51 76

25 51 76

25 51 76

25 51 76

25 51 76

25 51 76

25 51 76

25 51 76

25 51 76

25 51 76

25 51 76

25 51 76

25 51 76

25 51 76

25 51 76

25 51 76

25 51 76

25 51 76

25 51 76

25 51 76

25 51 76

25 51 76

25 51 76

25 51 76

25 51 76

25 51 76

25 51 76

25 51 76

25 51 76

25 51 76

25 51 76

25 51 76

25 51 76

25 51 76

25 51 76

25 51 76

25 51 76

25 51 76

25 51 76

25 51 76

25 51 76

25 51 76

25 51 76

25 51 76

25 51 76

25 51 76

25 51 76

25 51 76

25 51 76

25 51 76

25 51 76

25 51 76

25 51 76

25 51 76

25 51 76

25 51 76

25 51 76

25 51 76

25 51 76

25 51 76

25 51 76

25 51 76

25 51 76

25 51 76

25 51 76

25 51 76

25 51 76

25 51 76

25 51 76

25 51 76

25 51 76

25 51 76

25 51 76

25 51 76

25 51 76

25 51 76

25 51 76

25 51 76

25 51 76

25 51 76

25 51 76

25 51 76

25 51 76

25 51 76

25 51 76

25 51 76

25 51 76

25 51 76

25 51 76

25 51 76

25 51 76

25 51 76

25 51 76

25 51 76

25 51 76

25 51 76

25 51 76

25 51 76

25 51 76

25 51 76

25 51 76

25 51 76

25 51 76

25 51 76

25 51 76

25 51 76

25 51 76

25 51 76

25 51 76

25 51 76

25 51 76

25 51 76

25 51 76

25 51 76

25 51 76

25 51 76

25 51 76

25 51 76

25 51 76

25 51 76

25 51 76

25 51 76

25 51 76

25 51 76

25 51 76

25 51 76

25 51 76

25 51 76

25 51 76

25 51 76

25 51 76

25 51 76

25 51 76

25 51 76

25 51 76

25 51 76

25 51 76

25 51 76

25 51 76

25 51 76

25 51 76

25 51 76

25 51 76

25 51 76

25 51 76

25 51 76

25 51 76

25 51 76

25 51 76

25 51 76

25 51 76

25 51 76

25 51 76

25 51 76

25 51 76

25 51 76

25 51 76

25 51 76

25 51 76

25 51 76

25 51 76

25 51 76

25 51 76

25 51 76

25 51 76

25 51 76

25 51 76

25 51 76

25 51 76

25 51 76

25 51 76

25 51 76

25 51 76

25 51 76

25 51 76

25 51 76

25 51 76

25 51 76

25 51 76

25 51 76

25 51 76

25 51 76

25 51 76

25 51 76

25 51 76

25 51 76

25 51 76

25 51 76

25 51 76

25 51 76

25 51 76

25 51 76

25 51 76

25 51 76

25 51 76

25 51 76

25 51 76

25 51 76

25 51 76

25 51 76

25 51 76

25 51 76

25 51 76

25 51 76

25 51 76

25 51 76

25 51 76

25 51 76

25 51 76

25 51 76

25 51 76

25 51 76

25 51 76

25 51 76

25 51 76

25 51 76

25 51 76

25 51 76

25 51 76

25 51 76

25 51 76

25 51 76

25 51 76

25 51 76

25 51 76

25 51 76

25 51 76

25 51 76

25 51 76

25 51 76

25 51 76

25 51 76

25 51 76

25 51 76

25 51 76

25 51 76

25 51 76

25 51 76

25 51 76

25 51 76

25 51 76

25 51 76

25 51 76

25 51 76

25 51 76

25 51 76

25 51 76

25 51 76

25 51 76

25 51 76

25 51 76

25 51 76

25 51 76

25 51 76

25 51 76

25 51 76

25 51 76

25 51 76

25 51 76

25 51 76

25 51 76

25 51 76

25 51 76

25 51 76

25 51 76

25 51 76

25 51 76

25 51 76

25 51 76

25 51 76

25 51 76

25 51 76

25 51 76

25 51 76

25 51 76

25 51 76

25 51 76

25 51 76

25 51 76

25 51 76

25 51 76

25 51 76

25 51 76

25 51 76

25 51 76

25 51 76

25 51 76

25 51 76

25 51 76

25 51 76

25 51 76

25 51 76

25 51 76

25 51 76

25 51 76

25 51 76

25 51 76

25 51 76

25 51 76

25 51 76

25 51 76

25 51 76

25 51 76

25 51 76

25 51 76

25 51 76

25 51 76

25 51 76

25 51 76

25 51 76

25 51 76

25 51 76

25 51 76

25 51 76

25 51 76

25 51 76

25 51 76

25 51 76

25 51 76

25 51 76

25 51 76

25 51 76

25 51 76

25 51 76

25 51 76

25 51 76

25 51 76

25 51 76

25 51 76

25 51 76

25 51 76

25 51 76

25 51 76

25 51 76

25 51 76

25 51 76

25 51 76

25 51 76

25 51 76

25 51 76

25 51 76

25 51 76

25 51 76

25 51 76

25 51 76

25 51 76

25 51 76

25 51 76

25 51 76

25 51 76

25 51 76

25 51 76

25 51 76

25 51 76

25 51 76

25 51 76

25 51 76

25 51 76

25 51 76

25 51 76

25 51 76

25 51 76

25 51 76

25 51 76

25 51 76

25 51 76

25 51 76

25 51 76

25 51 76

25 51 76

25 51 76

25 51 76

25 51 76

25 51 76

25 51 76

25 51 76

25 51 76

25 51 76

25 51 76

25 51 76

25 51 76

25 51 76

25 51 76

25 51 76

25 51 76

25 51 76

25 51 76

25 51 76

25 51 76

25 51 76

25 51 76

25 51 76

25 51 76

25 51 76

25 51 76

25 51 76

25 51 76

25 51 76

25 51 76

25 51 76

25 51 76

25 51 76

25 51 76

25 51 76

25 51 76

25 51 76

25 51 76

25 51 76

25 51 76

25 51 76

25 51 76

25 51 76

25 51 76

25 51 76

25 51 76

25 51 76

25 51 76

25 51 76

25 51 76

25 51 76

25 51 76

25 51 76

25 51 76

25 51 76

25 51 76

25 51 76

25 51 76

25 51 76

25 51 76

25 51 76

25 51 76

25 51 76

25 51 76

25 51 76

25 51 76

25 51 76

25 51 76

25 51 76

25 51 76

25 51 76

25 51 76

25 51 76

25 51 76

25 51 76

25 51 76

25 51 76

25 51 76

25 51 76

25 51 76

25 51 76

25 51 76

25 51 76

25 51 76

25 51 76

25 51 76

25 51 76

25 51 76

25 51 76

25 51 76

25 51 76

25 51 76

25 51 76

25 51 76

25 51 76

25 51 76

25 51 76

25 51 76

25 51 76

25 51 76

25 51 76

25 51 76

25 51 76

25 51 76

25 51 76

25 51 76

25 51 76

25 51 76

25 51 76

25 51 76

25 51 76

25 51 76

25 51 76

25 51 76

25 51 76

25 51 76

25 51 76

25 51 76

25 51 76

25 51 76

25 51 76

25 51 76

25 51 76

25 51 76

25 51 76

25 51 76

25 51 76

25 51 76

25 51 76

25 51 76

25 51 76

25 51 76

25 51 76

25 51 76

25 51 76

25 51 76

25 51 76

25 51 76

25 51 76

25 51 76

25 51 76

25 51 76

25 51 76

25 51 76

25 51 76

25 51 76

25 51 76

25 51 76

25 51 76

25 51 76

25 51 76

25 51 76

25 51 76

25 51 76

25 51 76

25 51 76

25 51 76

25 51 76

25 51 76

25 51 76

25 51 76

25 51 76

25 51 76

25 51 76

25 51 76

25 51 76

25 51 76

25 51 76

25 51 76

25 51 76

25 51 76

25 51 76

25 51 76

25 51 76

25 51 76

25 51 76

25 51 76

25 51 76

25 51 76

25 51 76

25 51 76

25 51 76

25 51 76

25 51 76

25 51 76

25 51 76

25 51 76

25 51 76

25 51 76

25 51 76

25 51 76

25 51 76

25 51 76

25 51 76

25 51 76

25 51 76

25 51 76

25 51 76

25 51 76

25 51 76

25 51 76

25 51 76

25 51 76

25 51 76

25 51 76

25 51 76

25 51 76

25 51 76

25 51 76

25 51 76

25 51 76

25 51 76

25 51 76

25 51 76

25 51 76

25 51 76

25 51 76

25 51 76

25 51 76

25 51 76

25 51 76

25 51 76

25 51 76

25 51 76

25 51 76

25 51 76

25 51 76

25 51 76

25 51 76

25 51 76

25 51 76

25 51 76

25 51 76

25 51 76

25 51 76

25 51 76

25 51 76

25 51 76

25 51 76

25 51 76

25 51 76

25 51 76

25 51 76

25 51 76

25 51 76

25 51 76

25 51 76

25 51 76

25 51 76

25 51 76

25 51 76

25 51 76

25 51 76

25 51 76

25 51 76

25 51 76

25 51 76

25 51 76

25 51 76

25 51 76

25 51 76

25 51 76

25 51 76

25 51 76

25 51 76

25 51 76

25 51 76

25 51 76

25 51 76

25 51 76

25 51 76

25 51 76

25 51 76

25 51 76

25 51 76

25 51 76

25 51 76

25 51 76

25 51 76

25 51 76

25 51 76

25 51 76

25 51 76

25 51 76

25 51 76

25 51 76

25 51 76

25 51 76

25 51 76

25 51 76

25 51 76

25 51 76

25 51 76

25 51 76

25 51 76

25 51 76

25 51 76

25 51 76

25 51 76

25 51 76

25 51 76

25 51 76

25 51 76

25 51 76

25 51 76

25 51 76

25 51 76

25 51 76

25 51 76

25 51 76

25 51 76

25 51 76

25 51 76

25 51 76

25 51 76

25 51 76

25 51 76

25 51 76

25 51 76

25 51 76

25 51 76

25 51 76

25 51 76

25 51 76

25 51 76

25 51 76

25 51 76

25 51 76

25 51 76

25 51 76

25 51 76

25 51 76

25 51 76

25 51 76

25 51 76

25 51 76

25 51 76

25 51 76

25 51 76

25 51 76

25 51 76

25 51 76

25 51 76

25 51 76

25 51 76

25 51 76

25 51 76

25 51 76

25 51 76

25 51 76

25 51 76

25 51 76

25 51 76

25 51 76

25 51 76

25 51 76

25 51 76

25 51 76

25 51 76

25 51 76

25 51 76

25 51 76

25 51 76

25 51 76

25 51 76

25 51 76

25 51 76

25 51 76

25 51 76

25 51 76

25 51 76

25 51 76

25 51 76

25 51 76

25 51 76

25 51 76

25 51 76

25 51 76

25 51 76

25 51 76

25 51 76

25 51 76

25 51 76

25 51 76

25 51 76

25 51 76

25 51 76

25 51 76

25 51 76

25 51 76

25 51 76

25 51 76

25 51 76

25 51 76

25 51 76

25 51 76

25 51 76

25 51 76

25 51 76

25 51 76

25 51 76

25 51 76

25 51 76

25 51 76

25 51 76

25 51 76

25 51 76

25 51 76

25 51 76

25 51 76

25 51 76

25 51 76

25 51 76

25 51 76

25 51 76

25 51 76

25 51 76

25 51 76

25 51 76

25 51 76

25 51 76

25 51 76

25 51 76

25 51 76

25 51 76

25 51 76

25 51 76

25 51 76

25 51 76

25 51 76

25 51 76

25 51 76

25 51 76

25 51 76

25 51 76

25 51 76

25 51 76

25 51 76

25 51 76

25 51 76

25 51 76

25 51 76

25 51 76

25 51 76

25 51 76

25 51 76

25 51 76

25 51 76

25 51 76

25 51 76

25 51 76

25 51 76

25 51 76

25 51 76

25 51 76

25 51 76

25 51 76

25 51 76

25 51 76

25 51 76

25 51 76

25 51 76

25 51 76

25 51 76

25 51 76

25 51 76

25 51 76

25 51 76

25 51 76

25 51 76

25 51 76

25 51 76

25 51 76

25 51 76

25 51 76

25 51 76

25 51 76

25 51 76

25 51 76

25 51 76

25 51 76

25 51 76

25 51 76

25 51 76

25 51 76

25 51 76

25 51 76

25 51 76

25 51 76

25 51 76

25 51 76

25 51 76

25 51 76

25 51 76

25 51 76

25 51 76

25 51 76

25 51 76

25 51 76

25 51 76

25 51 76

25 51 76

25 51 76

25 51 76

25 51 76

25 51 76

25 51 76

25 51 76

25 51 76

25 51 76

25 51 76

25 51 76

25 51 76

25 51 76

25 51 76

25 51 76

25 51 76

25 51 76

25 51 76

25 51 76

25 51 76

25 51 76

25 51 76

25 51 76

25 51 76

25 51 76

25 51 76

25 51 76

25 51 76

25 51 76

25 51 76

25 51 76

25 51 76

25 51 76

25 51 76

25 51 76

25 51 76

25 51 76

25 51 76

25 51 76

25 51 76

25 51 76

25 51 76

25 51 76

25 51 76

25 51 76

25 51 76

25 51 76

25 51 76

25 51 76

25 51 76

25 51 76

25 51 76

25 51 76

25 51 76

25 51 76

25 51 76

25 51 76

25 51 76

25 51 76

25 51 76

25 51 76

25 51 76

25 51 76

25 51 76

25 51 76

25 51 76

25 51 76

25 51 76

25 51 76

25 51 76

25 51 76

25 51 76

25 51 76

25 51 76

25 51 76

25 51 76

25 51 76

25 51 76

25 51 76

25 51 76

25 51 76

25 51 76

25 51 76

25 51 76

25 51 76

25 51 76

25 51 76

25 51 76

25 51 76

25 51 76

25 51 76

25 51 76

25 51 76

25 51 76

25 51 76

25 51 76

25 51 76

25 51 76

25 51 76

25 51 76

25 51 76

25 51 76

25 51 76

25 51 76

25 51 76

25 51 76

25 51 76

25 51 76

25 51 76

25 51 76

25 51 76

25 51 76

25 51 76

25 51 76

25 51 76

25 51 76

25 51 76

25 51 76

25 51 76

25 51 76

25 51 76

25 51 76

25 51 76

25 51 76

25 51 76

25 51 76

25 51 76

25 51 76

25 51 76

25 51 76

25 51 76

25 51 76

25 51 76

25 51 76

25 51 76

25 51 76

25 51 76

25 51 76

25 51 76

25 51 76

25 51 76

25 51 76

25 51 76

25 51 76

25 51 76

25 51 76

25 51 76

25 51 76

25 51 76

25 51 76

25 51 76

25 51 76

25 51 76

25 51 76

25 51 76

25 51 76

25 51 76

25 51 76

25 51 76

25 51 76

25 51 76

25 51 76

25 51 76

25 51 76

25 51 76

25 51 76

25 51 76

25 51 76

25 51 76

25 51 76

25 51 76

25 51 76

25 51 76

25 51 76

25 51 76

25 51 76

25 51 76

25 51 76

25 51 76

25 51 76

25 51 76

25 51 76

25 51 76

25 51 76

25 51 76

25 51 76

25 51 76

25 51 76

25 51 76

25 51 76

25 51 76

25 51 76

25 51 76

25 51 76

25 51 76

25 51 76

25 51 76

25 51 76

25 51 76

25 51 76

25 51 76

25 51 76

25 51 76

25 51 76

25 51 76

25 51 76

25 51 76

25 51 76

25 51 76

25 51 76

25 51 76

25 51 76

25 51 76

25 51 76

25 51 76

25 51 76

25 51 76

25 51 76

25 51 76

25 51 76

25 51 76

25 51 76

25 51 76

25 51 76

25 51 76

25 51 76

25 51 76

25 51 76

25 51 76

25 51 76

25 51 76

25 51 76

25 51 76

25 51 76

25 51 76

25 51 76

25 51 76

25 51 76

25 51 76

25 51 76

25 51 76

25 51 76

25 51 76

25 51 76

25 51 76

25 51 76

25 51 76

25 51 76

25 51 76

25 51 76

25 51 76

25 51 76

25 51 76

25 51 76

25 51 76

25 51 76

25 51 76

25 51 76

25 51 76

25 51 76

25 51 76

25 51 76

25 51 76

25 51 76

25 51 76

25 51 76

25 51 76

25 51 76

25 51 76

25 51 76

25 51 76

25 51 76

25 51 76

25 51 76

25 51 76

25 51 76

25 51 76

25 51 76

25 51 76

25 51 76

25 51 76

25 51 76

25 51 76

25 51 76

25 51 76

25 51 76

25 51 76

25 51 76

25 51 76

25 51 76

25 51 76

25 51 76

25 51 76

25 51 76

25 51 76

25 51 76

25 51 76

25 51 76

25 51 76

25 51 76

25 51 76

25 51 76

25 51 76

25 51 76

25 51 76

25 51 76

25 51 76

25 51 76

25 51 76

25 51 76

25 51 76

25 51 76

25 51 76

25 51 76

25 51 76

25 51 76

25 51 76

25 51 76

25 51 76

25 51 76

25 51 76

25 51 76

25 51 76

25 51 76

25 51 76

25 51 76

25 51 76

25 51 76

25 51 76

25 51 76

25 51 76

25 51 76

25 51 76

25 51 76

25 51 76

25 51 76

25 51 76

25 51 76

25 51 76

25 51 76

25 51 76

25 51 76

25 51 76

25 51 76

25 51 76

25 51 76

25 51 76

25 51 76

25 51 76

25 51 76

25 51 76

25 51 76

25 51 76

25 51 76

25 51 76

25 51 76

25 51 76

25 51 76

25 51 76

25 51 76

25 51 76

25 51 76

25 51 76

25 51 76

25 51 76

25 51 76

25 51 76

25 51 76

25 51 76

25 51 76

25 51 76

25 51 76

25 51 76

25 51 76

25 51 76

25 51 76

25 51 76

25 51 76

25 51 76

25 51 76

25 51 76

25 51 76

25 51 76

25 51 76

25 51 76

25 51 76

25 51 76

25 51 76

25 51 76

25 51 76

25 51 76

25 51 76

25 51 76

25 51 76

25 51 76

25 51 76

25 51 76

25 51 76

25 51 76

25 51 76

25 51 76

25 51 76

25 51 76

25 51 76

25 51 76

25 51 76

25 51 76

25 51 76

25 51 76

25 51 76

25 51 76

25 51 76

25 51 76

25 51 76

25 51 76

25 51 76

25 51 76

25 51 76

25 51 76

25 51 76

25 51 76

25 51 76

25 51 76

25 51 76

25 51 76

25 51 76

25 51 76

25 51 76

25 51 76

25 51 76

25 51 76

25 51 76

25 51 76

25 51 76

25 51 76

25 51 76

25 51 76

25 51 76

25 51 76

25 51 76

25 51 76

25 51 76

25 51 76

25 51 76

25 51 76

25 51 76

25 51 76

25 51 76

25 51 76

25 51 76

25 51 76

25 51 76

25 51 76

25 51 76

25 51 76

25 51 76

25 51 76

25 51 76

25 51 76

25 51 76

25 51 76

25 51 76

25 51 76

25 51 76

25 51 76

25 51 76

25 51 76

25 51 76

25 51 76

25 51 76

25 51 76

25 51 76

25 51 76

25 51 76

25 51 76

25 51 76

25 51 76

25 51 76

25 51 76

25 51 76

25 51 76

25 51 76

25 51 76

25 51 76

25 51 76

25 51 76

25 51 76

25 51 76

25 51 76

25 51 76

25 51 76

25 51 76

25 51 76

25 51 76

25 51 76

25 51 76

25 51 76

25 51 76

25 51 76

25 51 76

25 51 76

25 51 76

25 51 76

25 51 76

25 51 76

25 51 76

25 51 76

25 51 76

25 51 76

25 51 76

25 51 76

25 51 76

25 51 76

25 51 76

25 51 76

25 51 76

25 51 76

25 51 76

25 51 76

25 51 76

25 51 76

25 51 76

25 51 76

25 51 76

25 51 76

25 51 76

25 51 76

25 51 76

25 51 76

25 51 76

25 51 76

25 51 76

25 51 76

25 51 76

25 51 76

25 51 76

25 51 76

25 51 76

25 51 76

25 51 76

25 51 76

25 51 76

25 51 76

25 51 76

25 51 76

25 51 76

25 51 76

25 51 76

25 51 76

25 51 76

25 51 76

25 51 76

25 51 76

25 51 76

25 51 76

25 51 76

25 51 76

25 51 76

25 51 76

25 51 76

25 51 76

25 51 76

25 51 76

25 51 76

25 51 76

25 51 76

25 51 76

25 51 76

25 51 76

25 51 76

25 51 76

25 51 76

25 51 76

25 51 76

25 51 76

25 51 76

25 51 76

25 51 76

25 51 76

25 51 76

25 51 76

25 51 76

25 51 76

25 51 76

25 51 76

25 51 76

25 51 76

25 51 76

25 51 76

25 51 76

25 51 76

25 51 76

25 51 76

25 51 76

25 51 76

25 51 76

25 51 76

25 51 76

25 51 76

25 51 76

25 51 76

25 51 76

25 51 76

25 51 76

25 51 76

25 51 76

25 51 76

25 51 76

25 51 76

25 51 76

25 51 76

25 51 76

25 51 76

25 51 76

25 51 76

25 51 76

25 51 76

25 51 76

25 51 76

25 51 76

25 51 76

25 51 76

25 51 76

25 51 76

25 51 76

25 51 76

25 51 76

25 51 76

25 51 76

25 51 76

25 51 76

25 51 76

25 51 76

25 51 76

25 51 76

25 51 76

25 51 76

25 51 76

25 51 76

25 51 76

25 51 76

25 51 76

25 51 76

25 51 76

25 51 76

25 51 76

25 51 76

25 51 76

25 51 76

25 51 76

25 51 76

25 51 76

25 51 76

25 51 76

25 51 76

25 51 76

25 51 76

25 51 76

25 51 76

25 51 76

25 51 76

25 51 76

25 51 76

25 51 76

25 51 76

25 51 76

25 51 76

25 51 76

25 51 76

25 51 76

25 51 76

25 51 76

25 51 76

25 51 76

25 51 76

25 51 76

25 51 76

25 51 76

25 51 76

25 51 76

25 51 76

25 51 76

25 51 76

25 51 76

25 51 76

25 51 76

25 51 76

25 51 76

25 51 76

25 51 76

25 51 76

25 51 76

25 51 76

25 51 76

25 51 76

25 51 76

25 51 76

25 51 76

25 51 76

25 51 76

25 51 76

25 51 76

25 51 76

25 51 76

25 51 76

25 51 76

25 51 76

25 51 76

25 51 76

25 51 76

25 51 76

25 51 76

25 51 76

25 51 76

25 51 76

25 51 76

25 51 76

25 51 76

25 51 76

25 51 76

25 51 76

25 51 76

25 51 76

25 51 76

25 51 76

25 51 76

25 51 76

25 51 76

25 51 76

25 51 76

25 51 76

25 51 76

25 51 76

25 51 76

25 51 76

25 51 76

25 51 76

25 51 76

25 51 76

25 51 76

25 51 76

25 51 76

25 51 76

25 51 76

25 51 76

25 51 76

25 51 76

25 51 76

25 51 76

25 51 76

25 51 76

25 51 76

25 51 76

25 51 76

25 51 76

25 51 76

25 51 76

25 51 76

25 51 76

25 51 76

25 51 76

25 51 76

25 51 76

25 51 76

25 51 76

25 51 76

25 51 76

25 51 76

25 51 76

25 51 76

25 51 76

25 51 76

25 51 76

25 51 76

25 51 76

25 51 76

25 51 76

25 51 76

25 51 76

25 51 76

25 51 76

25 51 76

25 51 76

25 51 76

25 51 76

25 51 76

25 51 76

25 51 76

25 51 76

25 51 76

25 51 76

25 51 76

25 51 76

25 51 76

25 51 76

25 51 76

25 51 76

25 51 76

25 51 76

25 51 76

25 51 76

25 51 76

25 51 76

25 51 76

25 51 76

25 51 76

25 51 76

25 51 76

25 51 76

25 51 76

25 51 76

25 51 76

25 51 76

25 51 76

25 51 76

25 51 76

25 51 76

25 51 76

25 51 76

25 51 76

25 51 76

25 51 76

25 51 76

25 51 76

25 51 76

25 51 76

25 51 76

25 51 76

25 51 76

25 51 76

25 51 76

25 51 76

25 51 76

25 51 76

25 51 76

25 51 76

25 51 76

25 51 76

25 51 76

25 51 76

25 51 76

25 51 76

25 51 76

25 51 76

25 51 76

25 51 76

25 51 76

25 51 76

25 51 76

25 51 76

25 51 76

25 51 76

25 51 76

25 51 76

25 51 76

25 51 76

25 51 76

25 51 76

25 51 76

25 51 76

25 51 76

25 51 76

25 51 76

25 51 76

25 51 76

25 51 76

25 51 76

25 51 76

25 51 76

25 51 76

25 51 76

25 51 76

25 51 76

25 51 76

25 51 76

25 51 76

25 51 76

25 51 76

25 51 76

25 51 76

25 51 76

25 51 76

25 51 76

25 51 76

25 51 76

25 51 76

25 51 76

25 51 76

25 51 76

25 51 76

25 51 76

25 51 76

25 51 76

25 51 76

25 51 76

25 51 76

25 51 76

25 51 76

25 51 76

25 51 76

25 51 76

25 51 76

25 51 76

25 51 76

25 51 76

25 51 76

25 51 76

25 51 76

25 51 76

25 51 76

25 51 76

25 51 76

25 51 76

25 51 76

25 51 76

25 51 76

25 51 76

25 51 76

25 51 76

25 51 76

25 51 76

25 51 76

25 51 76

25 51 76

25 51 76

25 51 76

25 51 76

25 51 76

25 51 76

25 51 76

25 51 76

25 51 76

25 51 76

25 51 76

25 51 76

25 51 76

25 51 76

25 51 76

25 51 76

25 51 76

25 51 76

25 51 76

25 51 76

25 51 76

25 51 76

25 51 76

25 51 76

25 51 76

25 51 76

25 51 76

25 51 76

25 51 76

25 51 76

25 51 76

25 51 76

25 51 76

25 51 76

25 51 76

25 51 76

25 51 76

25 51 76

25 51 76

25 51 76

25 51 76

25 51 76

25 51 76

25 51 76

25 51 76

25 51 76

25 51 76

25 51 76

25 51 76

25 51 76

25 51 76

25 51 76

25 51 76

25 51 76

25 51 76

25 51 76

25 51 76

25 51 76

25 51 76

25 51 76

25 51 76

25 51 76

25 51 76

25 51 76

25 51 76

25 51 76

25 51 76

25 51 76

25 51 76

25 51 76

25 51 76

25 51 76

25 51 76

25 51 76

25 51 76

25 51 76

25 51 76

25 51 76

25 51 76

25 51 76

25 51 76

25 51 76

25 51 76

25 51 76

25 51 76

25 51 76

25 51 76

25 51 76

25 51 76

25 51 76

25 51 76

25 51 76

25 51 76

25 51 76

25 51 76

25 51 76

25 51 76

25 51 76

25 51 76

25 51 76

25 51 76

25 51 76

25 51 76

25 51 76

25 51 76

25 51 76

25 51 76

25 51 76

25 51 76

25 51 76

25 51 76

25 51 76

25 51 76

25 51 76

25 51 76

25 51 76

25 51 76

25 51 76

25 51 76

25 51 76

25 51 76

25 51 76

25 51 76

25 51 76

25 51 76

25 51 76

25 51 76

25 51 76

25 51 76

25 51 76

25 51 76

25 51 76

25 51 76

25 51 76

25 51 76

25 51 76

25 51 76

25 51 76

25 51 76

25 51 76

25 51 76

25 51 76

25 51 76

25 51 76

25 51 76

25 51 76

25 51 76

25 51 76

25 51 76

25 51 76

25 51 76

25 51 76

25 51 76

25 51 76

25 51 76

25 51 76

25 51 76

25 51 76

25 51 76

25 51 76

25 51 76

25 51 76

25 51 76

25 51 76

25 51 76

25 51 76

25 51 76

25 51 76

25 51 76

25 51 76

25 51 76

25 51 76

25 51 76

25 51 76

25 51 76

25 51 76

25 51 76

25 51 76

25 51 76

25 51 76

25 51 76

25 51 76

25 51 76

25 51 76

25 51 76

25 51 76

25 51 76

25 51 76

25 51 76

25 51 76

25 51 76

25 51 76

25 51 76

25 51 76

25 51 76

25 51 76

25 51 76

25 51 76

25 51 76

25 51 76

25 51 76

25 51 76

25 51 76

25 51 76

25 51 76

25 51 76

25 51 76

25 51 76

25 51 76

25 51 76

25 51 76

25 51 76

25 51 76

25 51 76

25 51 76

25 51 76

25 51 76

25 51 76

25 51 76

25 51 76

25 51 76

25 51 76

25 51 76

25 51 76

25 51 76

25 51 76

25 51 76

25 51 76

25 51 76

25 51 76

25 51 76

25 51 76

25 51 76

25 51 76

25 51 76

25 51 76

25 51 76

25 51 76

25 51 76

25 51 76

25 51 76

25 51 76

25 51 76

25 51 76

25 51 76

25 51 76

25 51 76

25 51 76

25 51 76

25 51 76

25 51 76

25 51 76

25 51 76

25 51 76

25 51 76

25 51 76

25 51 76

25 51 76

25 51 76

25 51 76

25 51 76

25 51 76

25 51 76

25 51 76

25 51 76

25 51 76

25 51 76

25 51 76

25 51 76

25 51 76

25 51 76

25 51 76

25 51 76

25 51 76

25 51 76

25 51 76

25 51 76

25 51 76

25 51 76

25 51 76

25 51 76

25 51 76

25 51 76

25 51 76

25 51 76

25 51 76

25 51 76

25 51 76

25 51 76

25 51 76

25 51 76

25 51 76

25 51 76

25 51 76

25 51 76

25 51 76

25 51 76

25 51 76

25 51 76

25 51 76

25 51 76

25 51 76

25 51 76

25 51 76

25 51 76

25 51 76

25 51 76

25 51 76

25 51 76

25 51 76

25 51 76

25 51 76

25 51 76

25 51 76

25 51 76

25 51 76

25 51 76

25 51 76

25 51 76

25 51 76

25 51 76

25 51 76

25 51 76

25 51 76

25 51 76

25 51 76

25 51 76

25 51 76

25 51 76

25 51 76

25 51 76

25 51 76

25 51 76

25 51 76

25 51 76

25 51 76

25 51 76

25 51 76

25 51 76

25 51 76

25 51 76

25 51 76

25 51 76

25 51 76

25 51 76

25 51 76

25 51 76

25 51 76

25 51 76

25 51 76

25 51 76

25 51 76

25 51 76

25 51 76

25 51 76

25 51 76

25 51 76

25 51 76

25 51 76

25 51 76

25 51 76

25 51 76

25 51 76

25 51 76

25 51 76

25 51 76

25 51 76

25 51 76

25 51 76

25 51 76

25 51 76

25 51 76

25 51 76

25 51 76

25 51 76

25 51 76

25 51 76

25 51 76

25 51 76

25 51 76

25 51 76

25 51 76

25 51 76

25 51 76

25 51 76

25 51 76

25 51 76

25 51 76

25 51 76

25 51 76

25 51 76

25 51 76

25 51 76

25 51 76

25 51 76

25 51 76

25 51 76

25 51 76

25 51 76

25 51 76

25 51 76

25 51 76

25 51 76

25 51 76

25 51 76

25 51 76

25 51 76

25 51 76

25 51 76

25 51 76

25 51 76

25 51 76

25 51 76

25 51 76

25 51 76

25 51 76

25 51 76

25 51 76

25 51 76

25 51 76

25 51 76

25 51 76

25 51 76

25 51 76

25 51 76

25 51 76

25 51 76

25 51 76

25 51 76

25 51 76

25 51 76

25 51 76

25 51 76

25 51 76

25 51 76

25 51 76

25 51 76

25 51 76

25 51 76

25 51 76

25 51 76

25 51 76

25 51 76

25 51 76

25 51 76

25 51 76

25 51 76

25 51 76

25 51 76

25 51 76

25 51 76

25 51 76

25 51 76

25 51 76

25 51 76

25 51 76

25 51 76

25 51 76

25 51 76

25 51 76

25 51 76

25 51 76

25 51 76

25 51 76

25 51 76

25 51 76

25 51 76

25 51 76

25 51 76

25 51 76

25 51 76

25 51 76

25 51 76

25 51 76

25 51 76

25 51 76

25 51 76

25 51 76

25 51 76

25 51 76

25 51 76

25 51 76

25 51 76

25 51 76

25 51 76

25 51 76

25 51 76

25 51 76

25 51 76

25 51 76

25 51 76

25 51 76

25 51 76

25 51 76

25 51 76

25 51 76

25 51 76

25 51 76

25 51 76

25 51 76

25 51 76

25 51 76

25 51 76

25 51 76

25 51 76

25 51 76

25 51 76

25 51 76

25 51 76

25 51 76

25 51 76

25 51 76

25 51 76

25 51 76

25 51 76

25 51 76

25 51 76

25 51 76

25 51 76

25 51 76

25 51 76

25 51 76

25 51 76

25 51 76

25 51 76

25 51 76

25 51 76

25 51 76

25 51 76

25 51 76

25 51 76

25 51 76

25 51 76

25 51 76

25 51 76

Done!
